BUCAI-qaq/main/m/chapter3/record_data_x3_getup/real_state.txt
timestep	qpos_left_hip_pitch_joint	qpos_right_hip_pitch_joint	qpos_waist_roll_joint	qpos_left_hip_roll_joint	qpos_right_hip_roll_joint	qpos_waist_yaw_joint	qpos_left_hip_yaw_joint	qpos_right_hip_yaw_joint	qpos_left_shoulder_pitch_joint	qpos_right_shoulder_pitch_joint	qpos_left_knee_joint	qpos_right_knee_joint	qpos_left_shoulder_roll_joint	qpos_right_shoulder_roll_joint	qpos_left_ankle_pitch_joint	qpos_right_ankle_pitch_joint	qpos_left_shoulder_yaw_joint	qpos_right_shoulder_yaw_joint	qpos_left_ankle_roll_joint	qpos_right_ankle_roll_joint	qpos_left_elbow_joint	qpos_right_elbow_joint	qpos_left_wrist_roll_joint	qpos_right_wrist_roll_joint	qvel_left_hip_pitch_joint	qvel_right_hip_pitch_joint	qvel_waist_roll_joint	qvel_left_hip_roll_joint	qvel_right_hip_roll_joint	qvel_waist_yaw_joint	qvel_left_hip_yaw_joint	qvel_right_hip_yaw_joint	qvel_left_shoulder_pitch_joint	qvel_right_shoulder_pitch_joint	qvel_left_knee_joint	qvel_right_knee_joint	qvel_left_shoulder_roll_joint	qvel_right_shoulder_roll_joint	qvel_left_ankle_pitch_joint	qvel_right_ankle_pitch_joint	qvel_left_shoulder_yaw_joint	qvel_right_shoulder_yaw_joint	qvel_left_ankle_roll_joint	qvel_right_ankle_roll_joint	qvel_left_elbow_joint	qvel_right_elbow_joint	qvel_left_wrist_roll_joint	qvel_right_wrist_roll_joint	root_vel_x	root_vel_y	root_vel_z
0	-0.16054081916809082	0.056719161570072174	-0.25994861125946045	0.058150094002485275	-0.25956735014915466	-0.3311077058315277	0.160420224070549	-0.3254762291908264	0.16387034952640533	0.38478225469589233	0.3163388669490814	0.17337869107723236	1.1286938190460205	-1.591719150543213	-0.03194808214902878	-0.09110439568758011	-0.09015079587697983	0.059549275785684586	-0.16535378992557526	-0.04155807942152023	0.43234747648239136	0.608244776725769	0.239569291472435	-0.03612804040312767	-10.242257118225098	-6.03714656829834	-1.296086072921753	-3.5103628635406494	-5.308402061462402	-1.4826551675796509	10.422478675842285	5.923410415649414	-7.9464311599731445	-9.974993705749512	4.0088114738464355	-4.91903829574585	-2.2523257732391357	1.07402503490448	12.8936767578125	6.68121337890625	-5.238127708435059	8.502260208129883	-4.902268409729004	-1.9971832036972046	5.828094482421875	4.210109233856201	10.002457618713379	-5.5292134284973145	6.545938968658447	1.3189588785171509	-8.84714126586914
1	-0.268152117729187	-0.027814103290438652	-0.32544970512390137	-0.00561037240549922	-0.2865334749221802	-0.21995475888252258	0.4007628858089447	-0.1167646124958992	0.23324114084243774	0.346653550863266	0.19698983430862427	-0.0008715502335689962	1.126810908317566	-1.626454472541809	0.15850761532783508	-0.15624196827411652	-0.03397541865706444	0.20733749866485596	-0.25155794620513916	-0.0732424259185791	0.6136922836303711	0.783037543296814	0.43708720803260803	-0.13381707668304443	2.051949977874756	-2.046562671661377	-6.446571350097656	-0.9589828252792358	1.5616320371627808	9.977798461914062	9.131131172180176	9.915806770324707	2.7518482208251953	1.5197738409042358	-6.800899028778076	-0.7521998286247253	8.241300582885742	0.5234787464141846	5.657905578613281	-8.394176483154297	-10.004495620727539	6.071690559387207	-1.7087749242782593	-2.719374179840088	6.286963939666748	8.382381439208984	9.140437126159668	-4.5227484703063965	-0.2242382913827896	-0.21860793232917786	-0.1349664330482483
2	-0.344436377286911	-0.16078194975852966	-0.3423149287700653	0.0603262297809124	-0.2260618507862091	-0.11882520467042923	0.5745705962181091	0.09092731773853302	0.19241200387477875	0.3078562021255493	0.2766369879245758	0.09380856901407242	1.132351040840149	-1.6994681358337402	0.08684386312961578	-0.28115952014923096	-0.18205085396766663	0.3901631236076355	-0.3081952929496765	-0.08093003183603287	0.8087126612663269	0.9324473142623901	0.6184934973716736	-0.12522093951702118	-7.004242420196533	-8.242968559265137	-3.2875618934631348	4.419262409210205	1.9932829141616821	5.017885208129883	6.81083869934082	9.266998291015625	-0.9124062061309814	-2.4389281272888184	11.151948928833008	7.269618988037109	2.699772596359253	3.278726577758789	-12.322160720825195	-6.676380157470703	-6.850048542022705	3.2282357215881348	-4.084791660308838	-0.8242942094802856	7.855109691619873	10.02500057220459	9.291234016418457	-0.29848867654800415	-0.2845652997493744	0.03548195958137512	0.14325040578842163
3	-0.4432273805141449	-0.16124361753463745	-0.3138817548751831	0.19792672991752625	-0.12528103590011597	-0.016393661499023438	0.58307284116745	0.2850034236907959	0.24113790690898895	0.16882894933223724	0.49841639399528503	0.029018476605415344	1.1391522884368896	-1.7070411443710327	-0.16067452728748322	-0.4035758674144745	-0.05587337538599968	0.4583889842033386	-0.4094686210155487	-0.0636255294084549	0.9663456082344055	0.9123594164848328	0.43553951382637024	0.015325048007071018	-2.70578670501709	6.659473896026611	3.1174092292785645	7.95140266418457	6.4516496658325195	7.572831630706787	-3.1675119400024414	9.8645601272583	-0.5979499816894531	-6.9126129150390625	10.693181037902832	-11.594225883483887	1.2300736904144287	2.3256890773773193	-11.806055068969727	-7.5190205574035645	7.081695556640625	-4.085953712463379	-5.005146503448486	1.3641877174377441	7.786992073059082	-1.4595534801483154	-8.473955154418945	7.724421977996826	-0.05201083421707153	-0.04603073373436928	0.8135329484939575
4	-0.45417460799217224	-0.07277768850326538	-0.2246866226196289	0.36524826288223267	0.05926071107387543	0.17992769181728363	0.49080392718315125	0.4734521210193634	0.33190417289733887	0.02247566543519497	0.7049607038497925	0.0007596855866722763	1.1596078872680664	-1.7437292337417603	-0.40672868490219116	-0.6277109384536743	0.14804601669311523	0.3717057406902313	-0.5135840177536011	-0.04422170668840408	0.8922975659370422	0.7137495875358582	0.26598042249679565	0.16474196314811707	-0.45607608556747437	4.348348617553711	3.648108720779419	5.550478458404541	7.507349967956543	7.697077751159668	-7.966586589813232	9.98280143737793	6.606131553649902	-8.83584976196289	8.727648735046387	0.24397075176239014	1.557619333267212	2.1553735733032227	-10.91317081451416	-10.371261596679688	9.561776161193848	-9.169658660888672	-4.317938327789307	2.0880305767059326	-9.662491798400879	-7.910801410675049	-8.563827514648438	6.867725849151611	-0.20915278792381287	-0.299937903881073	1.1733424663543701
5	-0.45143985748291016	-0.018265139311552048	-0.1781875342130661	0.3730914890766144	0.155894473195076	0.28382277488708496	0.3086613714694977	0.42907872796058655	0.4971170723438263	-0.12598462402820587	0.8115420937538147	0.05264223739504814	1.1719961166381836	-1.7732526063919067	-0.4890363812446594	-0.7268900275230408	0.2982851266860962	0.28297534584999084	-0.47278738021850586	0.030040649697184563	0.7005398273468018	0.5135574340820312	0.12691539525985718	0.2994123697280884	1.4340918064117432	1.0623482465744019	-0.7760327458381653	-3.9746687412261963	2.4154458045959473	4.641948223114014	-8.82750129699707	-8.981932640075684	8.658670425415039	-8.773447036743164	1.9637954235076904	5.28350305557251	0.5842633247375488	1.3111257553100586	1.409772276878357	-1.9839732646942139	8.06595230102539	-6.685198783874512	3.353468894958496	3.6050870418548584	-9.98104476928711	-9.094999313354492	-6.646711826324463	6.41133451461792	-0.12066860496997833	-0.21550311148166656	1.0906457901000977
6	-0.3203915059566498	-0.01650610752403736	-0.20773173868656158	0.24948996305465698	0.14325709640979767	0.4122953414916992	0.20390881597995758	0.24976615607738495	0.5358414649963379	-0.11315673589706421	0.7239899039268494	0.20749865472316742	1.1795949935913086	-1.7970720529556274	-0.31651753187179565	-0.7164954543113708	0.24285288155078888	0.13139982521533966	-0.4531974494457245	0.09545060247182846	0.6105453968048096	0.4126639664173126	0.18751098215579987	0.2563128173351288	9.772947311401367	-0.03964947164058685	-1.1255356073379517	-6.137206554412842	-1.9978097677230835	7.361855506896973	-3.1589548587799072	-9.562230110168457	2.9329049587249756	1.189875841140747	-8.687530517578125	7.858946800231934	0.3118359446525574	-1.257233738899231	11.82142448425293	1.2890726327896118	-3.355715274810791	-7.197319984436035	0.4441862404346466	3.1586153507232666	-3.776280641555786	-4.230576038360596	0.37344038486480713	0.6528329849243164	0.06807094812393188	-0.09385521709918976	1.1192131042480469
7	-0.12217038869857788	0.011823036707937717	-0.1680843085050583	0.18744778633117676	0.11756450682878494	0.5133323073387146	0.1527424305677414	0.04865726828575134	0.5967678427696228	-0.036401569843292236	0.534851610660553	0.3210466504096985	1.1822847127914429	-1.820726752281189	-0.16460725665092468	-0.6440147161483765	0.20890842378139496	0.0027722588274627924	-0.4259895086288452	0.10966648906469345	0.684424638748169	0.5260890126228333	0.3080015182495117	0.1894097477197647	9.785112380981445	2.847162961959839	3.854123115539551	-1.0039315223693848	-0.8404784202575684	3.6242570877075195	-1.3417932987213135	-9.96021842956543	2.7324941158294678	3.0647590160369873	-9.207258224487305	3.801173210144043	0.2905028462409973	-1.3067957162857056	4.23569393157959	3.469247817993164	-1.8010162115097046	-4.046963691711426	1.5412909984588623	-0.16817966103553772	6.084722518920898	8.979472160339355	5.8902177810668945	-3.807264566421509	0.18410296738147736	-0.21201123297214508	1.3194564580917358
8	0.03855655714869499	0.13568896055221558	-0.054767120629549026	0.21279773116111755	0.1303902119398117	0.47696709632873535	0.1291840374469757	-0.09781932830810547	0.6719357371330261	0.06371366232633591	0.3976861238479614	0.29752644896507263	1.1841319799423218	-1.837874412536621	-0.210916206240654	-0.6162828207015991	0.16694313287734985	-0.09713396430015564	-0.3670016825199127	0.09914012998342514	0.7784904837608337	0.6912737488746643	0.4122224748134613	0.09103307127952576	6.36413049697876	7.846256732940674	4.917243957519531	2.0015487670898438	1.4260270595550537	-4.930012226104736	-0.8358351588249207	-5.676620960235596	3.734560489654541	2.4697861671447754	-4.887982368469238	-3.7889113426208496	1.6327345371246338	2.00702166557312	-5.475353240966797	-0.32926127314567566	-2.9811007976531982	-5.844293594360352	3.256565570831299	-0.08269549161195755	3.902682304382324	7.04518461227417	4.517709255218506	-3.769625663757324	0.2267276793718338	-0.22095339000225067	1.3715293407440186
9	0.11399244517087936	0.2493741661310196	0.02389873005449772	0.22711093723773956	0.16905595362186432	0.35840946435928345	0.05645308643579483	-0.07814736664295197	0.6495617032051086	0.10368455201387405	0.3625524342060089	0.2702481746673584	1.1801660060882568	-1.8487423658370972	-0.31209081411361694	-0.6381868124008179	0.11420346051454544	-0.17151060700416565	-0.30396568775177	0.07464451342821121	0.7940765619277954	0.7346049547195435	0.5111736059188843	-0.003391808131709695	3.113262891769409	4.390594482421875	1.2380602359771729	-1.095288872718811	1.0495047569274902	-4.879543304443359	-4.502877712249756	4.05857515335083	-1.4097610712051392	-0.651219367980957	-0.6717778444290161	0.41781410574913025	1.734419584274292	2.5849080085754395	-3.806283712387085	-1.022239327430725	-2.4068915843963623	-5.16414737701416	3.0266659259796143	-2.077890634536743	-1.2735040187835693	0.3088988661766052	3.550004243850708	-4.53497314453125	0.21437492966651917	-0.21002475917339325	0.8355115652084351
10	0.11305122822523117	0.28507229685783386	-0.004826302640140057	0.17773117125034332	0.13383165001869202	0.26499414443969727	0.1286846250295639	-0.08949264138936996	0.656558632850647	0.09974414110183716	0.4412027895450592	0.3290255069732666	1.1953352689743042	-1.8526159524917603	-0.33928701281547546	-0.6262326240539551	0.13534501194953918	-0.21139372885227203	-0.2772729694843292	0.050045616924762726	0.7346543669700623	0.693917989730835	0.5371464490890503	-0.02534259855747223	-1.7812082767486572	0.6316633820533752	-3.6010050773620605	-3.6319210529327393	-3.6418533325195312	-4.337109565734863	6.672830581665039	-2.863593578338623	-0.08836035430431366	-1.0922431945800781	6.363348960876465	3.576303720474243	-0.30636680126190186	0.6934607028961182	0.6860153675079346	1.990204095840454	2.4885663986206055	-2.1599321365356445	0.7398108243942261	-0.7701398134231567	-3.1601762771606445	-3.1136255264282227	2.380753993988037	-3.7606472969055176	0.16351798176765442	-0.2462984174489975	0.28752052783966064
11	0.07275086641311646	0.2931753993034363	-0.08377500623464584	0.08949358016252518	0.05560291185975075	0.19234919548034668	0.18705321848392487	-0.11184199154376984	0.5684462785720825	0.12065025418996811	0.5588302612304688	0.36956673860549927	1.1887803077697754	-1.8559907674789429	-0.2860051095485687	-0.5311312675476074	0.10253534466028214	-0.26613888144493103	-0.2740401327610016	0.026314496994018555	0.757603108882904	0.7611708045005798	0.5938565135002136	-0.06009453162550926	-3.6569299697875977	-1.7051169872283936	-4.164353847503662	-4.559048175811768	-3.861210823059082	-2.5787830352783203	1.4473042488098145	0.06034065783023834	-2.394658088684082	-5.0437116622924805	5.215829372406006	1.5900256633758545	1.3464453220367432	-0.01983886957168579	3.614508867263794	5.7212629318237305	-2.6806836128234863	0.3183034062385559	-0.060126613825559616	-1.2697727680206299	1.1067564487457275	3.91304874420166	1.9128508567810059	-2.665846347808838	0.1142963171005249	-0.19846533238887787	-0.07886072248220444
12	0.018558859825134277	0.2514497637748718	-0.13306504487991333	0.03178173676133156	-0.031023427844047546	0.17550276219844818	0.29130885004997253	-0.16030248999595642	0.5704160332679749	0.09960479289293289	0.6334531307220459	0.37027862668037415	1.199672818183899	-1.8590006828308105	-0.2330489456653595	-0.4147454798221588	0.09879850596189499	-0.3358214497566223	-0.2741285264492035	0.04367843642830849	0.7380610108375549	0.8458829522132874	0.6383746862411499	-0.08124851435422897	-2.15586256980896	-2.1018476486206055	-1.4325505495071411	-1.9713767766952515	-4.6805267333984375	0.31765228509902954	6.476554870605469	-3.873112201690674	-0.21271874010562897	0.013394519686698914	3.48970365524292	-0.7311785221099854	0.07342326641082764	-0.6067977547645569	1.9635858535766602	5.577981472015381	-0.15734803676605225	-2.9294562339782715	-0.05352625995874405	1.451353907585144	-1.3233307600021362	3.5546271800994873	1.7762221097946167	-1.7315189838409424	0.23897312581539154	-0.14854739606380463	-0.31678661704063416
13	-0.01205358374863863	0.21798834204673767	-0.1481725126504898	-0.00398920476436615	-0.09834738075733185	0.17543169856071472	0.35290923714637756	-0.1726795732975006	0.564778208732605	0.1385016143321991	0.6765191555023193	0.3310489356517792	1.2026512622833252	-1.8603399991989136	-0.189621701836586	-0.34660956263542175	0.11428753286600113	-0.3917441964149475	-0.27540159225463867	0.07609739154577255	0.7198346257209778	0.9378814697265625	0.6934894323348999	-0.11484363675117493	-1.1275631189346313	-1.4105509519577026	-0.08925160765647888	-1.539178729057312	-2.3171002864837646	-0.8580154776573181	1.2217062711715698	0.9188501238822937	-0.6360281109809875	2.186363458633423	1.1420468091964722	-2.440664768218994	-0.9424453973770142	-0.7087876796722412	2.3435206413269043	2.12900972366333	1.5468757152557373	0.9051201939582825	-0.02764654904603958	1.630536437034607	-0.537183403968811	4.205822944641113	1.830822229385376	-1.2819552421569824	0.22239916026592255	-0.14678172767162323	-0.3512703776359558
14	-0.02417711727321148	0.17627044022083282	-0.14866124093532562	-0.017194420099258423	-0.1438664048910141	0.16743522882461548	0.39429163932800293	-0.1669064462184906	0.5146428942680359	0.1666322946548462	0.6904724836349487	0.31283077597618103	1.2042169570922852	-1.857649326324463	-0.15189820528030396	-0.31818315386772156	0.10280356556177139	-0.3264464735984802	-0.2882956266403198	0.09418393671512604	0.7285529375076294	0.9819431304931641	0.7416749596595764	-0.1491905152797699	-0.5400832295417786	-2.5819215774536133	0.24199031293392181	-0.07408200949430466	-2.2872157096862793	-0.3316257894039154	2.407527446746826	-0.31590890884399414	-2.402493715286255	1.8453294038772583	0.826088011264801	0.1005188599228859	-0.4335442781448364	-0.24331465363502502	1.588362216949463	1.4981544017791748	0.2838119566440582	6.208899021148682	-0.8602720499038696	0.6174967288970947	0.38554444909095764	1.8699009418487549	1.7354921102523804	-1.1498875617980957	0.1419457197189331	-0.1835375726222992	-0.4464736878871918
15	-0.011932174675166607	0.13646060228347778	-0.1337033361196518	-0.011368983425199986	-0.17594759166240692	0.1707593947649002	0.4192447066307068	-0.17097191512584686	0.4704519510269165	0.180189311504364	0.6741059422492981	0.3083042800426483	1.2093511819839478	-1.8497498035430908	-0.12300248444080353	-0.2858627736568451	0.08349788188934326	-0.17631472647190094	-0.29129523038864136	0.09344471991062164	0.7357949018478394	1.0304814577102661	0.7987205982208252	-0.18610022962093353	1.4167301654815674	-1.5862970352172852	1.6063644886016846	0.7011699676513672	-0.8381352424621582	0.07669676840305328	0.36715999245643616	-0.13346321880817413	-1.9827353954315186	1.3880772590637207	-2.0775959491729736	-0.5854668021202087	-0.7836387157440186	-0.3990900218486786	1.283981204032898	1.7271138429641724	-0.11698776483535767	8.887774467468262	0.11793771386146545	-0.24607928097248077	0.7089828252792358	2.6735692024230957	1.718901515007019	-1.1440602540969849	0.12351082265377045	-0.13413549959659576	-0.36308327317237854
16	0.048616908490657806	0.11412530392408371	-0.09101719409227371	0.015106044709682465	-0.18517203629016876	0.18552328646183014	0.4339841306209564	-0.2106018215417862	0.4609963297843933	0.1884450912475586	0.5930528044700623	0.3030541241168976	1.2108805179595947	-1.84617280960083	-0.0983932688832283	-0.2684588134288788	0.06440649926662445	-0.0061684357933700085	-0.2852291762828827	0.09909510612487793	0.7376620173454285	1.060938835144043	0.8416664004325867	-0.20056891441345215	3.7931995391845703	-1.0416409969329834	2.910294771194458	1.8244224786758423	-0.01794593036174774	0.8480530381202698	0.7471229434013367	-2.6287803649902344	-0.22485888004302979	1.3142361640930176	-5.032661437988281	0.10551339387893677	-0.45417892932891846	-0.692396879196167	1.1525764465332031	0.6021783351898193	-0.839280366897583	8.385878562927246	0.3463113307952881	0.4399487376213074	0.3388534188270569	1.4007676839828491	1.6282610893249512	-0.8950797915458679	0.0977383702993393	-0.09289980679750443	-0.25668829679489136
17	0.10482735186815262	0.11471915990114212	-0.043327104300260544	0.06559059768915176	-0.18391427397727966	0.1868566870689392	0.4806533455848694	-0.2529924809932709	0.4628981053829193	0.2062484472990036	0.5118004083633423	0.2911420464515686	1.2121678590774536	-1.843223214149475	-0.029178215190768242	-0.24342474341392517	0.05670555308461189	0.11790802329778671	-0.29613277316093445	0.10499711334705353	0.7670767903327942	1.0855910778045654	0.8739718794822693	-0.2107038050889969	1.0370811223983765	0.879010796546936	1.7358884811401367	2.821763277053833	-0.25797146558761597	-1.1825464963912964	3.649848222732544	-1.8848695755004883	0.14960548281669617	1.3436073064804077	-2.646977663040161	-1.1372483968734741	-0.29375946521759033	-0.5115808844566345	5.305809497833252	1.6243362426757812	0.17161081731319427	6.0583343505859375	-0.7605305910110474	0.24303263425827026	1.8084020614624023	1.0730373859405518	1.371773600578308	-0.6491954326629639	0.006295154336839914	-0.058633070439100266	-0.21318185329437256
18	0.0999286025762558	0.13531649112701416	-0.020513612776994705	0.09688811749219894	-0.19577860832214355	0.1641896367073059	0.47720974683761597	-0.25293996930122375	0.45195063948631287	0.21804240345954895	0.4864167273044586	0.27829426527023315	1.2148523330688477	-1.8409501314163208	0.01505379006266594	-0.2014143019914627	0.03360527753829956	0.2067762017250061	-0.30599355697631836	0.09738371521234512	0.7813566327095032	1.1203281879425049	0.9147526025772095	-0.22364099323749542	-0.6790454983711243	0.7893046140670776	1.4467120170593262	1.1060783863067627	-0.6241773366928101	-1.0025920867919922	-1.5577508211135864	0.7568351030349731	-0.35134488344192505	1.502949833869934	-0.9491272568702698	-0.2147717922925949	-1.1100409030914307	-0.8933539390563965	1.0936554670333862	2.596477746963501	0.15221166610717773	4.313486576080322	-0.25547483563423157	-0.5757405757904053	0.6708753108978271	1.4728657007217407	1.4101029634475708	-0.430350661277771	0.07330641150474548	-0.07509952783584595	-0.2749449908733368
19	0.10344187170267105	0.15622347593307495	0.00786906760185957	0.1083408072590828	-0.20655031502246857	0.17889459431171417	0.4514182507991791	-0.2805987298488617	0.45327380299568176	0.22371141612529755	0.44693881273269653	0.25228825211524963	1.21491277217865	-1.8402928113937378	0.00703565776348114	-0.14045444130897522	0.008370931260287762	0.2705596387386322	-0.3040078282356262	0.08563592284917831	0.7836687564849854	1.1497728824615479	0.9553210139274597	-0.2380308359861374	0.9471899271011353	0.1736418604850769	2.2997827529907227	0.9013229012489319	0.5294253826141357	2.645467758178711	0.34516969323158264	-4.931769371032715	0.9228665828704834	0.8560490012168884	-2.6646111011505127	-3.0249149799346924	0.5697098970413208	-0.9211384654045105	-0.8206794857978821	3.9241573810577393	-1.8380072116851807	3.5678505897521973	-0.05762448161840439	-0.6047915816307068	0.06459236890077591	1.1044721603393555	1.4262323379516602	-0.4294937551021576	0.0357673317193985	-0.05042309686541557	-0.22801008820533752
20	0.11154298484325409	0.14300552010536194	0.0484619215130806	0.1193467378616333	-0.1863776296377182	0.23438680171966553	0.4272763431072235	-0.3120339512825012	0.45838919281959534	0.2257269024848938	0.4099024832248688	0.22314885258674622	1.2215336561203003	-1.839964747428894	-0.03207409381866455	-0.09765318036079407	-0.022276584059000015	0.32105913758277893	-0.2927917242050171	0.0847531333565712	0.7799054980278015	1.1636077165603638	0.9935624599456787	-0.25746631622314453	0.030345672741532326	-1.0027347803115845	2.0057156085968018	0.44950464367866516	1.2605570554733276	2.160109519958496	-2.108407974243164	-0.4086994528770447	1.2805742025375366	1.2591686248779297	-1.2732645273208618	-0.7235156893730164	-0.09116160869598389	-0.6708511114120483	-2.944467782974243	1.2273592948913574	-0.3328590393066406	2.579723596572876	0.9185611605644226	0.006832197308540344	-0.12610942125320435	0.15652503073215485	1.51002836227417	-0.4092668890953064	0.011307979002594948	-0.0523589663207531	-0.24085433781147003
21	0.1112310141324997	0.14006809890270233	0.07659611850976944	0.12809938192367554	-0.1573842316865921	0.25615933537483215	0.38152405619621277	-0.3236601650714874	0.4517591893672943	0.22344498336315155	0.39010104537010193	0.19856379926204681	1.2197391986846924	-1.8383510112762451	-0.09280700981616974	-0.0703701302409172	-0.043156981468200684	0.3679084777832031	-0.27249032258987427	0.08614712953567505	0.7806111574172974	1.1532589197158813	1.0304113626480103	-0.2780602276325226	0.03965357691049576	0.19199605286121368	1.1535091400146484	0.4422053396701813	1.5018118619918823	0.25339841842651367	-2.0378787517547607	-0.5452089905738831	0.183786079287529	0.8345215320587158	-1.004014253616333	-1.4074504375457764	0.023721903562545776	-0.8474451303482056	-3.0949833393096924	1.2337990999221802	-0.6685901880264282	2.9369921684265137	1.0953859090805054	0.24152900278568268	0.16448356211185455	-1.1182206869125366	1.2571300268173218	-0.5028020143508911	-0.06397737562656403	-0.028273647651076317	-0.17887821793556213
22	0.11064378172159195	0.13583801686763763	0.08200402557849884	0.1335572451353073	-0.14049652218818665	0.261432409286499	0.3676666021347046	-0.3257651925086975	0.4414648115634918	0.2224193662405014	0.37435758113861084	0.18844720721244812	1.2224544286727905	-1.8366144895553589	-0.12344333529472351	-0.04675503075122833	-0.05377693101763725	0.39607954025268555	-0.2593017816543579	0.0928768590092659	0.7683889865875244	1.1415408849716187	1.0755811929702759	-0.2974766194820404	-0.3696323037147522	-0.5996717214584351	0.004492275416851044	0.2680927813053131	0.46956774592399597	-0.1532585620880127	-0.25157588720321655	-0.0259811133146286	-0.23402756452560425	0.7161881327629089	-0.36356881260871887	0.1018991768360138	-0.09651339054107666	-0.9876531362533569	-0.6522740125656128	1.1806045770645142	-0.4839560389518738	2.152377128601074	0.5072300434112549	0.37620189785957336	-0.453705370426178	-1.1587573289871216	1.2400538921356201	-0.49143898487091064	-0.10764460265636444	-0.06368404626846313	-0.20240581035614014
23	0.09925120323896408	0.1279626041650772	0.06626692414283752	0.13571184873580933	-0.14160937070846558	0.2562485635280609	0.36647680401802063	-0.3326191306114197	0.42886826395988464	0.2136465311050415	0.374422162771225	0.18870200216770172	1.2221839427947998	-1.8376288414001465	-0.11468522250652313	-0.015551493503153324	-0.06808026134967804	0.40710046887397766	-0.2529274821281433	0.09799849987030029	0.7571911215782166	1.1302940845489502	1.1290818452835083	-0.31225112080574036	-0.7126586437225342	-0.36215656995773315	-0.9136325120925903	0.19415897130966187	-0.2107541710138321	-0.5124813318252563	0.2696886956691742	-0.4004557728767395	-0.11948677152395248	0.020812585949897766	0.2767822742462158	-0.06448187679052353	-0.04687601327896118	-1.0938407182693481	0.8924204111099243	1.8548507690429688	-0.864047110080719	1.5421488285064697	0.17202290892601013	0.1915665864944458	-0.4258042275905609	-0.9527190327644348	1.489436149597168	-0.42789897322654724	-0.14859654009342194	-0.05385275185108185	-0.18997052311897278
24	0.08656264841556549	0.12008453160524368	0.039622195065021515	0.13637177646160126	-0.15394540131092072	0.2502743601799011	0.3810480833053589	-0.3450814485549927	0.42787429690361023	0.21153205633163452	0.38264358043670654	0.19141647219657898	1.2208598852157593	-1.838530421257019	-0.1107526496052742	0.020665368065238	-0.07983171194791794	0.40360739827156067	-0.25530946254730225	0.10461603850126266	0.7520442008972168	1.1405726671218872	1.1828861236572266	-0.32623034715652466	-0.7452517747879028	-0.5744993686676025	-1.4378658533096313	-0.05479641631245613	-0.8392120599746704	-0.37150871753692627	0.8022125959396362	-0.7320994734764099	0.4851149916648865	0.35069775581359863	0.5242938995361328	0.34893518686294556	0.24819523096084595	-1.0345646142959595	0.015298306941986084	1.6852223873138428	-1.0592478513717651	1.0723011493682861	-0.274320125579834	0.44250160455703735	-0.15236784517765045	-0.03846205025911331	1.6079941987991333	-0.4188603460788727	-0.16258321702480316	-0.04117802530527115	-0.20205847918987274
25	0.07105129212141037	0.10580530017614365	0.011750777252018452	0.13811379671096802	-0.16987904906272888	0.24356797337532043	0.3980078101158142	-0.3578025996685028	0.44037294387817383	0.2092704474925995	0.3949749171733856	0.2064279168844223	1.2223780155181885	-1.8380627632141113	-0.11314297467470169	0.045570630580186844	-0.08815956115722656	0.3942038416862488	-0.2617362439632416	0.11629239469766617	0.7499779462814331	1.1580345630645752	1.2326663732528687	-0.3432762026786804	-0.9631560444831848	-0.930867075920105	-1.1440492868423462	0.2611655294895172	-0.6605742573738098	-0.7140578031539917	0.7311440706253052	-0.48088783025741577	1.0264670848846436	0.6203776597976685	0.7098945379257202	1.057387113571167	-0.03103262186050415	-1.145782232284546	-0.03665561228990555	0.7551333904266357	-0.7681835293769836	0.9341221451759338	-0.3271801471710205	0.6858841776847839	0.20632609724998474	0.055227357894182205	1.5959893465042114	-0.40841013193130493	-0.1407201737165451	-0.03924817219376564	-0.2196366935968399
26	0.055667709559202194	0.08991643041372299	-0.011809783056378365	0.1381916105747223	-0.17944930493831635	0.2358447164297104	0.40265190601348877	-0.3526498079299927	0.4512864053249359	0.20699620246887207	0.40102773904800415	0.22313696146011353	1.2207683324813843	-1.8380184173583984	-0.10404238849878311	0.06318605691194534	-0.104990653693676	0.3855486512184143	-0.273522287607193	0.13775818049907684	0.7447959184646606	1.1796337366104126	1.2693649530410767	-0.35654217004776	-0.7629529237747192	-0.7837549448013306	-1.2288053035736084	-0.21723614633083344	-0.39869895577430725	-0.3680022358894348	-0.16537219285964966	0.7069682478904724	0.8058927059173584	0.05337870121002197	0.09912769496440887	0.6761358976364136	0.5531797409057617	-0.4950323700904846	0.745164155960083	1.0431073904037476	-1.7444310188293457	0.3611140847206116	-0.5647698640823364	1.0261139869689941	-0.414575457572937	0.6580017805099487	1.3739850521087646	-0.43154633045196533	-0.14671649038791656	-0.036365848034620285	-0.19880534708499908
27	0.03862425312399864	0.07453453540802002	-0.03434181958436966	0.13536842167377472	-0.1873117834329605	0.23220476508140564	0.4002537429332733	-0.34391215443611145	0.4561004638671875	0.19959522783756256	0.4077584743499756	0.23577626049518585	1.2213269472122192	-1.8379313945770264	-0.10138586163520813	0.07886794209480286	-0.11310239881277084	0.38636764883995056	-0.2863895893096924	0.15811483561992645	0.7432675957679749	1.1947710514068604	1.2936469316482544	-0.3628319799900055	-0.961502194404602	-0.8341285586357117	-1.0603021383285522	-0.047334589064121246	-0.4793814420700073	-0.11646898835897446	0.07176635414361954	0.12655484676361084	0.37243297696113586	-0.1781245321035385	0.5599269270896912	0.6853669285774231	0.3002784252166748	-0.34211307764053345	-0.16371308267116547	0.6273818016052246	-0.6082823872566223	0.5131542682647705	-0.6715552806854248	1.0257333517074585	-0.11195743083953857	0.5005295276641846	1.0417205095291138	-0.2820919156074524	-0.11441271752119064	-0.018318094313144684	-0.22018277645111084
28	0.018385019153356552	0.063133604824543	-0.0480155386030674	0.1417783796787262	-0.19197998940944672	0.2229601889848709	0.4074559211730957	-0.34727513790130615	0.45612937211990356	0.20144273340702057	0.42377951741218567	0.2396489679813385	1.2232425212860107	-1.8425053358078003	-0.10748529434204102	0.09805482625961304	-0.1200013980269432	0.3794792890548706	-0.29925525188446045	0.18138821423053741	0.7485228180885315	1.2038321495056152	1.3100121021270752	-0.36850208044052124	-1.0079816579818726	-0.4742118716239929	-0.5801137685775757	0.48198047280311584	-0.12123637646436691	-0.6775396466255188	0.5661911964416504	-0.14762237668037415	-0.7708883285522461	0.037079956382513046	0.8850151300430298	-0.03872544318437576	0.409890353679657	-0.18946492671966553	-0.20960652828216553	1.1366512775421143	-0.8133746981620789	-0.42373979091644287	-0.6397275924682617	1.1519927978515625	0.45579993724823	0.13700251281261444	0.579448938369751	-0.09799006581306458	-0.08080481737852097	-0.029865020886063576	-0.19524289667606354
29	0.001496122102253139	0.045539699494838715	-0.054113056510686874	0.14820796251296997	-0.1995140165090561	0.21532708406448364	0.4224926233291626	-0.3489277958869934	0.4598080515861511	0.20624567568302155	0.4380398690700531	0.25015005469322205	1.225032925605774	-1.841999888420105	-0.10983438789844513	0.11227504163980484	-0.1151975616812706	0.36487889289855957	-0.3152863383293152	0.1991678774356842	0.7404976487159729	1.217297911643982	1.3162897825241089	-0.3698483109474182	-0.8637584447860718	-1.1755907535552979	-0.14926472306251526	0.19223277270793915	-0.5433272123336792	-0.1935381442308426	0.6692776083946228	-0.12703102827072144	0.23333607614040375	0.1554710865020752	0.6530202627182007	0.8867112994194031	-0.12515787780284882	-0.5277919173240662	-0.038339514285326004	0.34316080808639526	0.19808241724967957	0.43658727407455444	-0.8351871967315674	0.7966920137405396	-0.5889619588851929	0.35752803087234497	0.36279168725013733	-0.09820333868265152	0.0030860654078423977	-0.04814872890710831	-0.22104059159755707
30	-0.01738615334033966	0.027025911957025528	-0.056431517004966736	0.1521584689617157	-0.20923954248428345	0.21142999827861786	0.4296756386756897	-0.36024925112724304	0.4615335166454315	0.19693206250667572	0.4526958167552948	0.25946661829948425	1.2251471281051636	-1.8414788246154785	-0.11080881953239441	0.12740111351013184	-0.11070336401462555	0.37519022822380066	-0.33048734068870544	0.2135554701089859	0.7436240911483765	1.2336446046829224	1.3220818042755127	-0.36943188309669495	-1.064003825187683	-0.8964414000511169	0.07886157184839249	0.3226701617240906	-0.352053701877594	-0.20610328018665314	0.2788441777229309	-0.6464666128158569	0.29948094487190247	-0.37912651896476746	0.8343192934989929	0.2783390283584595	0.03083011507987976	-0.6193036437034607	0.007432039827108383	0.9140849709510803	0.2933550179004669	1.5152486562728882	-0.6958392262458801	0.7203708291053772	0.29519152641296387	0.574462890625	0.26994436979293823	-0.002988082356750965	0.00691298209130764	-0.05811205878853798	-0.23564253747463226
31	-0.03389005362987518	0.01806921325623989	-0.053428977727890015	0.1582258641719818	-0.20705543458461761	0.20593446493148804	0.42891111969947815	-0.3673522472381592	0.46934792399406433	0.19284184277057648	0.4590834677219391	0.25048813223838806	1.2253161668777466	-1.8413816690444946	-0.09597770869731903	0.15389873087406158	-0.09654383361339569	0.38938456773757935	-0.3381215035915375	0.223778635263443	0.7494260668754578	1.255890130996704	1.3222562074661255	-0.36911579966545105	-0.7073101997375488	-0.296053409576416	0.36263012886047363	0.3395651876926422	0.47023260593414307	-0.3146358132362366	-0.26865851879119873	-0.011493277736008167	0.4969939589500427	-0.17294271290302277	0.023247376084327698	-0.7517368197441101	0.004712224006652832	-0.5914792418479919	1.1009860038757324	1.4403856992721558	0.3943611979484558	1.5012198686599731	-0.2028150111436844	0.37223437428474426	0.2079390436410904	0.719227135181427	0.126686230301857	0.008911175653338432	-0.01894398033618927	-0.04309830442070961	-0.19963091611862183
32	-0.046972114592790604	0.014756765216588974	-0.04916940629482269	0.16260717809200287	-0.19616597890853882	0.19643308222293854	0.4164322316646576	-0.3652057945728302	0.4827471375465393	0.18392139673233032	0.4559640884399414	0.23488281667232513	1.2281036376953125	-1.8407199382781982	-0.06814372539520264	0.1796821653842926	-0.09335166960954666	0.4140044152736664	-0.3415083587169647	0.22959724068641663	0.7409661412239075	1.2640551328659058	1.3255432844161987	-0.37091153860092163	-0.626448392868042	-0.20922906696796417	0.3545592725276947	0.24622437357902527	0.6189984083175659	-0.56935715675354	-0.6722538471221924	0.19407044351100922	0.9899150133132935	-0.2466830313205719	-0.1996522843837738	-0.6470509171485901	0.2525634765625	-0.6349565386772156	1.3274338245391846	0.9370750188827515	-0.43206796050071716	2.104330062866211	-0.12207848578691483	0.2852405309677124	-0.7450780868530273	-0.09352557361125946	0.06002957746386528	-0.016800301149487495	-0.028322001919150352	-0.02702568843960762	-0.18004758656024933
33	-0.05228886008262634	0.012391631491482258	-0.04465373978018761	0.16704870760440826	-0.18641012907028198	0.19401876628398895	0.4139622747898102	-0.36042603850364685	0.49268147349357605	0.17575585842132568	0.4478662610054016	0.22127731144428253	1.2281924486160278	-1.8411849737167358	-0.03956256061792374	0.1996985524892807	-0.08709589391946793	0.4293976426124573	-0.34279248118400574	0.23021528124809265	0.7351455092430115	1.2707974910736084	1.321269154548645	-0.3699297308921814	0.000414334237575531	-0.0281040258705616	0.3559070825576782	0.250654935836792	0.4940778613090515	0.11006342619657516	0.15931636095046997	0.1763315349817276	0.5481628179550171	-0.16898202896118164	-0.5330513715744019	-0.7315312027931213	-0.08887621760368347	-0.6796574592590332	1.1079771518707275	0.7455306053161621	0.2895594537258148	1.485658049583435	-0.11921082437038422	-0.021488815546035767	-0.3037475645542145	-0.09850715845823288	-0.02767929993569851	0.04733182489871979	-0.017909079790115356	-0.008952030912041664	-0.10516972094774246
34	-0.05663905665278435	0.015713613480329514	-0.03949211165308952	0.172735333442688	-0.17969079315662384	0.1921028047800064	0.41001057624816895	-0.372654527425766	0.498958945274353	0.1657646745443344	0.44596922397613525	0.20746944844722748	1.2283389568328857	-1.8410664796829224	-0.02559545822441578	0.21380747854709625	-0.08448585122823715	0.44066333770751953	-0.34295833110809326	0.23157772421836853	0.7341465950012207	1.2763676643371582	1.316288948059082	-0.3696664869785309	-0.34057217836380005	0.10715706646442413	0.3346707224845886	0.3770875334739685	0.32258832454681396	-0.23574957251548767	-0.2651311457157135	-0.8063191175460815	0.40400975942611694	-0.3112829923629761	0.1345333456993103	-0.5046594142913818	-0.09762248396873474	-0.5444817543029785	0.32687950134277344	0.4023573100566864	0.16934001445770264	1.2003793716430664	0.05888783931732178	0.22099466621875763	0.006953388452529907	-0.2193409502506256	-0.11135227978229523	0.05988507717847824	-0.021852631121873856	-0.0036620725877583027	-0.07370276004076004
35	-0.06261526793241501	0.01597309485077858	-0.03132619336247444	0.1815461963415146	-0.16830123960971832	0.18698912858963013	0.4013451337814331	-0.37689080834388733	0.5123621821403503	0.15887756645679474	0.44657889008522034	0.20166794955730438	1.2284343242645264	-1.8410333395004272	-0.013307326473295689	0.21633073687553406	-0.07659510523080826	0.44316792488098145	-0.33763736486434937	0.22968120872974396	0.7262009978294373	1.278581976890564	1.3155606985092163	-0.3721056282520294	-0.3264189064502716	-0.09072992950677872	0.5461418628692627	0.5090433955192566	0.8296179175376892	-0.326587438583374	-0.6545230150222778	0.25279393792152405	0.689423680305481	-0.2532270848751068	-0.07323351502418518	-0.17650701105594635	0.007547646760940552	-0.5522993206977844	0.8533942699432373	-0.08332958817481995	0.295894980430603	0.8439884185791016	0.4008777141571045	-0.2798305153846741	-0.450333833694458	-0.3350527286529541	-0.06566032767295837	0.028964906930923462	-0.046161994338035583	-0.0031875569839030504	-0.06601651757955551
36	-0.060667961835861206	0.011112882755696774	-0.02477724850177765	0.18691973388195038	-0.15774405002593994	0.19087742269039154	0.40052491426467896	-0.36195164918899536	0.5273783802986145	0.14513857662677765	0.4390333592891693	0.20397546887397766	1.2293202877044678	-1.840393304824829	0.004470778629183769	0.21206054091453552	-0.07279223203659058	0.455793559551239	-0.3293784260749817	0.22456194460391998	0.7113577127456665	1.2734681367874146	1.3167049884796143	-0.3730975389480591	0.2824864983558655	-0.25453832745552063	0.3806224465370178	0.15197761356830597	0.34499481320381165	0.3296539783477783	0.20599648356437683	0.7076569199562073	0.7499314546585083	-0.3713424801826477	-0.44317692518234253	0.21592393517494202	-0.3066360652446747	-0.6126112937927246	0.651872456073761	-0.48364248871803284	0.1485411822795868	1.330362319946289	0.3202691376209259	-0.24577586352825165	-0.7452033758163452	-0.6915414333343506	0.009123273193836212	0.03154914081096649	-0.003565944731235504	0.00935505609959364	-0.018499812111258507
37	-0.06275572627782822	0.013628275133669376	-0.022120391950011253	0.18869906663894653	-0.15576022863388062	0.18556536734104156	0.39278778433799744	-0.3745536506175995	0.5416918992996216	0.13284745812416077	0.438514769077301	0.20113307237625122	1.2296477556228638	-1.8404043912887573	0.008949481882154942	0.21270328760147095	-0.07633150368928909	0.46049413084983826	-0.32644790410995483	0.22680403292179108	0.6978093981742859	1.2685225009918213	1.3168026208877563	-0.3731631636619568	-0.25254133343696594	0.2029721885919571	0.252075731754303	0.22338926792144775	0.10613737255334854	-0.6911699771881104	-0.4246062934398651	-1.0770024061203003	0.6974518299102783	-0.10198915004730225	0.1370982676744461	-0.16803786158561707	-0.3266174793243408	-0.6162901520729065	0.054188281297683716	-0.18592248857021332	-0.0601237416267395	0.6690250635147095	0.12717191874980927	0.4463634490966797	-0.4400792419910431	-0.7656436562538147	0.008243773132562637	0.045427318662405014	0.0025175795890390873	0.0034470129758119583	-0.023073041811585426
38	-0.0657631978392601	0.014066056348383427	-0.020668327808380127	0.19066157937049866	-0.15423187613487244	0.17714111506938934	0.3871311843395233	-0.38176849484443665	0.5615159869194031	0.12666690349578857	0.4375971257686615	0.20043502748012543	1.2297391891479492	-1.8407683372497559	0.01497968565672636	0.2137061506509781	-0.06660046428442001	0.4539279639720917	-0.329504132270813	0.237857848405838	0.6827154755592346	1.2657722234725952	1.3145183324813843	-0.37515512108802795	-0.09867487847805023	-0.039792925119400024	0.21380621194839478	0.0909290760755539	0.23016460239887238	-0.4914907217025757	-0.364460289478302	0.11269437521696091	0.6325094699859619	0.12357926368713379	-0.15619409084320068	0.015848509967327118	-0.29021114110946655	-0.59510737657547	0.4224854111671448	-0.18365378677845	0.2575085163116455	0.1933346837759018	-0.20514695346355438	0.525122344493866	-0.4939343333244324	-0.6057462096214294	-0.02620770037174225	0.031471025198698044	0.005698360502719879	0.002755159279331565	-0.03151680529117584
39	-0.06951945275068283	0.006923677399754524	-0.02130291983485222	0.19010137021541595	-0.15459956228733063	0.17393654584884644	0.38462957739830017	-0.3731353282928467	0.5740182995796204	0.11640242487192154	0.43871551752090454	0.20835040509700775	1.2296620607376099	-1.8409197330474854	0.01692994125187397	0.21124207973480225	-0.06373029202222824	0.4543010890483856	-0.3308770954608917	0.2448887974023819	0.6680943369865417	1.2576043605804443	1.3179994821548462	-0.3748973309993744	-0.28169766068458557	-0.49455133080482483	0.008152179419994354	-0.008010350167751312	-0.09306710958480835	-0.20593059062957764	-0.02595948986709118	0.454505980014801	0.3888516426086426	-0.07024809718132019	0.23697587847709656	0.5881907343864441	-0.2865673303604126	-0.5340601801872253	-0.19525669515132904	-0.4670277237892151	-0.013462096452713013	0.5922696590423584	-0.04979044944047928	0.2954946756362915	-0.5395862460136414	-0.8403613567352295	0.04571831226348877	0.0456414595246315	0.01400836557149887	-0.006923602893948555	-0.06630727648735046
40	-0.07294139266014099	-0.0013022946659475565	-0.02402038872241974	0.18710550665855408	-0.15852339565753937	0.17086546123027802	0.3836822211742401	-0.3674193024635315	0.5880135893821716	0.11373653262853622	0.43921157717704773	0.21773962676525116	1.2296298742294312	-1.8412905931472778	0.018232887610793114	0.20933067798614502	-0.0586392842233181	0.4500058889389038	-0.33269643783569336	0.2478039413690567	0.6661736369132996	1.2558047771453857	1.3166519403457642	-0.3737568259239197	-0.055986106395721436	-0.28116506338119507	-0.027604520320892334	-0.1557835191488266	-0.10724422335624695	-0.24319669604301453	-0.13320355117321014	0.2307397425174713	0.4008592963218689	0.12405657768249512	-0.1589498519897461	0.37334737181663513	-0.24617347121238708	-0.4988897144794464	0.22720719873905182	-0.4089757800102234	0.023659169673919678	0.36261987686157227	-0.07976513355970383	0.12349602580070496	0.1977553367614746	-0.4372597336769104	0.015009162947535515	0.06739546358585358	0.017371265217661858	0.0014716590521857142	-0.042122554033994675
41	-0.0715479776263237	-0.005221510771661997	-0.027357038110494614	0.1815854161977768	-0.1623581051826477	0.1664496511220932	0.3819333612918854	-0.36237654089927673	0.6058527827262878	0.11088855564594269	0.4325565993785858	0.22329221665859222	1.2297064065933228	-1.841149091720581	0.026233326643705368	0.20846614241600037	-0.0574566125869751	0.4514326751232147	-0.3329513967037201	0.2544318735599518	0.666225790977478	1.2514410018920898	1.318737268447876	-0.37270307540893555	0.12648619711399078	-0.12574081122875214	-0.10811199992895126	-0.2952120900154114	-0.1640964150428772	-0.3604179620742798	-0.09251894056797028	0.2801815867424011	0.7855779528617859	0.2057127207517624	-0.4126380383968353	0.23202402889728546	-0.11191833019256592	-0.4964563250541687	0.3879448473453522	-0.28505223989486694	-0.39707645773887634	0.7177333831787109	0.007931360974907875	0.398664653301239	0.10879206657409668	-0.668579638004303	0.049248628318309784	0.08481870591640472	0.02259206958115101	0.005614318419247866	-0.01550763938575983
42	-0.06976547092199326	-0.005623146425932646	-0.028108403086662292	0.17955824732780457	-0.16126006841659546	0.16271020472049713	0.3806496262550354	-0.3568325638771057	0.609898567199707	0.10659298300743103	0.42557084560394287	0.22317679226398468	1.2294678688049316	-1.8418961763381958	0.036692287772893906	0.20910410583019257	-0.06334744393825531	0.45165273547172546	-0.3340987265110016	0.2529367208480835	0.6657333374023438	1.2486670017242432	1.3218814134597778	-0.3721914291381836	0.09169616550207138	0.04225717484951019	0.05714799836277962	0.03964301943778992	0.24805478751659393	-0.1749356985092163	-0.06775296479463577	0.3251020610332489	-0.36016082763671875	0.013147443532943726	-0.3496508300304413	-0.14108598232269287	-0.1961623579263687	-0.3502756357192993	0.5510402321815491	0.0010558366775512695	-0.41113150119781494	0.33352893590927124	-0.08201757073402405	-0.252939909696579	0.13570982217788696	-0.4129527509212494	0.06400246173143387	0.0680534765124321	-0.0038287013303488493	0.00640789745375514	-0.013816514983773232
43	-0.07130318880081177	-0.005825044121593237	-0.027765976265072823	0.18113070726394653	-0.1605917513370514	0.1585218608379364	0.37977632880210876	-0.35931748151779175	0.6149597764015198	0.10206126421689987	0.4263799488544464	0.22430728375911713	1.2294518947601318	-1.8417425155639648	0.037451259791851044	0.20763756334781647	-0.06384742259979248	0.45322921872138977	-0.33671310544013977	0.2502070367336273	0.6667928099632263	1.240308403968811	1.3314555883407593	-0.37089720368385315	-0.14178316295146942	-0.06895702332258224	0.01652173325419426	0.08822834491729736	-0.12721219658851624	-0.22351647913455963	0.056947674602270126	-0.39139312505722046	0.009702399373054504	-0.02082487940788269	0.24838653206825256	0.23351672291755676	-0.20283421874046326	-0.4502820372581482	-0.3745375871658325	-0.40046384930610657	-0.12282854318618774	0.7492018938064575	-0.16392162442207336	0.014914892613887787	0.18113276362419128	-0.7620809078216553	0.19127394258975983	0.07067621499300003	0.017747443169355392	0.005571238696575165	-0.014128755778074265
44	-0.07420381158590317	-0.0052962093614041805	-0.029980000108480453	0.1796569973230362	-0.16330578923225403	0.15445180237293243	0.37734848260879517	-0.36184537410736084	0.620415985584259	0.10764028131961823	0.43051230907440186	0.22399914264678955	1.2296102046966553	-1.8418574333190918	0.030934615060687065	0.2098701298236847	-0.06120631471276283	0.4490639269351959	-0.34122294187545776	0.25950145721435547	0.6715423464775085	1.2413703203201294	1.3337223529815674	-0.3696798086166382	-0.18955981731414795	0.08669532835483551	0.046228159219026566	-0.0507412925362587	0.05613913759589195	-0.3019581735134125	-0.3264806568622589	0.13674841821193695	0.012949272990226746	0.4802575409412384	0.183624267578125	-0.19171327352523804	-0.3017764985561371	-0.49481087923049927	-0.12651920318603516	0.1871052086353302	0.06564459204673767	0.2802368998527527	-0.17643000185489655	0.5583802461624146	0.34133487939834595	-0.3006114065647125	0.1380690485239029	0.08276103436946869	0.025551356375217438	-0.0033366670832037926	-0.011262435466051102
45	-0.07649628818035126	-0.006912632845342159	-0.03111259825527668	0.17783570289611816	-0.16263483464717865	0.1499130129814148	0.3732200860977173	-0.3541242182254791	0.6264793276786804	0.1104939803481102	0.4315233528614044	0.2259329855442047	1.2296119928359985	-1.8416740894317627	0.030230499804019928	0.20944473147392273	-0.05626026540994644	0.4548458456993103	-0.3385447561740875	0.26283079385757446	0.669111967086792	1.2396817207336426	1.3371400833129883	-0.36885160207748413	-0.1347600221633911	-0.18116754293441772	0.056358352303504944	0.019409049302339554	0.12420646846294403	-0.3328641653060913	-0.19895516335964203	0.4272986650466919	-0.043602049350738525	0.3571069538593292	0.02895188331604004	0.29972413182258606	-0.26591745018959045	-0.4228942394256592	0.06372013688087463	-0.3691334128379822	0.11881143599748611	0.9679962396621704	0.23739005625247955	0.01832108572125435	-0.08389252424240112	-0.43905109167099	0.13818122446537018	0.08369249105453491	0.013934260234236717	0.0024043016601353884	-0.02118128351867199
46	-0.07730262726545334	-0.005714219529181719	-0.030722809955477715	0.17840613424777985	-0.15915855765342712	0.14617428183555603	0.3705671429634094	-0.3475356698036194	0.6266427040100098	0.10856892913579941	0.4312315881252289	0.2240626960992813	1.2296383380889893	-1.8416064977645874	0.03164975345134735	0.20975811779499054	-0.05920315161347389	0.46475493907928467	-0.33859920501708984	0.2611764669418335	0.6667193174362183	1.236000657081604	1.3421518802642822	-0.36927923560142517	0.02886788547039032	0.22119244933128357	0.09686046093702316	0.06751938909292221	0.2545908987522125	-0.12045298516750336	-0.08775237202644348	0.30390384793281555	-0.3531866669654846	0.1433153748512268	-0.0274403914809227	-0.3637999892234802	-0.27936339378356934	-0.4011651873588562	0.06273184716701508	0.08022290468215942	-0.24493049085140228	0.9181771874427795	-0.08956748992204666	-0.11938924342393875	0.0544188916683197	-0.4870758056640625	0.1677004098892212	0.05976356565952301	0.014362863264977932	0.009728224016726017	0.008831526152789593
47	-0.0766473114490509	-0.006505204364657402	-0.02988688088953495	0.1777423918247223	-0.1580558866262436	0.1441536247730255	0.3659391403198242	-0.3465670943260193	0.6302576661109924	0.11768318712711334	0.4283140301704407	0.2268175184726715	1.2295230627059937	-1.841544270515442	0.03648803383111954	0.20592497289180756	-0.05806931480765343	0.4685059189796448	-0.3423048257827759	0.259198933839798	0.670869767665863	1.2393274307250977	1.3441370725631714	-0.3668191730976105	0.027373172342777252	-0.22001150250434875	0.10336238145828247	-0.028653601184487343	0.015255404636263847	-0.17795561254024506	-0.34771043062210083	-0.08942793309688568	-0.2867108881473541	0.5764344930648804	-0.2625666856765747	0.5136964321136475	-0.18648256361484528	-0.370778352022171	0.40013688802719116	-0.7191731929779053	-0.2744544446468353	0.6533108353614807	-0.16688285768032074	-0.018785450607538223	0.44269001483917236	-0.23617501556873322	0.10660706460475922	0.06530028581619263	0.00305566587485373	0.008108911104500294	-0.014615412801504135
48	-0.07720969617366791	-0.011361347511410713	-0.029340090230107307	0.17876218259334564	-0.16011673212051392	0.14225947856903076	0.3659011423587799	-0.35052305459976196	0.6384006142616272	0.11975572258234024	0.4270637631416321	0.23586107790470123	1.22942316532135	-1.8413206338882446	0.04020981118083	0.19858622550964355	-0.05424407497048378	0.4708675444126129	-0.3460412621498108	0.2646079659461975	0.678286075592041	1.2370394468307495	1.3498778343200684	-0.36724853515625	-0.08575492352247238	-0.21230338513851166	0.03524738922715187	0.1250971555709839	-0.137409508228302	-0.02374671772122383	0.22508686780929565	-0.26678329706192017	0.07739122211933136	0.12155590951442719	0.10378199815750122	0.32481059432029724	-0.09867684543132782	-0.3761894702911377	-0.010755680501461029	-0.3158664107322693	-0.2474001944065094	0.675063967704773	-0.24062538146972656	0.3865748643875122	0.44838231801986694	-0.38970422744750977	0.15295632183551788	0.055151741951704025	0.00830474216490984	0.0021470761857926846	-0.03140604868531227
49	-0.0766012892127037	-0.009788289666175842	-0.028276626020669937	0.17865578830242157	-0.15946601331233978	0.13962484896183014	0.3624064326286316	-0.35645225644111633	0.6451510787010193	0.12101642042398453	0.4218769669532776	0.2324233055114746	1.2296305894851685	-1.8412708044052124	0.04987594485282898	0.20223408937454224	-0.04743098467588425	0.47739332914352417	-0.35106292366981506	0.27130162715911865	0.690215528011322	1.2447892427444458	1.352271318435669	-0.3672800362110138	0.14880144596099854	0.21662503480911255	0.14722248911857605	-0.051653385162353516	0.2599717378616333	-0.17833800613880157	-0.4935064911842346	-0.1496383100748062	-0.2599581778049469	0.12881329655647278	-0.5728718042373657	-0.38769465684890747	-0.14460980892181396	-0.35162946581840515	0.8161287307739258	0.1115274429321289	-0.17762845754623413	0.8263068199157715	-0.15009458363056183	0.32277095317840576	0.7802435159683228	0.15779991447925568	0.10828344523906708	0.031005892902612686	-0.004985166247934103	0.008193661458790302	-0.014560381881892681
50	-0.07520081847906113	-0.011722952127456665	-0.027242904528975487	0.1746532917022705	-0.1583268940448761	0.13728414475917816	0.3506167232990265	-0.3562087118625641	0.6523738503456116	0.11633773893117905	0.41218891739845276	0.23456628620624542	1.2295329570770264	-1.840863585472107	0.06513074785470963	0.20068366825580597	-0.046506594866514206	0.4868795573711395	-0.35130488872528076	0.2780472934246063	0.6906229853630066	1.2410892248153687	1.3556790351867676	-0.3700306713581085	-0.04413334280252457	-0.32460817694664	0.03206443414092064	-0.23896926641464233	-0.0782201886177063	-0.05103951320052147	-0.6134961247444153	0.001907268539071083	0.03620527684688568	-0.2159610092639923	-0.3317480683326721	0.4490514397621155	0.015097886323928833	-0.38057440519332886	0.5767695307731628	-0.3161158561706543	-0.6303915977478027	1.0653443336486816	0.06298893690109253	0.35739636421203613	-0.106827512383461	-0.5451993346214294	0.10965025424957275	-0.0009257374331355095	0.005866643972694874	-0.002821999602019787	-0.03880709409713745
51	-0.07299940288066864	-0.015133121982216835	-0.028327329084277153	0.17076708376407623	-0.16034364700317383	0.1402975618839264	0.34916380047798157	-0.3523564040660858	0.6648668646812439	0.1172090619802475	0.4065621793270111	0.23695087432861328	1.2295671701431274	-1.8408057689666748	0.07187508046627045	0.20204398036003113	-0.04394841939210892	0.49304482340812683	-0.3510640859603882	0.28460338711738586	0.6857724189758301	1.2343053817749023	1.3592491149902344	-0.3734736442565918	0.1317605823278427	-0.0184202641248703	0.068464495241642	-0.04614747315645218	0.02618742361664772	0.25131767988204956	0.1488492786884308	0.23097582161426544	0.30408865213394165	0.13045725226402283	-0.17487484216690063	-0.1754877269268036	-0.05524107813835144	-0.47007864713668823	0.22586709260940552	0.2165779173374176	-0.5760533809661865	0.857622504234314	-0.06110154464840889	0.2691686451435089	-0.23077331483364105	-0.6871083378791809	0.11585381627082825	-0.02991214580833912	0.012886135838925838	-0.0014245414640754461	-0.01322204153984785
52	-0.07912316918373108	-0.017441341653466225	-0.02680073119699955	0.17361988127231598	-0.15833602845668793	0.1380608230829239	0.34544506669044495	-0.3507920801639557	0.6717474460601807	0.1190008744597435	0.4152515232563019	0.23866614699363708	1.2298930883407593	-1.8406474590301514	0.06392863392829895	0.201197549700737	-0.04199357330799103	0.49782708287239075	-0.35311049222946167	0.2874997854232788	0.6827040314674377	1.2336909770965576	1.3592849969863892	-0.37104058265686035	-0.5810609459877014	-0.25194281339645386	0.26511019468307495	0.3748559057712555	0.28115344047546387	-0.4122302532196045	-0.37329933047294617	0.11078982055187225	-0.0864541083574295	0.2050202488899231	0.7510786056518555	0.3585830330848694	-0.1829010546207428	-0.43319517374038696	-0.6098991632461548	-0.5364217758178711	-0.4585094153881073	0.6890584230422974	-0.058799196034669876	0.11504121124744415	-0.020627766847610474	-0.4178997874259949	0.03652152419090271	0.024555517360568047	0.006317607127130032	-0.0017159652197733521	-0.04884075000882149
53	-0.08426381647586823	-0.01920105703175068	-0.02553371526300907	0.1784178614616394	-0.15495985746383667	0.13396760821342468	0.3473062813282013	-0.3465152382850647	0.6711687445640564	0.11189310997724533	0.4220091998577118	0.23970170319080353	1.229968547821045	-1.8402425050735474	0.05896629020571709	0.20051898062229156	-0.04812094569206238	0.5042281150817871	-0.35034865140914917	0.2892345190048218	0.6819728016853333	1.2299724817276	1.3615368604660034	-0.36893174052238464	-0.044972486793994904	0.10963321477174759	0.1476830393075943	0.21355284750461578	0.1925182342529297	-0.22043824195861816	0.2961153984069824	0.1769903600215912	-0.3954773545265198	0.005728960037231445	0.08663543313741684	-0.24465146660804749	-0.3457871079444885	-0.5367347002029419	-0.046509452164173126	-0.03489753603935242	-0.6381298899650574	0.7903971672058105	0.14791464805603027	0.08492521941661835	0.1345880627632141	-0.5882730484008789	0.04151969403028488	0.08759641647338867	0.022279683500528336	0.0037323227152228355	-0.0164328720420599
54	-0.09294568002223969	-0.01759508065879345	-0.02676033042371273	0.1805548369884491	-0.15419591963291168	0.12427949905395508	0.3449506163597107	-0.350543349981308	0.6712251901626587	0.1103782132267952	0.4311373233795166	0.23438258469104767	1.2300776243209839	-1.8403279781341553	0.050550490617752075	0.20760461688041687	-0.05302496254444122	0.5011644959449768	-0.34751996397972107	0.29153746366500854	0.6787467002868652	1.2343363761901855	1.362400770187378	-0.3677889108657837	-0.7393068671226501	-0.08258748054504395	0.08166933059692383	0.21426503360271454	0.07388018816709518	-0.753050684928894	-0.2837338149547577	-0.23258176445960999	-0.3723441958427429	0.1368788480758667	0.7589349150657654	-0.12054729461669922	-0.3786320686340332	-0.6034913659095764	-0.41211268305778503	0.4565616250038147	-0.4625767767429352	0.2508155405521393	0.1937553882598877	0.15609031915664673	0.05006994307041168	-0.26167595386505127	0.030542606487870216	0.08456625789403915	0.013014997355639935	-0.02571764402091503	-0.07252394407987595
55	-0.1062983050942421	-0.021729040890932083	-0.028647935017943382	0.18341374397277832	-0.15568536520004272	0.11193958669900894	0.34394413232803345	-0.35525599122047424	0.6736454963684082	0.10418824851512909	0.44375765323638916	0.2350406050682068	1.229777216911316	-1.8404204845428467	0.040964577347040176	0.21375080943107605	-0.05304989963769913	0.4978848397731781	-0.3447921872138977	0.29613977670669556	0.666822075843811	1.2303075790405273	1.3558303117752075	-0.3642313778400421	-0.6254345774650574	-0.2620382308959961	0.02325579524040222	0.2062525898218155	-0.05581705644726753	-0.5756758451461792	0.08243481069803238	-0.2779451608657837	-0.38201141357421875	-0.08855873346328735	0.5647398829460144	0.09621976315975189	-0.2300255298614502	-0.568350076675415	-0.4777265191078186	0.046881675720214844	-0.2859049141407013	0.4715830683708191	0.09538755565881729	0.2910810708999634	-0.504636824131012	-0.6078906059265137	-0.07139384746551514	0.12503036856651306	0.014083156362175941	-0.009832829236984253	-0.10430454462766647
56	-0.11695428937673569	-0.028080202639102936	-0.028291521593928337	0.18951058387756348	-0.1560220569372177	0.10012236982584	0.3477379083633423	-0.36222290992736816	0.6767995953559875	0.10110597312450409	0.4504460394382477	0.23964007198810577	1.2297502756118774	-1.840225100517273	0.04147464409470558	0.21473486721515656	-0.05003662034869194	0.49421581625938416	-0.34251201152801514	0.3016617000102997	0.6507661938667297	1.2284646034240723	1.3524417877197266	-0.3626866340637207	-0.5360373258590698	-0.39285218715667725	0.20865480601787567	0.4648929238319397	0.13186286389827728	-0.682648241519928	0.18378692865371704	-0.35610878467559814	-0.20470014214515686	-0.08809682726860046	0.21331115067005157	0.3383820652961731	-0.1838921308517456	-0.5886984467506409	0.3512572646141052	-0.10476262122392654	-0.28689733147621155	0.597262978553772	0.11833252757787704	0.29350635409355164	-0.6780909895896912	-0.552788257598877	-0.09109488129615784	0.11506357043981552	-0.009637702256441116	-0.016195399686694145	-0.10757723450660706
57	-0.1274501085281372	-0.031640224158763885	-0.025050800293684006	0.19773222506046295	-0.15238389372825623	0.0852910727262497	0.34722885489463806	-0.37414559721946716	0.6784563660621643	0.09116743505001068	0.4525754451751709	0.23971693217754364	1.2298059463500977	-1.8401223421096802	0.0517381876707077	0.21755360066890717	-0.05171705782413483	0.49263375997543335	-0.3399445116519928	0.30934324860572815	0.6348404288291931	1.218618631362915	1.3464866876602173	-0.3599439263343811	-0.5460282564163208	-0.13832233846187592	0.31204864382743835	0.4360530972480774	0.27314555644989014	-0.7331317663192749	-0.0942433550953865	-0.6176354289054871	-0.3649567663669586	-0.24156451225280762	0.07078848779201508	-0.1699247658252716	-0.27796003222465515	-0.5997874736785889	0.578851580619812	0.1949651837348938	-0.4625184237957001	0.587573230266571	0.15150398015975952	0.45226433873176575	-0.6322368383407593	-0.9360190033912659	-0.1471400409936905	0.11752752214670181	-0.004112600348889828	-0.012751998379826546	-0.12218213826417923
58	-0.13695897161960602	-0.034212104976177216	-0.024284563958644867	0.19865110516548157	-0.15104827284812927	0.07297051697969437	0.3383852243423462	-0.38411158323287964	0.685160756111145	0.07796251773834229	0.4520390033721924	0.23655085265636444	1.2294877767562866	-1.8394800424575806	0.06209000572562218	0.22531606256961823	-0.050699613988399506	0.4998975992202759	-0.33724120259284973	0.3191126883029938	0.6125710010528564	1.2086143493652344	1.3399403095245361	-0.3608376383781433	-0.3444646894931793	-0.010143255814909935	0.28108614683151245	-0.041178978979587555	0.12231732159852982	-0.5827861428260803	-0.6450632214546204	-0.39254435896873474	0.03278917074203491	-0.5037986040115356	-0.08990620076656342	-0.18872477114200592	-0.061185210943222046	-0.8423503637313843	0.5503029823303223	0.2174106240272522	-0.905051052570343	1.3568215370178223	0.20902206003665924	0.5136448740959167	-1.057059645652771	-0.8572604656219482	-0.19283084571361542	0.10021601617336273	0.014514081180095673	-0.018300861120224	-0.04690275713801384
59	-0.13198916614055634	-0.029146673157811165	-0.024830510839819908	0.19437961280345917	-0.15196935832500458	0.06892699003219604	0.3327186703681946	-0.390255868434906	0.7014480829238892	0.0692530944943428	0.4434579908847809	0.2325741946697235	1.2299593687057495	-1.839664101600647	0.07096235454082489	0.22700318694114685	-0.048099618405103683	0.5114184617996216	-0.33191972970962524	0.3242890238761902	0.5830168128013611	1.199448585510254	1.3320612907409668	-0.36052390933036804	0.1882314682006836	0.06293759495019913	0.05298185348510742	-0.1126764789223671	-0.06031428277492523	-0.11709126830101013	-0.13277462124824524	-0.29421380162239075	0.2333313226699829	-0.1603316366672516	-0.327811598777771	0.02796807326376438	0.09872651100158691	-0.5607693195343018	0.3236996829509735	-0.20610031485557556	-0.9621695280075073	1.0339683294296265	0.24183030426502228	0.20804938673973083	-1.2502305507659912	-0.873175323009491	-0.22121112048625946	0.07035758346319199	0.0041694943793118	0.00975178461521864	0.006903043482452631
60	-0.12915295362472534	-0.03121056780219078	-0.023109575733542442	0.1966692954301834	-0.15180450677871704	0.07182853668928146	0.3379668891429901	-0.3912135064601898	0.723273754119873	0.0676041767001152	0.44030988216400146	0.23491042852401733	1.2292178869247437	-1.83962881565094	0.07574841380119324	0.2249780297279358	-0.044277094304561615	0.5093813538551331	-0.32888710498809814	0.32841619849205017	0.549645185470581	1.1933108568191528	1.3192530870437622	-0.360935240983963	0.07522071152925491	-0.15262584388256073	0.22654709219932556	0.2966703772544861	0.13075077533721924	0.1885834038257599	0.38017889857292175	-0.004450637847185135	0.8672258853912354	0.1546739935874939	-0.030911775305867195	0.10863370448350906	0.3948967158794403	-0.6237898468971252	0.18325340747833252	-0.09699141979217529	-1.1952235698699951	0.6272971630096436	0.06177283823490143	0.18652015924453735	-1.5764623880386353	-0.7435467839241028	-0.35648298263549805	0.08941122144460678	-0.014563038945198059	-0.0020349023398011923	-0.018417151644825935
61	-0.12919795513153076	-0.030262013897299767	-0.01872352510690689	0.20349261164665222	-0.14590515196323395	0.07137425243854523	0.3398174047470093	-0.39215490221977234	0.7450826168060303	0.06248211860656738	0.44137102365493774	0.2325965166091919	1.2296903133392334	-1.8393841981887817	0.07742640376091003	0.22400681674480438	-0.03961067274212837	0.5130063891410828	-0.32778051495552063	0.33233389258384705	0.521716833114624	1.1864476203918457	1.3112034797668457	-0.36140814423561096	-0.12077423185110092	0.04252761974930763	0.3155032694339752	0.4089076519012451	0.42671626806259155	-0.21103458106517792	-0.08390261232852936	0.03418153524398804	0.8141557574272156	-0.11202926933765411	0.1462061107158661	-0.11014699190855026	0.4645211398601532	-0.5654221773147583	0.05892471969127655	-0.18296095728874207	-1.1940910816192627	0.9300214648246765	0.07902198284864426	0.1873045563697815	-1.2196840047836304	-0.7302490472793579	-0.35063308477401733	0.06662854552268982	-0.03451278805732727	0.0025530324783176184	-0.00885512214154005
62	-0.12804673612117767	-0.029307285323739052	-0.01367970835417509	0.21117262542247772	-0.13550716638565063	0.06780120730400085	0.34030285477638245	-0.3843458592891693	0.7593541741371155	0.055042900145053864	0.43830418586730957	0.22930359840393066	1.2298444509506226	-1.8396406173706055	0.08557367324829102	0.22094003856182098	-0.042523857206106186	0.5164029598236084	-0.3262583017349243	0.3281887471675873	0.4887301027774811	1.1765365600585938	1.3025990724563599	-0.35955163836479187	0.0626615658402443	0.015072641894221306	0.4881857633590698	0.4782114028930664	0.6555140614509583	-0.2741822600364685	-0.0004037395119667053	0.4525225758552551	0.3225027918815613	-0.1412736177444458	-0.23869439959526062	-0.1484753042459488	0.22102785110473633	-0.7809311747550964	0.6837713122367859	-0.18774357438087463	-1.459329605102539	0.8086049556732178	0.06512424349784851	-0.35223817825317383	-1.641945719718933	-0.9536652565002441	-0.3747884929180145	0.06842798739671707	-0.03380296006798744	0.0015155503060668707	-0.006854089442640543
63	-0.12568733096122742	-0.030020128935575485	-0.009593126364052296	0.21611082553863525	-0.128109872341156	0.06051429361104965	0.33756184577941895	-0.38381150364875793	0.7712479829788208	0.04310767725110054	0.4304940402507782	0.23131577670574188	1.230394959449768	-1.8400300741195679	0.09950987249612808	0.21441546082496643	-0.048417169600725174	0.5209198594093323	-0.32367539405822754	0.31967493891716003	0.4477047026157379	1.160361647605896	1.291674017906189	-0.3537493646144867	0.05895306542515755	-0.09952539950609207	0.4939348101615906	0.29181236028671265	0.33697861433029175	-0.5704371333122253	-0.23057430982589722	-0.2114240974187851	0.14753222465515137	-0.061084091663360596	-0.34403589367866516	0.29730483889579773	-0.17835181951522827	-0.8477252721786499	0.7516317963600159	-0.6971085071563721	-1.0945103168487549	0.8906509876251221	0.1700267195701599	-0.3619169592857361	-1.8244860172271729	-1.3112761974334717	-0.34673523902893066	0.18253305554389954	-0.023508993908762932	-0.00015866730245761573	-0.0044591594487428665
64	-0.12880994379520416	-0.03476634621620178	-0.00915735587477684	0.21850314736366272	-0.1282077133655548	0.05039157718420029	0.3334950804710388	-0.3893641531467438	0.7804486751556396	0.03457597270607948	0.43057581782341003	0.23919028043746948	1.2299730777740479	-1.8402169942855835	0.1019776463508606	0.206649050116539	-0.052754178643226624	0.5350093841552734	-0.3225124180316925	0.3152749240398407	0.4171484708786011	1.146428108215332	1.2811501026153564	-0.3494296371936798	-0.3762645423412323	-0.3464907705783844	0.243376687169075	0.23652777075767517	-0.02068702131509781	-0.5975165367126465	-0.17707733809947968	-0.19646985828876495	0.06363117694854736	-0.1405668556690216	0.34336867928504944	0.4226723611354828	0.028848648071289062	-0.7838566303253174	-0.21725471317768097	-0.2716868817806244	-1.1868926286697388	1.4466042518615723	0.015982255339622498	-0.17247439920902252	-1.247772455215454	-1.1104004383087158	-0.34502750635147095	0.1972765475511551	-0.029513023793697357	-0.010543949902057648	-0.040005333721637726
65	-0.13770481944084167	-0.041317328810691833	-0.009384255856275558	0.22119352221488953	-0.13120611011981964	0.03820590302348137	0.3295907974243164	-0.3933449983596802	0.7870281934738159	0.02927563153207302	0.437053918838501	0.2448514699935913	1.2298920154571533	-1.8399643898010254	0.0984906554222107	0.203210711479187	-0.05577157437801361	0.5442889332771301	-0.3211492598056793	0.3111651837825775	0.3905322849750519	1.140547752380371	1.2649797201156616	-0.3456205427646637	-0.5335236191749573	-0.3759378492832184	0.3278164267539978	0.28475528955459595	-0.014656737446784973	-0.7229772806167603	-0.23634642362594604	-0.16319841146469116	-0.08395633101463318	-0.03561282157897949	0.34809207916259766	0.24025499820709229	0.03153115510940552	-0.78233802318573	-0.045364584773778915	-0.10438290983438492	-1.0610599517822266	1.1474689245224	0.10958617925643921	-0.20096538960933685	-1.1931202411651611	-0.7722244262695312	-0.4545338749885559	0.19052334129810333	-0.02694055065512657	-0.019490713253617287	-0.06667003780603409
66	-0.14631299674510956	-0.04890351742506027	-0.012219742871820927	0.22000673413276672	-0.1377062201499939	0.025883246213197708	0.3266444504261017	-0.39194923639297485	0.784406304359436	0.02368006482720375	0.4382026195526123	0.24581597745418549	1.2299638986587524	-1.8403370380401611	0.10264943540096283	0.20486080646514893	-0.06024270877242088	0.5451918840408325	-0.31970450282096863	0.3055228292942047	0.36374351382255554	1.1301783323287964	1.2507926225662231	-0.343437522649765	-0.48028483986854553	-0.44460830092430115	0.06393110752105713	-0.07519536465406418	-0.348151832818985	-0.7364283800125122	-0.1488729566335678	0.2172338217496872	-0.5127008557319641	0.13372161984443665	0.007995972409844398	-0.0601317435503006	-0.08643132448196411	-0.826644778251648	0.27094992995262146	0.25082001090049744	-0.9115179777145386	0.6608995795249939	0.06027522683143616	-0.33724498748779297	-1.2651948928833008	-1.0844576358795166	-0.46988213062286377	0.17147399485111237	-0.02003888599574566	-0.02292504906654358	-0.10422772169113159
67	-0.1606782078742981	-0.06015904247760773	-0.016519634053111076	0.21685674786567688	-0.148809552192688	0.01274390984326601	0.32241323590278625	-0.39045459032058716	0.7604939341545105	0.009880265220999718	0.44060972332954407	0.24478228390216827	1.2298052310943604	-1.8403265476226807	0.1091030165553093	0.20752547681331635	-0.0695774033665657	0.5424805283546448	-0.3189135193824768	0.298622727394104	0.3385458290576935	1.1203944683074951	1.2320970296859741	-0.33747372031211853	-0.9174138307571411	-0.7219281792640686	0.14281758666038513	0.03963339328765869	-0.4601438045501709	-0.7713159322738647	-0.21372196078300476	0.06340426951646805	-1.4299718141555786	-0.35507118701934814	0.27448949217796326	0.010721124708652496	-0.06890219449996948	-0.8076194524765015	0.30163833498954773	0.15710099041461945	-0.7578532695770264	0.5377081036567688	0.03508317470550537	-0.3423377573490143	-1.2065423727035522	-0.9404836893081665	-0.5730562210083008	0.2242148518562317	-0.024856330826878548	-0.04827200621366501	-0.16709856688976288
68	-0.18263661861419678	-0.07817288488149643	-0.021169880405068398	0.21475185453891754	-0.16219809651374817	0.00011698944581439719	0.32068660855293274	-0.38229238986968994	0.7267293930053711	-0.005479893181473017	0.44658422470092773	0.24225157499313354	1.229753851890564	-1.8405725955963135	0.11608728021383286	0.2127085030078888	-0.07537584751844406	0.5384960174560547	-0.31652626395225525	0.28766608238220215	0.31711962819099426	1.1077255010604858	1.209189772605896	-0.3320572078227997	-1.2976521253585815	-1.0441185235977173	-0.002886846661567688	-0.045774005353450775	-0.6469218134880066	-0.7468746900558472	-0.0813496857881546	0.6041924953460693	-1.7227232456207275	-0.29064270853996277	0.399314820766449	-0.24122396111488342	-0.13917160034179688	-0.8197332620620728	0.29425716400146484	0.36095306277275085	-0.38319236040115356	0.5104806423187256	0.13933229446411133	-0.6622741222381592	-0.9817273616790771	-1.1435728073120117	-0.6556156277656555	0.24559159576892853	-0.03042992763221264	-0.06391365826129913	-0.24932241439819336
69	-0.21800856292247772	-0.09967081993818283	-0.028295574709773064	0.20785383880138397	-0.18098832666873932	-0.019597714766860008	0.30598875880241394	-0.38300472497940063	0.6733394861221313	-0.028475729748606682	0.4573334753513336	0.2338680922985077	1.229617714881897	-1.840373158454895	0.11861663311719894	0.22034308314323425	-0.08367633819580078	0.5423827767372131	-0.3123439848423004	0.2738441824913025	0.2964654266834259	1.0971277952194214	1.1780649423599243	-0.3250919282436371	-2.0153086185455322	-1.2481619119644165	-0.09021958708763123	-0.32548442482948303	-0.9301251769065857	-1.2085907459259033	-0.9690523743629456	-0.1204838752746582	-2.6187944412231445	-0.5954394340515137	0.5831788182258606	-0.4155378043651581	-0.16138750314712524	-0.762017548084259	0.0822875052690506	0.49991658329963684	-0.19846481084823608	0.8210635185241699	0.3445199728012085	-0.6454668641090393	-1.011466383934021	-0.9740395545959473	-0.8346142172813416	0.29105982184410095	-0.03956200182437897	-0.07650402933359146	-0.3572113811969757
70	-0.26023930311203003	-0.13503925502300262	-0.03223998472094536	0.20272153615951538	-0.20112641155719757	-0.03595549613237381	0.29599884152412415	-0.376933217048645	0.6072123050689697	-0.059128448367118835	0.46468886733055115	0.22862200438976288	1.2290016412734985	-1.84038507938385	0.11867627501487732	0.22933728992938995	-0.09320473670959473	0.5543665289878845	-0.29936161637306213	0.2574768662452698	0.27343085408210754	1.0799227952957153	1.149158000946045	-0.3217625617980957	-2.265596389770508	-2.0785789489746094	-0.10410860180854797	-0.18946833908557892	-1.040162444114685	-0.7431411743164062	-0.35376134514808655	0.49163782596588135	-2.812246799468994	-1.1783037185668945	0.3154768943786621	-0.19506791234016418	0.3309701085090637	-0.5827904939651489	0.021515145897865295	0.42430081963539124	-0.11435049772262573	1.3006908893585205	0.7549045085906982	-0.8944891691207886	-1.2448952198028564	-1.1904288530349731	-0.8883025050163269	0.27836915850639343	-0.060773417353630066	-0.11006660759449005	-0.4820844531059265
71	-0.30666211247444153	-0.1792924404144287	-0.03293643891811371	0.19935393333435059	-0.22098268568515778	-0.05439605191349983	0.279281884431839	-0.37988072633743286	0.5391227602958679	-0.08329921215772629	0.4621938169002533	0.2225894331932068	1.2285767793655396	-1.8401038646697998	0.10733815282583237	0.23520973324775696	-0.09218424558639526	0.5693150162696838	-0.28411561250686646	0.23758649826049805	0.2608349025249481	1.0635322332382202	1.1128151416778564	-0.31736987829208374	-2.279755115509033	-2.409773349761963	0.06631631404161453	-0.08850876986980438	-0.9197787642478943	-0.914609432220459	-0.9166259169578552	-0.3624914288520813	-2.9447548389434814	-1.067530870437622	-0.47819408774375916	-0.2823195457458496	0.40394431352615356	-0.43983393907546997	-1.005752444267273	0.29138076305389404	0.22294878959655762	1.4871461391448975	0.7916771173477173	-0.9059761762619019	-0.6222610473632812	-1.1546473503112793	-1.0493305921554565	0.238930344581604	-0.09333053976297379	-0.10341046005487442	-0.5964313745498657
72	-0.34093958139419556	-0.22552978992462158	-0.025483785197138786	0.20090699195861816	-0.22894231975078583	-0.07320288568735123	0.25140097737312317	-0.3805660307407379	0.46757039427757263	-0.10696228593587875	0.4303489625453949	0.2078179270029068	1.2276324033737183	-1.8389222621917725	0.0659075528383255	0.2373804897069931	-0.09054751694202423	0.5893223881721497	-0.2628205716609955	0.21140603721141815	0.2534404993057251	1.0507787466049194	1.0740073919296265	-0.3119831085205078	0.8983932137489319	0.19215905666351318	0.47540223598480225	-0.03133077174425125	0.11545716226100922	-1.375241994857788	-0.9704020619392395	-0.6227319240570068	-0.9810390472412109	-1.7065832614898682	-3.7888379096984863	-2.790499210357666	-0.05803363025188446	-0.31942763924598694	-2.8701670169830322	-0.025645911693572998	0.6920162439346313	2.241727590560913	1.0626765489578247	-1.2400436401367188	-0.18821939826011658	-1.2602927684783936	-1.153114914894104	0.19235605001449585	-0.14581997692584991	-0.04473662003874779	-0.11759893596172333
73	-0.3363378942012787	-0.2337139993906021	-0.009612045250833035	0.20913755893707275	-0.22141854465007782	-0.10431714355945587	0.2210397720336914	-0.3958904445171356	0.39102545380592346	-0.14313092827796936	0.371370792388916	0.17071965336799622	1.2274677753448486	-1.8405840396881104	0.0027343593537807465	0.23912397027015686	-0.11146809160709381	0.6147451996803284	-0.24019497632980347	0.1761433184146881	0.25381869077682495	1.0324530601501465	1.0399627685546875	-0.3022971451282501	-0.365619421005249	-1.017062783241272	0.9464843273162842	0.6663366556167603	0.473597913980484	-1.7152230739593506	-1.4333988428115845	-0.542506992816925	-2.9384593963623047	-1.6525683403015137	-2.4166347980499268	-1.3176805973052979	0.48779094219207764	-0.5909915566444397	-3.295475482940674	0.2657392919063568	0.1673957109451294	1.8113572597503662	1.0522388219833374	-1.8539096117019653	-0.3086114823818207	-1.2197587490081787	-1.1177507638931274	0.2378416806459427	-0.18291690945625305	-0.05605429410934448	-0.1528010219335556
74	-0.36191388964653015	-0.26948797702789307	0.009615077637135983	0.22233068943023682	-0.2169944941997528	-0.14630556106567383	0.191950723528862	-0.41494694352149963	0.3122071325778961	-0.19627973437309265	0.33879151940345764	0.158076673746109	1.2275447845458984	-1.8402103185653687	-0.07827860116958618	0.2567952871322632	-0.12163211405277252	0.6342288851737976	-0.2109401822090149	0.13203632831573486	0.24996303021907806	1.0067896842956543	1.0104745626449585	-0.2922399044036865	-1.7139652967453003	-2.331111431121826	0.9537079334259033	0.5949192643165588	0.0380018875002861	-2.352433919906616	-1.1007570028305054	-0.8684539794921875	-2.933727264404297	-2.2744057178497314	-1.45236074924469	-0.3163549602031708	0.13256224989891052	-0.5292955636978149	-4.326683044433594	1.2932994365692139	0.504274845123291	1.6505959033966064	1.52921462059021	-2.1763932704925537	-0.3496580421924591	-1.689246654510498	-1.0693039894104004	0.3212852478027344	-0.1953161507844925	-0.07180231809616089	-0.22331476211547852
75	-0.40373140573501587	-0.3244682550430298	0.03146790340542793	0.2297702133655548	-0.22399789094924927	-0.1930643767118454	0.18216250836849213	-0.4296799898147583	0.2290128916501999	-0.26459309458732605	0.3195844292640686	0.1597553789615631	1.2263269424438477	-1.8434075117111206	-0.16879571974277496	0.2856522798538208	-0.14625030755996704	0.6475273966789246	-0.17873945832252502	0.08596491813659668	0.23654896020889282	0.9737500548362732	0.9797302484512329	-0.2851529121398926	-1.8763107061386108	-2.274691104888916	1.5473108291625977	0.2057194858789444	-0.4499600827693939	-2.5297648906707764	-0.6223360300064087	-1.0400662422180176	-3.6601037979125977	-2.973055362701416	-0.7748847603797913	-0.11697174608707428	0.15654459595680237	-0.7241159677505493	-4.6076459884643555	1.559788465499878	-1.835484266281128	0.7918106913566589	1.5571171045303345	-2.241992473602295	-0.7590282559394836	-1.9785640239715576	-0.9720906019210815	0.49373024702072144	0.009958595037460327	-0.13687600195407867	-0.010540373623371124
76	-0.42882952094078064	-0.385198175907135	0.041092801839113235	0.22368060052394867	-0.24478615820407867	-0.22375912964344025	0.1961793452501297	-0.4306643307209015	0.13465949892997742	-0.33635589480400085	0.29711687564849854	0.1664613038301468	1.2281230688095093	-1.8421604633331299	-0.2515263259410858	0.3217166066169739	-0.19391781091690063	0.6507682800292969	-0.14365547895431519	0.0319037027657032	0.2245945930480957	0.9182312488555908	0.933871865272522	-0.2794317305088043	-1.501409888267517	-3.109107732772827	0.954612135887146	-0.14675694704055786	-0.8445576429367065	-1.4921543598175049	0.49806421995162964	-0.2793899178504944	-4.993077754974365	-2.916536331176758	-0.6595119833946228	0.21739961206912994	-0.7964923977851868	-1.3784306049346924	-4.114938735961914	2.030189275741577	-2.1181938648223877	1.3138036727905273	1.7435624599456787	-2.6997058391571045	-0.2459864616394043	-3.6871042251586914	-1.262696385383606	0.603961169719696	-0.0469454750418663	-0.07437394559383392	0.04447020962834358
77	-0.47380170226097107	-0.43984657526016235	0.05571349337697029	0.21469654142856598	-0.26709869503974915	-0.26910948753356934	0.19424402713775635	-0.4492969512939453	0.04176359996199608	-0.40590211749076843	0.30870550870895386	0.16502602398395538	1.2273880243301392	-1.8420534133911133	-0.3186245262622833	0.35803547501564026	-0.240817591547966	0.641130268573761	-0.11313879489898682	-0.017333565279841423	0.21217882633209229	0.8558225035667419	0.8837108612060547	-0.27141788601875305	-2.6476876735687256	-2.3416080474853516	1.481635332107544	-0.357125461101532	-0.99338299036026	-2.899287462234497	-0.2552976608276367	-0.9653247594833374	-3.7025511264801025	-2.981506586074829	1.1262263059616089	-0.20213475823402405	-0.9546688795089722	-1.3676042556762695	-2.852536916732788	1.6565868854522705	-0.0487818717956543	0.7408765554428101	1.371893286705017	-2.255258560180664	-0.3874002695083618	-3.905130386352539	-1.2430447340011597	0.6217788457870483	0.006277092732489109	-0.029333679005503654	0.16735893487930298
78	-0.5365910530090332	-0.49637433886528015	0.08096586167812347	0.20526447892189026	-0.2937317192554474	-0.3323420286178589	0.1928674727678299	-0.46030595898628235	-0.05617561936378479	-0.46247047185897827	0.34599143266677856	0.17980018258094788	1.2257683277130127	-1.8454116582870483	-0.3666013777256012	0.3867565393447876	-0.278133749961853	0.6239050030708313	-0.08874224871397018	-0.05704270675778389	0.2073499709367752	0.8017513155937195	0.8278059959411621	-0.2625141739845276	-3.390000820159912	-3.156426429748535	1.328455924987793	-0.5675321221351624	-1.490249514579773	-3.362423896789551	-0.03259242698550224	-0.3857065439224243	-4.376182556152344	-2.675023317337036	2.0019984245300293	1.2050598859786987	0.0692465603351593	-0.1432194709777832	-2.051426649093628	1.5016155242919922	-1.3532207012176514	-0.7554223537445068	1.1205209493637085	-1.7969573736190796	-0.27224767208099365	-2.3813085556030273	-1.4943859577178955	0.4998335540294647	-0.011405019089579582	-0.016202975064516068	0.19947221875190735
79	-0.6091334223747253	-0.5621094703674316	0.11115904152393341	0.1955653578042984	-0.32275456190109253	-0.4012821614742279	0.20228391885757446	-0.4717382490634918	-0.15170158445835114	-0.5258231163024902	0.3877711594104767	0.20442886650562286	1.2247234582901	-1.8406939506530762	-0.40127068758010864	0.42264166474342346	-0.3150098919868469	0.6108546853065491	-0.07185932993888855	-0.07728560268878937	0.20358994603157043	0.7554677128791809	0.7766879200935364	-0.25133976340293884	-3.6994874477386475	-3.321606397628784	1.730220913887024	-0.42611896991729736	-1.2948378324508667	-3.44857120513916	0.6416007280349731	-0.6588273644447327	-4.137008190155029	-2.863725423812866	1.9065598249435425	0.9812539219856262	-0.045162737369537354	-0.3276049792766571	-1.4747867584228516	1.9693894386291504	-1.0379736423492432	0.13457021117210388	0.7154338359832764	-0.6912862658500671	-0.35778725147247314	-2.316282272338867	-1.728258490562439	0.3571816384792328	-0.014631703495979309	-0.034526363015174866	0.21139997243881226
80	-0.68489670753479	-0.6328808069229126	0.14504718780517578	0.18522758781909943	-0.3504202663898468	-0.4711034595966339	0.21232061088085175	-0.48324525356292725	-0.2563222348690033	-0.5928570032119751	0.42485857009887695	0.23344582319259644	1.2239044904708862	-1.8341175317764282	-0.4262188971042633	0.4592382311820984	-0.3508223295211792	0.6119987368583679	-0.054440487176179886	-0.07520165294408798	0.20175282657146454	0.7104412317276001	0.7245598435401917	-0.24171684682369232	-3.8955466747283936	-3.6964967250823975	2.1394238471984863	-0.3335980176925659	-1.2039361000061035	-3.305274486541748	0.42289894819259644	-0.5510573387145996	-4.885872840881348	-3.037119150161743	1.875624418258667	1.7589768171310425	-0.33368679881095886	-1.0120375156402588	-1.1564571857452393	1.8365501165390015	-1.1773133277893066	1.5625526905059814	0.8730043172836304	0.3905978202819824	-0.06914810091257095	-2.8638343811035156	-1.7496681213378906	0.533198356628418	-0.005134620703756809	-0.04804663360118866	0.22250494360923767
81	-0.7610519528388977	-0.7077186703681946	0.18166737258434296	0.17953486740589142	-0.37374892830848694	-0.5392047762870789	0.2334134578704834	-0.48369190096855164	-0.3713435232639313	-0.6582344174385071	0.4616405665874481	0.27049145102500916	1.2259845733642578	-1.8270542621612549	-0.4466606378555298	0.4956638813018799	-0.3988576829433441	0.6237624287605286	-0.04451490938663483	-0.07041637599468231	0.2027163952589035	0.653525173664093	0.66104656457901	-0.22723276913166046	-3.834768056869507	-3.7558443546295166	2.4139020442962646	0.07349339127540588	-0.8254020810127258	-2.8775267601013184	1.1770297288894653	0.26729559898376465	-6.101835250854492	-3.160661458969116	1.9479286670684814	1.9420442581176758	-1.2905033826828003	-1.4600377082824707	-1.0588966608047485	1.8977009057998657	-1.282330870628357	2.331343173980713	0.3455507159233093	0.11235117167234421	0.49150967597961426	-3.555269241333008	-1.7891513109207153	0.7351995706558228	0.0007219620747491717	-0.05402495712041855	0.213629812002182
82	-0.8036839962005615	-0.7778669595718384	0.19979780912399292	0.1810750663280487	-0.3867441713809967	-0.5839602947235107	0.2822166383266449	-0.4628203213214874	-0.48813971877098083	-0.7278290390968323	0.4671109914779663	0.2951781153678894	1.2257366180419922	-1.8184846639633179	-0.46740207076072693	0.544013500213623	-0.4564450681209564	0.6480445861816406	-0.041389137506484985	-0.062053132802248	0.21025167405605316	0.5921767354011536	0.5966240763664246	-0.2050311267375946	-1.2095396518707275	-3.3301703929901123	0.7231557369232178	0.335313618183136	-0.2759600579738617	-1.203202486038208	2.4414849281311035	1.0470423698425293	-5.259767055511475	-3.156907558441162	-0.49773404002189636	0.8850828409194946	-0.2755599319934845	-1.2640101909637451	-1.2440919876098633	2.61476469039917	-2.246295690536499	2.7125344276428223	0.09786941111087799	0.4340258836746216	0.46345263719558716	-3.720867395401001	-1.8266949653625488	0.9576115608215332	-0.10324205458164215	-0.05460391938686371	0.346012681722641
83	-0.8076859712600708	-0.8434879779815674	0.19479505717754364	0.19785016775131226	-0.3874836564064026	-0.5912439823150635	0.3314398229122162	-0.4606461226940155	-0.5802984237670898	-0.7710184454917908	0.4567694664001465	0.3225015699863434	1.228219985961914	-1.8176665306091309	-0.48800215125083923	0.593702495098114	-0.5196684002876282	0.6762923002243042	-0.03542016074061394	-0.05998777970671654	0.22409296035766602	0.5341641306877136	0.5437304973602295	-0.1779501736164093	0.09828861057758331	-3.4046566486358643	-0.3029458224773407	1.3183069229125977	0.27836278080940247	0.5564574003219604	2.198909282684326	-0.3259493112564087	-4.032299041748047	-2.269009828567505	-0.11920813471078873	1.8201109170913696	-0.0014367103576660156	-0.8455924987792969	-0.8840246200561523	2.464449167251587	-2.9032537937164307	2.283236503601074	0.3700267970561981	0.05284605175256729	0.7189602255821228	-3.1483571529388428	-1.5467289686203003	1.0497428178787231	-0.19971656799316406	-0.0598040446639061	0.47036755084991455
84	-0.8009774684906006	-0.9043079614639282	0.17653609812259674	0.23246274888515472	-0.37568414211273193	-0.5711836814880371	0.37617674469947815	-0.4707179367542267	-0.6849092245101929	-0.8135563731193542	0.4667096734046936	0.3616829216480255	1.2245639562606812	-1.8164434432983398	-0.49545788764953613	0.6160253286361694	-0.6027346253395081	0.713107168674469	-0.04203059896826744	-0.07094399631023407	0.2505171000957489	0.4713982343673706	0.4890567362308502	-0.14415276050567627	-0.35949575901031494	-2.7135937213897705	-0.6735244393348694	2.0179028511047363	0.774878203868866	0.830776572227478	2.4959652423858643	-0.6795093417167664	-4.176769256591797	-1.6702792644500732	0.7369455099105835	1.7802811861038208	0.3288978338241577	-0.8546351194381714	-0.678154468536377	0.4183156490325928	-2.885669708251953	2.48578143119812	-0.5471898913383484	-0.6919490098953247	1.026951789855957	-3.7035348415374756	-1.5706175565719604	1.1779382228851318	-0.3380955755710602	-0.04754720255732536	0.41576579213142395
85	-0.7976704239845276	-0.9548398852348328	0.15455107390880585	0.2656698226928711	-0.36508211493492126	-0.5549319386482239	0.4116747975349426	-0.49226245284080505	-0.7877659797668457	-0.829866349697113	0.47141584753990173	0.41009002923965454	1.2245910167694092	-1.815580129623413	-0.49213406443595886	0.6231114268302917	-0.6876081228256226	0.7535521388053894	-0.06344351172447205	-0.10379688441753387	0.27678343653678894	0.4048705995082855	0.45187675952911377	-0.11574714630842209	0.4078972637653351	-2.533292293548584	-0.8891462087631226	1.5325068235397339	0.4397018253803253	1.1544108390808105	1.3582757711410522	-1.146138072013855	-4.927914619445801	-1.0010650157928467	-0.005512937903404236	2.986401319503784	-0.7414542436599731	-1.1156582832336426	0.521953821182251	0.4931279420852661	-3.6291708946228027	3.107947587966919	-1.2009090185165405	-1.80712890625	1.5525157451629639	-3.7808566093444824	-1.1257572174072266	1.1448880434036255	-0.37700051069259644	-0.002111077541485429	0.38972440361976624
86	-0.788036584854126	-0.9977418184280396	0.1318122297525406	0.2854866683483124	-0.35702264308929443	-0.5386704206466675	0.4146394431591034	-0.5113997459411621	-0.9207448959350586	-0.8510424494743347	0.47231510281562805	0.46414926648139954	1.2227107286453247	-1.8108296394348145	-0.489801287651062	0.6339629888534546	-0.7988993525505066	0.7955645322799683	-0.0911003053188324	-0.14305129647254944	0.2934618592262268	0.33767563104629517	0.4028456509113312	-0.07377316802740097	0.35235852003097534	-1.828980565071106	-0.7182698249816895	0.9225456714630127	0.5828099846839905	1.353473424911499	-0.639167845249176	-0.8089973330497742	-7.469592094421387	-2.002856492996216	0.3102951645851135	2.4143192768096924	-1.157496690750122	-1.3967801332473755	-0.19539399445056915	0.5892801880836487	-5.3360915184021	3.7489066123962402	-1.275325059890747	-1.917061448097229	1.281514286994934	-3.983778715133667	-1.0058997869491577	1.3915600776672363	-0.36969900131225586	-0.003944483119994402	0.3164031207561493
87	-0.7785887122154236	-1.0264604091644287	0.11640753597021103	0.2977842688560486	-0.3469005525112152	-0.528071403503418	0.3953278958797455	-0.5266664624214172	-1.0432082414627075	-0.8705788254737854	0.4774014949798584	0.5045555830001831	1.2227267026901245	-1.8048900365829468	-0.49408701062202454	0.6274967789649963	-0.8747557401657104	0.8274306058883667	-0.10647456347942352	-0.1753421425819397	0.3039240837097168	0.2829393446445465	0.37232720851898193	-0.04220015928149223	0.35470205545425415	-1.3260139226913452	-0.27984920144081116	0.6238202452659607	0.49404412508010864	0.7228552103042603	-1.0915751457214355	-0.7552629709243774	-6.4139838218688965	-1.5310291051864624	0.3502075672149658	1.9226055145263672	0.09643173217773438	-1.3180681467056274	-0.20719453692436218	-0.6983457803726196	-4.016750812530518	2.902292251586914	-0.5298951864242554	-1.427446961402893	0.4330936372280121	-3.34920597076416	-0.8500350713729858	1.267659068107605	-0.34234705567359924	-0.007726766634732485	0.25203409790992737
88	-0.7645205855369568	-1.0479615926742554	0.11528529971837997	0.3090943396091461	-0.34955140948295593	-0.5330231189727783	0.37878093123435974	-0.5592883229255676	-1.155497431755066	-0.8834892511367798	0.4754678010940552	0.5563352108001709	1.2247934341430664	-1.7929409742355347	-0.49109795689582825	0.6063390970230103	-0.9278982281684875	0.8471237421035767	-0.11897101253271103	-0.20954595506191254	0.31085941195487976	0.24054893851280212	0.33783888816833496	-0.017371300607919693	0.8247175812721252	-1.0256621837615967	0.7611746788024902	0.8156619071960449	-0.28795820474624634	0.013038307428359985	-0.4692513644695282	-2.0705034732818604	-5.720597267150879	-1.1660151481628418	-0.346845418214798	2.969606637954712	-0.09802103042602539	-1.2318912744522095	0.18894824385643005	-1.0187442302703857	-3.053441047668457	2.2497262954711914	-0.6724947094917297	-1.606135368347168	0.3142077922821045	-2.8679933547973633	-0.8958374261856079	1.1614662408828735	-0.2790512442588806	-0.02335193380713463	0.1916244775056839
89	-0.7427545189857483	-1.0620237588882446	0.1314314305782318	0.32947680354118347	-0.34878167510032654	-0.5422673225402832	0.3756542503833771	-0.5918067693710327	-1.2724789381027222	-0.8978506922721863	0.4702627658843994	0.6063129305839539	1.2255043983459473	-1.7798492908477783	-0.4911936819553375	0.5675365328788757	-0.9802805781364441	0.8585116267204285	-0.14046671986579895	-0.23189711570739746	0.31752049922943115	0.2089187651872635	0.30313846468925476	-0.00591657217592001	0.9790783524513245	-0.5868386030197144	1.408959150314331	1.300084114074707	0.3801044225692749	-0.10537511110305786	-0.16442027688026428	-1.320083498954773	-5.616243839263916	-0.6081706285476685	0.03778660297393799	2.24594783782959	-0.06421220302581787	-1.1140718460083008	-0.2104359269142151	-1.975071668624878	-2.376751184463501	1.185874581336975	-1.1752328872680664	-1.042723298072815	0.11910980939865112	-2.1535773277282715	-1.0171562433242798	0.7733067870140076	-0.25448447465896606	-0.0496232770383358	0.14512665569782257
90	-0.7255368828773499	-1.0882446765899658	0.1277734339237213	0.33458706736564636	-0.3502333462238312	-0.5302148461341858	0.37881460785865784	-0.5999564528465271	-1.423376441001892	-0.909841775894165	0.46107012033462524	0.6417347192764282	1.2246313095092773	-1.7800557613372803	-0.4965498149394989	0.5586814880371094	-1.0398823022842407	0.8679368495941162	-0.1611202359199524	-0.2607424259185791	0.30785080790519714	0.15398678183555603	0.2728172838687897	0.006707982625812292	0.5819948315620422	-1.6176066398620605	-0.18629834055900574	0.09885607659816742	-0.15245522558689117	0.31810516119003296	-0.018414177000522614	-0.1195763349533081	-6.552669048309326	-0.19873645901679993	-0.3536025881767273	1.7224736213684082	0.8451077342033386	0.2204349935054779	-0.7193923592567444	0.3679719865322113	-1.6772328615188599	-0.16438859701156616	-0.8645030856132507	-1.5546458959579468	-0.8290136456489563	-2.658203125	-1.0112162828445435	0.5087369680404663	-0.314436137676239	0.04278269037604332	0.1937858760356903
91	-0.7284756898880005	-1.1376726627349854	0.13280731439590454	0.33651202917099	-0.371124267578125	-0.5301734209060669	0.3652527332305908	-0.6064484715461731	-1.5612355470657349	-0.9509620070457458	0.4667688310146332	0.7185515761375427	1.2281324863433838	-1.7785688638687134	-0.5366411209106445	0.5262264013290405	-1.0692554712295532	0.8763973712921143	-0.17084760963916779	-0.2740185260772705	0.30955010652542114	0.12245630472898483	0.24797020852565765	0.02362513728439808	-0.5515262484550476	-3.148441791534424	0.9051107168197632	0.41913729906082153	-1.2393133640289307	0.023756951093673706	-0.7210439443588257	-0.19966137409210205	-6.4983391761779785	-2.04982590675354	0.6915352940559387	5.118286609649658	0.6258459091186523	-0.15915483236312866	-2.6030917167663574	-2.1773440837860107	-1.7447460889816284	-0.12936794757843018	-0.3308854103088379	-0.4082779884338379	-0.07811683416366577	-1.2721880674362183	-0.8667569756507874	0.5353510975837708	-0.21443843841552734	0.030579950660467148	0.19741468131542206
92	-0.7338382601737976	-1.1955177783966064	0.14884714782238007	0.3495183289051056	-0.38949161767959595	-0.5293886065483093	0.3622658848762512	-0.6083511114120483	-1.6964588165283203	-0.9911770224571228	0.4701775312423706	0.8062334656715393	1.2240344285964966	-1.7751752138137817	-0.5762452483177185	0.5257446765899658	-1.1108555793762207	0.8855262398719788	-0.17732729017734528	-0.28751710057258606	0.32392022013664246	0.11196687072515488	0.20834095776081085	0.040688950568437576	-0.42740410566329956	-2.4683074951171875	1.4205594062805176	1.1400700807571411	-0.3456992208957672	0.15193429589271545	-0.027313105762004852	-0.5057737827301025	-6.389359951019287	-1.9904086589813232	-0.03587746620178223	3.360288143157959	0.8672756552696228	-0.20297449827194214	-1.5010008811950684	1.0818076133728027	-2.64745831489563	1.090219259262085	-0.3556528389453888	-0.7021644115447998	-0.16838130354881287	0.05476363003253937	-1.070340871810913	0.19245579838752747	-0.25047680735588074	0.07947912067174911	0.16943839192390442
93	-0.7356526255607605	-1.2425023317337036	0.160812646150589	0.3578850328922272	-0.4103626310825348	-0.5375178456306458	0.36175537109375	-0.6143850684165955	-1.8164260387420654	-1.0307152271270752	0.4603050649166107	0.8766506910324097	1.2196040153503418	-1.7669432163238525	-0.5933632254600525	0.5319517254829407	-1.1541365385055542	0.9145574569702148	-0.17633429169654846	-0.2891690731048584	0.3375057578086853	0.11241115629673004	0.1826218217611313	0.05653652548789978	-0.1392189860343933	-2.5080747604370117	0.6076440811157227	0.11603178083896637	-1.4406044483184814	-0.6273960471153259	-0.07238668203353882	-0.1169084906578064	-5.6496405601501465	-1.8277692794799805	-0.5333038568496704	3.774448871612549	0.7498325109481812	0.009749025106430054	-0.6283718347549438	0.17996443808078766	-2.780369997024536	1.405554175376892	0.15606281161308289	0.03688598424196243	-0.19778521358966827	-0.475141704082489	-0.9694657921791077	-0.22460298240184784	-0.27102574706077576	0.05332205072045326	0.12467644363641739
94	-0.7350324988365173	-1.2910124063491821	0.16460765898227692	0.3571116328239441	-0.4371984302997589	-0.5400565266609192	0.36032795906066895	-0.6160706877708435	-1.929927945137024	-1.0815702676773071	0.45029494166374207	0.9450151324272156	1.210610032081604	-1.7597436904907227	-0.6098358631134033	0.5481023788452148	-1.2193005084991455	0.9320363998413086	-0.17173829674720764	-0.2910595238208771	0.3544621169567108	0.11571646481752396	0.16327372193336487	0.07401832938194275	-0.11306936293840408	-2.4011940956115723	0.5245720148086548	0.02770393341779709	-1.3319203853607178	-0.16398026049137115	-0.3035048544406891	-0.30015891790390015	-5.478374004364014	-2.3474907875061035	-0.416499525308609	3.3311610221862793	0.9605167508125305	0.06135445833206177	-0.9840208888053894	1.0452909469604492	-3.9566903114318848	0.23659083247184753	0.31621217727661133	-0.055104561150074005	-0.20040547847747803	-0.577170193195343	-0.8069875240325928	0.5116909742355347	-0.2193193882703781	0.04832935333251953	0.1375780701637268
95	-0.7428439855575562	-1.335159182548523	0.17177966237068176	0.34743544459342957	-0.48422396183013916	-0.5519276857376099	0.330506294965744	-0.638935923576355	-2.0401535034179688	-1.137316107749939	0.4432624876499176	1.0209112167358398	1.2020543813705444	-1.7489492893218994	-0.6281206011772156	0.5581538677215576	-1.2841699123382568	0.9292486906051636	-0.16324549913406372	-0.29273125529289246	0.3744939863681793	0.12062308192253113	0.15263749659061432	0.08644365519285202	-0.5471685528755188	-2.334958791732788	0.6976420879364014	-0.5460241436958313	-2.624980926513672	-0.830482006072998	-1.719346284866333	-1.386942982673645	-5.553350448608398	-2.3750603199005127	-0.40604349970817566	4.041468620300293	0.9360201358795166	0.06585347652435303	-0.8071532845497131	0.38490545749664307	-3.446720600128174	-0.8192218542098999	0.5312249660491943	-0.055749084800481796	-0.08458739519119263	-0.12785571813583374	-0.5621793866157532	0.503166913986206	-0.16055041551589966	0.030025379732251167	0.1130169928073883
96	-0.7494757175445557	-1.3788707256317139	0.1757255345582962	0.33947399258613586	-0.5280894637107849	-0.5601432919502258	0.30101290345191956	-0.654217541217804	-2.145179510116577	-1.203257441520691	0.4377090632915497	1.0968080759048462	1.18853759765625	-1.733056902885437	-0.6485303044319153	0.5635852217674255	-1.346168041229248	0.92674720287323	-0.15129731595516205	-0.2774539887905121	0.38362014293670654	0.13441826403141022	0.1395079344511032	0.09590104222297668	-0.2469344139099121	-2.0723211765289307	0.3306897282600403	-0.22973167896270752	-1.6632407903671265	-0.23241810500621796	-1.219733476638794	-0.787253201007843	-5.2685723304748535	-2.6249163150787354	-0.1522376835346222	3.24058198928833	0.9995858669281006	0.07464343309402466	-1.1370339393615723	0.34206467866897583	-3.678309202194214	-0.541824460029602	0.6006436944007874	2.1500017642974854	-1.0559191703796387	-0.4367031455039978	-0.48743194341659546	0.4071139693260193	-0.22785146534442902	0.02707471139729023	0.11838255822658539
