BUCAI-qaq/main/m/chapter3/record_data_x3_getup/ref_state.txt
timestep	ref_qpos_left_hip_pitch_joint	ref_qpos_right_hip_pitch_joint	ref_qpos_waist_roll_joint	ref_qpos_left_hip_roll_joint	ref_qpos_right_hip_roll_joint	ref_qpos_waist_yaw_joint	ref_qpos_left_hip_yaw_joint	ref_qpos_right_hip_yaw_joint	ref_qpos_left_shoulder_pitch_joint	ref_qpos_right_shoulder_pitch_joint	ref_qpos_left_knee_joint	ref_qpos_right_knee_joint	ref_qpos_left_shoulder_roll_joint	ref_qpos_right_shoulder_roll_joint	ref_qpos_left_ankle_pitch_joint	ref_qpos_right_ankle_pitch_joint	ref_qpos_left_shoulder_yaw_joint	ref_qpos_right_shoulder_yaw_joint	ref_qpos_left_ankle_roll_joint	ref_qpos_right_ankle_roll_joint	ref_qpos_left_elbow_joint	ref_qpos_right_elbow_joint	ref_qpos_left_wrist_roll_joint	ref_qpos_right_wrist_roll_joint	ref_qvel_left_hip_pitch_joint	ref_qvel_right_hip_pitch_joint	ref_qvel_waist_roll_joint	ref_qvel_left_hip_roll_joint	ref_qvel_right_hip_roll_joint	ref_qvel_waist_yaw_joint	ref_qvel_left_hip_yaw_joint	ref_qvel_right_hip_yaw_joint	ref_qvel_left_shoulder_pitch_joint	ref_qvel_right_shoulder_pitch_joint	ref_qvel_left_knee_joint	ref_qvel_right_knee_joint	ref_qvel_left_shoulder_roll_joint	ref_qvel_right_shoulder_roll_joint	ref_qvel_left_ankle_pitch_joint	ref_qvel_right_ankle_pitch_joint	ref_qvel_left_shoulder_yaw_joint	ref_qvel_right_shoulder_yaw_joint	ref_qvel_left_ankle_roll_joint	ref_qvel_right_ankle_roll_joint	ref_qvel_left_elbow_joint	ref_qvel_right_elbow_joint	ref_qvel_left_wrist_roll_joint	ref_qvel_right_wrist_roll_joint	ref_root_vel_x	ref_root_vel_y	ref_root_vel_z
0	0.08325362950563431	0.3130452632904053	-0.2263335883617401	0.10638450086116791	-0.25189927220344543	-0.45735451579093933	-0.07605684548616409	-0.5216308236122131	0.3721495270729065	0.5714654326438904	0.052459124475717545	0.13640743494033813	1.2054952383041382	-1.4882057905197144	0.01126074232161045	-0.06712651252746582	-0.011073363944888115	-0.11158903688192368	-0.12875454127788544	0.04619867727160454	0.27183130383491516	0.5017041563987732	0.009854307398200035	0.030959833413362503	-1.8371261358261108	-7.819287300109863	10.152170181274414	1.1160529851913452	-5.548755645751953	11.008403778076172	11.4413480758667	-9.904336929321289	21.09161376953125	-5.608056545257568	0.5072752237319946	-2.471475601196289	-1.1378586292266846	-3.7180840969085693	5.977450847625732	11.08275318145752	22.427017211914062	6.974890232086182	-11.724872589111328	11.16833209991455	42.036746978759766	49.22045135498047	-4.927052974700928	13.348758697509766	6.2417802810668945	1.316845417022705	-8.180563926696777
1	0.04651110619306564	0.15665951371192932	-0.023290181532502174	0.12870556116104126	-0.3628743886947632	-0.23718644678592682	0.15277011692523956	-0.7197175621986389	0.7939817905426025	0.4593043029308319	0.0626046285033226	0.08697792142629623	1.1827380657196045	-1.5625674724578857	0.1308097541332245	0.15452854335308075	0.43746697902679443	0.02790876477956772	-0.3632519841194153	0.26956531405448914	1.1125662326812744	1.48611319065094	-0.0886867493391037	0.29793500900268555	-0.8608970046043396	-4.239758491516113	5.301751136779785	0.7883805632591248	-2.6243739128112793	6.13889741897583	6.412249565124512	-4.112574577331543	11.112865447998047	-3.5622754096984863	0.22148126363754272	-1.5024493932724	-0.49734413623809814	-1.890641450881958	3.4216041564941406	6.480994701385498	11.872820854187012	4.2754011154174805	-6.287805557250977	6.057914733886719	22.870868682861328	24.925214767456055	-2.542438507080078	7.19528341293335	3.117218494415283	0.6552919745445251	-4.1778130531311035
2	0.048817750066518784	0.1434549242258072	-0.014263547956943512	0.13791972398757935	-0.3568742275238037	-0.21179862320423126	0.18043313920497894	-0.6861338019371033	0.8166641592979431	0.4289744198322296	0.061318375170230865	0.0763094574213028	1.1856014728546143	-1.5638314485549927	0.14812491834163666	0.19211329519748688	0.46383947134017944	0.059427011758089066	-0.38026678562164307	0.28851526975631714	1.1866660118103027	1.4987127780914307	-0.09184323251247406	0.3187711834907532	0.08387631177902222	-0.42457878589630127	0.2933223843574524	0.29654020071029663	0.20038634538650513	0.8339312076568604	0.902634859085083	1.0889530181884766	0.6888732314109802	-1.000593662261963	-0.050709303468465805	-0.3557845950126648	0.0909268856048584	-0.040283799171447754	0.5461610555648804	1.1933542490005493	0.791706919670105	1.0423554182052612	-0.5278125405311584	0.5843483209609985	2.3012847900390625	0.3497511148452759	-0.08590836077928543	0.6366461515426636	-0.006219744682312012	-0.00407099723815918	-0.11305920779705048
3	0.04986615851521492	0.13967636227607727	-0.011557286605238914	0.14056716859340668	-0.354858934879303	-0.20382919907569885	0.18887551128864288	-0.6761594414710999	0.8215367197990417	0.4192805588245392	0.06057625636458397	0.07274653762578964	1.1863751411437988	-1.5641788244247437	0.1526561975479126	0.20226271450519562	0.46913525462150574	0.06960298120975494	-0.3843644857406616	0.2929392457008362	1.2046176195144653	1.500103235244751	-0.09212308377027512	0.3234008550643921	0.0546824187040329	-0.1821707934141159	0.1325615495443344	0.12775324285030365	0.10009333491325378	0.3916405141353607	0.41482263803482056	0.48339664936065674	0.21869242191314697	-0.48110559582710266	-0.03984672948718071	-0.176311656832695	0.03593862056732178	-0.01767575740814209	0.21352209150791168	0.48309341073036194	0.23647919297218323	0.504540205001831	-0.18983781337738037	0.2031385898590088	0.8323192596435547	0.05186200141906738	-0.009089335799217224	0.2118729054927826	-0.005406513810157776	-0.001605600118637085	-0.049606338143348694
4	0.0510050468146801	0.13616809248924255	-0.00896108616143465	0.1430298537015915	-0.35287049412727356	-0.19613300263881683	0.19702604413032532	-0.666797935962677	0.825411856174469	0.4097301959991455	0.05972450599074364	0.069256991147995	1.1870390176773071	-1.5645384788513184	0.15666580200195312	0.21143703162670135	0.4732986390590668	0.07960861921310425	-0.3878602981567383	0.2966408133506775	1.219958782196045	1.5007872581481934	-0.09220680594444275	0.3272460997104645	0.05858950316905975	-0.16905106604099274	0.12707234919071198	0.11872239410877228	0.09870901703834534	0.37735438346862793	0.4004962742328644	0.45508742332458496	0.17219781875610352	-0.47474950551986694	-0.04468420520424843	-0.17222297191619873	0.030863285064697266	-0.018921494483947754	0.18905363976955414	0.4364665746688843	0.18689259886741638	0.4962084889411926	-0.16188323497772217	0.17002448439598083	0.7104814052581787	0.02199709415435791	-0.0012177973985671997	0.17614662647247314	-0.005809590220451355	-0.001140683889389038	-0.04666857421398163
5	0.05220973864197731	0.13291431963443756	-0.0064743924885988235	0.14531606435775757	-0.35091057419776917	-0.1887350231409073	0.20489536225795746	-0.6579559445381165	0.8284246325492859	0.4002905786037445	0.05878888815641403	0.06585761904716492	1.1876096725463867	-1.5649356842041016	0.16021834313869476	0.21972137689590454	0.4766109585762024	0.08945132046937943	-0.3908398151397705	0.2997402250766754	1.2330368757247925	1.5009831190109253	-0.0921717956662178	0.330446720123291	0.06147744134068489	-0.15709362924098969	0.12163318693637848	0.1102060079574585	0.09714141488075256	0.3623552620410919	0.3863956928253174	0.4304945468902588	0.13399869203567505	-0.470086932182312	-0.04835696890950203	-0.1674676239490509	0.026464462280273438	-0.020703673362731934	0.16745328903198242	0.3940790891647339	0.147981196641922	0.4880264401435852	-0.13799741864204407	0.1420818269252777	0.6052970886230469	0.001722574234008789	0.0037962570786476135	0.1470230519771576	-0.005791708827018738	-0.000848621129989624	-0.04357174038887024
6	0.053464144468307495	0.12988434731960297	-0.004095758777111769	0.14743809401988983	-0.34898483753204346	-0.18163879215717316	0.21248187124729156	-0.6495781540870667	0.830771803855896	0.390926718711853	0.057790227234363556	0.06255828589200974	1.188097596168518	-1.5653666257858276	0.16336393356323242	0.2272001951932907	0.47921788692474365	0.09912967681884766	-0.39338019490242004	0.3023240864276886	1.2441706657409668	1.5008561611175537	-0.09205495566129684	0.3331270217895508	0.06348146498203278	-0.14688782393932343	0.11616992950439453	0.10219104588031769	0.0954553484916687	0.347408652305603	0.37230104207992554	0.40810853242874146	0.10431408882141113	-0.46665966510772705	-0.051057059317827225	-0.1623935103416443	0.022712349891662598	-0.021910667419433594	0.14832131564617157	0.3555901348590851	0.11603981256484985	0.48010534048080444	-0.11765360832214355	0.11792704463005066	0.5154192447662354	-0.011771917343139648	0.008360669016838074	0.12416020035743713	-0.0054232776165008545	-0.0007599592208862305	-0.040147826075553894
7	0.05474899709224701	0.12703880667686462	-0.0018275952897965908	0.14940370619297028	-0.3470923602581024	-0.17483867704868317	0.21978740394115448	-0.6416316032409668	0.8325971961021423	0.3816241919994354	0.05674660578370094	0.05936187878251076	1.1885181665420532	-1.565812110900879	0.16615119576454163	0.23394498229026794	0.4812525510787964	0.10865553468465805	-0.39554595947265625	0.30445730686187744	1.253653645515442	1.5005122423171997	-0.09183736890554428	0.3354131281375885	0.06413915753364563	-0.13863834738731384	0.11094258725643158	0.09456798434257507	0.093880295753479	0.33193790912628174	0.3586057424545288	0.38743913173675537	0.0784561038017273	-0.46319514513015747	-0.053251348435878754	-0.15697693824768066	0.017905235290527344	-0.022456049919128418	0.1312602311372757	0.32097214460372925	0.0928238034248352	0.47311002016067505	-0.10012611746788025	0.09687095880508423	0.43975114822387695	-0.02092421054840088	0.014442764222621918	0.10621845722198486	-0.005138665437698364	-0.0007480382919311523	-0.03617964684963226
8	0.05602971091866493	0.12433881312608719	0.0003419450076762587	0.15122081339359283	-0.3452296257019043	-0.16836127638816833	0.22682610154151917	-0.6340805888175964	0.8339100480079651	0.37239891290664673	0.055660173296928406	0.05627920851111412	1.1888138055801392	-1.5662648677825928	0.16861434280872345	0.24003908038139343	0.48293083906173706	0.11805407702922821	-0.39738523960113525	0.30619892477989197	1.2617607116699219	1.5000191926956177	-0.09147724509239197	0.3373757600784302	0.0643804669380188	-0.13186168670654297	0.10482252389192581	0.08781328797340393	0.09275078773498535	0.3172263503074646	0.34546926617622375	0.36704540252685547	0.05666613578796387	-0.45961737632751465	-0.05466733127832413	-0.1505240797996521	0.01201629638671875	-0.019913911819458008	0.11613517999649048	0.2903394401073456	0.07706061005592346	0.4656815826892853	-0.08490234613418579	0.07833912968635559	0.3771573305130005	-0.02721250057220459	0.023795105516910553	0.09037777781486511	-0.005112960934638977	-0.0006258487701416016	-0.03304481506347656
9	0.05732421576976776	0.12176433950662613	0.002365305321291089	0.15291623771190643	-0.343382328748703	-0.16214962303638458	0.23360617458820343	-0.6269497871398926	0.8348638415336609	0.36323949694633484	0.05455991253256798	0.05334091559052467	1.188998818397522	-1.5666086673736572	0.17079660296440125	0.24555855989456177	0.4843349754810333	0.12728279829025269	-0.3989420533180237	0.30759087204933167	1.268739938735962	1.4994237422943115	-0.09088556468486786	0.3390282392501831	0.06527146697044373	-0.12414287775754929	0.09806987643241882	0.08188262581825256	0.09172782301902771	0.3037489950656891	0.33201202750205994	0.3504142165184021	0.04408061504364014	-0.45443326234817505	-0.05491478368639946	-0.14343112707138062	0.011330842971801758	-0.01849830150604248	0.1028701663017273	0.2625100314617157	0.05941763520240784	0.45922771096229553	-0.0716283917427063	0.06207674741744995	0.32421350479125977	-0.03127455711364746	0.03585703670978546	0.076332688331604	-0.005266815423965454	-0.0003457069396972656	-0.03154464066028595
10	0.05864056944847107	0.11937309801578522	0.00426473980769515	0.15449611842632294	-0.3415605127811432	-0.15621131658554077	0.24010658264160156	-0.6200640201568604	0.8356732726097107	0.3542215824127197	0.05346358194947243	0.050541963428258896	1.1892670392990112	-1.5670047998428345	0.17272914946079254	0.25053948163986206	0.4853075444698334	0.13642318546772003	-0.4002503752708435	0.30868199467658997	1.2747292518615723	1.4987682104110718	-0.09004296362400055	0.34042906761169434	0.0661253035068512	-0.11584646999835968	0.09167560189962387	0.07686726748943329	0.09072050452232361	0.2901524305343628	0.31827017664909363	0.33711791038513184	0.03402829170227051	-0.44825002551078796	-0.054626911878585815	-0.13565802574157715	0.013253092765808105	-0.01946389675140381	0.0909615308046341	0.2385057508945465	0.04434064030647278	0.45385098457336426	-0.0601060688495636	0.04997923970222473	0.279390811920166	-0.03370046615600586	0.049091316759586334	0.06593093276023865	-0.006639212369918823	3.7997961044311523e-05	-0.029918178915977478
11	0.0599692277610302	0.11713048070669174	0.006032329518347979	0.15599092841148376	-0.33975350856781006	-0.15054352581501007	0.24633698165416718	-0.6134650707244873	0.8362249732017517	0.3453094959259033	0.052374836057424545	0.047914594411849976	1.1895289421081543	-1.5673872232437134	0.1744350641965866	0.25509878993034363	0.48610860109329224	0.1454368382692337	-0.4013462960720062	0.30959004163742065	1.2799155712127686	1.4980757236480713	-0.0889219120144844	0.34166547656059265	0.06669983267784119	-0.10910611599683762	0.08579382300376892	0.07248930633068085	0.09024813771247864	0.276743620634079	0.3048114478588104	0.32427459955215454	0.02270638942718506	-0.44430866837501526	-0.05411859601736069	-0.12649279832839966	0.010693073272705078	-0.018358230590820312	0.07998980581760406	0.22048130631446838	0.036078691482543945	0.4461899399757385	-0.05070120096206665	0.04118680953979492	0.2425462007522583	-0.0354081392288208	0.06277523934841156	0.05857348442077637	-0.008230656385421753	0.0001735985279083252	-0.026673078536987305
12	0.06130856275558472	0.11500885337591171	0.007696492597460747	0.15739569067955017	-0.33795058727264404	-0.1451415717601776	0.252299040555954	-0.6070930361747742	0.8365815281867981	0.3364492356777191	0.051298838108778	0.04548225179314613	1.1896947622299194	-1.5677391290664673	0.1759287416934967	0.2593587338924408	0.48675069212913513	0.15427078306674957	-0.40227842330932617	0.31032946705818176	1.2844310998916626	1.497351884841919	-0.08753195405006409	0.3427720069885254	0.06616441905498505	-0.10423529893159866	0.0798402950167656	0.0678129494190216	0.08936077356338501	0.2634469270706177	0.2917010188102722	0.315055251121521	0.014545023441314697	-0.43961480259895325	-0.053845811635255814	-0.1200101375579834	0.010764598846435547	-0.016242265701293945	0.06938539445400238	0.20168796181678772	0.029005855321884155	0.43965762853622437	-0.04301592707633972	0.03141239285469055	0.2110987901687622	-0.03668367862701416	0.07401779294013977	0.05162656307220459	-0.007674843072891235	-0.0002592802047729492	-0.023901835083961487
13	0.06261580437421799	0.1129610687494278	0.009225941263139248	0.15870344638824463	-0.33617907762527466	-0.14000564813613892	0.2580050230026245	-0.6008628606796265	0.8368067741394043	0.3277249038219452	0.05022100359201431	0.04311418905854225	1.1899595260620117	-1.5680369138717651	0.1772104799747467	0.26316630840301514	0.4872688353061676	0.16302314400672913	-0.4030669331550598	0.3108465373516083	1.288359522819519	1.4966083765029907	-0.08596120029687881	0.34373053908348083	0.06445758044719696	-0.10036230087280273	0.07468636333942413	0.06267130374908447	0.0874049961566925	0.25026649236679077	0.2798624336719513	0.3071695566177368	0.010307133197784424	-0.43248459696769714	-0.05350876599550247	-0.11731330305337906	0.013142824172973633	-0.015106797218322754	0.05983971059322357	0.17806142568588257	0.02114623785018921	0.43601542711257935	-0.03664270043373108	0.02014636993408203	0.18356144428253174	-0.037106871604919434	0.08096471428871155	0.04496723413467407	-0.00558122992515564	-0.0005483627319335938	-0.023660436272621155
14	0.0638868659734726	0.1109943613409996	0.010683947242796421	0.15990254282951355	-0.33445438742637634	-0.13513091206550598	0.26349353790283203	-0.5948062539100647	0.8369938135147095	0.31914985179901123	0.0491584874689579	0.04078971967101097	1.1902204751968384	-1.5683434009552002	0.17832233011722565	0.2664811909198761	0.4875965416431427	0.17171140015125275	-0.4037441313266754	0.31113532185554504	1.2917735576629639	1.4958676099777222	-0.08429336547851562	0.34457069635391235	0.06232503801584244	-0.0954633578658104	0.07153109461069107	0.05758106708526611	0.08509978652000427	0.23780576884746552	0.27038678526878357	0.2974659204483032	0.005255639553070068	-0.42646676301956177	-0.05243513733148575	-0.11388072371482849	0.01252889633178711	-0.01627802848815918	0.05250200629234314	0.15508010983467102	0.01453012228012085	0.4315066933631897	-0.03160983324050903	0.01033097505569458	0.15884339809417725	-0.036713480949401855	0.08441004902124405	0.0394575297832489	-0.004046782851219177	-0.00026673078536987305	-0.023996084928512573
15	0.06510880589485168	0.10914253443479538	0.012087184935808182	0.16100668907165527	-0.3327750861644745	-0.1304934173822403	0.26882049441337585	-0.5889642238616943	0.8370169997215271	0.3106662333011627	0.04812359809875488	0.0385589599609375	1.1904606819152832	-1.5686880350112915	0.17931056022644043	0.269369512796402	0.48785004019737244	0.18028341233730316	-0.4043313264846802	0.31125977635383606	1.2947132587432861	1.4951398372650146	-0.08258479833602905	0.3453088402748108	0.06008464843034744	-0.08872337639331818	0.06878585368394852	0.05333051085472107	0.0826425850391388	0.2256624400615692	0.26211515069007874	0.28862953186035156	-0.0031203031539916992	-0.4208110272884369	-0.0507931225001812	-0.10815402865409851	0.011789798736572266	-0.01836717128753662	0.04689358174800873	0.13655498623847961	0.01155659556388855	0.4271559417247772	-0.02721846103668213	0.0039130449295043945	0.13679862022399902	-0.03559291362762451	0.08499044924974442	0.03428459167480469	-0.0040881335735321045	4.0978193283081055e-05	-0.023202970623970032
16	0.06629025191068649	0.10744542628526688	0.013435381464660168	0.1620357632637024	-0.3311486840248108	-0.1261044144630432	0.2739781439304352	-0.5832610726356506	0.8368690013885498	0.30231741070747375	0.04712676256895065	0.03646355867385864	1.1906920671463013	-1.5690780878067017	0.180198073387146	0.2719433903694153	0.48805880546569824	0.18879763782024384	-0.4048328697681427	0.3112918436527252	1.2972455024719238	1.4944438934326172	-0.08089374750852585	0.34594208002090454	0.05865730345249176	-0.08185822516679764	0.06581319123506546	0.05024932324886322	0.07979869842529297	0.21507200598716736	0.2522379159927368	0.27982592582702637	-0.008074939250946045	-0.4159592092037201	-0.04878705367445946	-0.10065799951553345	0.011056661605834961	-0.01906454563140869	0.04212893545627594	0.12361034750938416	0.007004290819168091	0.42259061336517334	-0.02294480800628662	0.00020936131477355957	0.11859238147735596	-0.03416240215301514	0.08189119398593903	0.029149651527404785	-0.005211308598518372	0.0001519918441772461	-0.020992010831832886
17	0.06745509803295135	0.10586820542812347	0.014719712547957897	0.1630166620016098	-0.32958313822746277	-0.12189053744077682	0.2789100110530853	-0.5777711868286133	0.8366940021514893	0.2940278649330139	0.046172115951776505	0.034532640129327774	1.1909029483795166	-1.5694506168365479	0.18099571764469147	0.27431392669677734	0.48813021183013916	0.19718703627586365	-0.40524911880493164	0.311268150806427	1.2994569540023804	1.493773341178894	-0.07930915057659149	0.346474826335907	0.05770642310380936	-0.07694326341152191	0.06353023648262024	0.04802048206329346	0.07589682936668396	0.20759254693984985	0.24058669805526733	0.26725977659225464	-0.009196996688842773	-0.41314736008644104	-0.046895816922187805	-0.09291888773441315	0.009125471115112305	-0.01830756664276123	0.03767162561416626	0.11409670114517212	0.0009573996067047119	0.41626691818237305	-0.018833577632904053	-0.002271682024002075	0.10334551334381104	-0.03306865692138672	0.07504690438508987	0.02519264817237854	-0.006385520100593567	0.00016689300537109375	-0.018109381198883057
18	0.06859850883483887	0.104367695748806	0.015976591035723686	0.16395658254623413	-0.32811281085014343	-0.11780071258544922	0.2836016118526459	-0.5725706815719604	0.8365011215209961	0.2857915163040161	0.04525092989206314	0.032746803015470505	1.1910570859909058	-1.569810390472412	0.18170493841171265	0.27650725841522217	0.48809710144996643	0.20544831454753876	-0.40558621287345886	0.31120097637176514	1.3013793230056763	1.4931211471557617	-0.07789187133312225	0.3469497859477997	0.05645323544740677	-0.0739365816116333	0.06263072043657303	0.0457175076007843	0.07080808281898499	0.20224767923355103	0.22858604788780212	0.2509370446205139	-0.011464953422546387	-0.41035786271095276	-0.0453408807516098	-0.08611581474542618	0.006312131881713867	-0.017642974853515625	0.033354759216308594	0.10526180267333984	-0.0031009316444396973	0.4099007844924927	-0.015261024236679077	-0.0045396387577056885	0.08942186832427979	-0.032395124435424805	0.06684325635433197	0.02208501100540161	-0.006720051169395447	0.00022873282432556152	-0.015688687562942505
19	0.06971322745084763	0.10291074216365814	0.01722494140267372	0.16484536230564117	-0.32675081491470337	-0.11380062997341156	0.2880534529685974	-0.5677337050437927	0.8362354040145874	0.2776135504245758	0.04435848072171211	0.031088007614016533	1.1911554336547852	-1.5701563358306885	0.1823299080133438	0.27852439880371094	0.4880061745643616	0.2135830670595169	-0.4058595597743988	0.3110865652561188	1.3030338287353516	1.492477536201477	-0.07663542032241821	0.34735822677612305	0.05440115928649902	-0.07256381213665009	0.06249449402093887	0.04305317997932434	0.06529688835144043	0.19712448120117188	0.21737515926361084	0.23280978202819824	-0.0148087739944458	-0.4085175693035126	-0.04404271021485329	-0.08049332350492477	0.002211332321166992	-0.01704096794128418	0.029573217034339905	0.09621977806091309	-0.004153698682785034	0.40271133184432983	-0.01264810562133789	-0.007158517837524414	0.07685422897338867	-0.03248751163482666	0.059958361089229584	0.018565356731414795	-0.00604093074798584	0.00022873282432556152	-0.013369321823120117
20	0.07077455520629883	0.10146514326334	0.018476370722055435	0.1656787097454071	-0.3255009353160858	-0.10991573333740234	0.2922966182231903	-0.5632582902908325	0.8359087705612183	0.2694508135318756	0.04348922148346901	0.029527070000767708	1.1911455392837524	-1.5704920291900635	0.18288786709308624	0.2803560495376587	0.48793095350265503	0.22155676782131195	-0.4060921370983124	0.31091463565826416	1.3044534921646118	1.4918216466903687	-0.07549353688955307	0.3476924002170563	0.05257315933704376	-0.0718478113412857	0.06189863383769989	0.040572136640548706	0.06033405661582947	0.19177794456481934	0.20625218749046326	0.2150505781173706	-0.01693516969680786	-0.41018128395080566	-0.04275152459740639	-0.07468308508396149	-0.003299117088317871	-0.01589059829711914	0.025901570916175842	0.08910000324249268	-0.001214444637298584	0.3928624093532562	-0.010138750076293945	-0.00847652554512024	0.06646513938903809	-0.034105777740478516	0.0560518354177475	0.013659894466400146	-0.006506219506263733	0.000251084566116333	-0.01149401068687439
21	0.07181615382432938	0.10003682971000671	0.01970088668167591	0.16646824777126312	-0.3243374526500702	-0.10612951219081879	0.29630354046821594	-0.5591316819190979	0.8355579972267151	0.2612062990665436	0.04264841973781586	0.02810068428516388	1.1910234689712524	-1.5707919597625732	0.18336597084999084	0.28208839893341064	0.48795759677886963	0.22929756343364716	-0.40626510977745056	0.31074750423431396	1.305692434310913	1.491113305091858	-0.07439334690570831	0.34790462255477905	0.05393102765083313	-0.06723050028085709	0.06007924675941467	0.039415061473846436	0.054861605167388916	0.18568205833435059	0.1964077353477478	0.19957423210144043	-0.011713802814483643	-0.40684640407562256	-0.03985809162259102	-0.06642895936965942	-0.0069648027420043945	-0.013169646263122559	0.022285431623458862	0.08686408400535583	-0.0017121434211730957	0.3856070339679718	-0.0069551169872283936	-0.006952881813049316	0.059285759925842285	-0.036898255348205566	0.05419757217168808	0.008215010166168213	-0.008641555905342102	0.00013262033462524414	-0.012295320630073547
22	0.07293179631233215	0.09877592325210571	0.020879540592432022	0.16725531220436096	-0.32330647110939026	-0.1024884507060051	0.3001529276371002	-0.5552753210067749	0.8354402184486389	0.2531769573688507	0.04189489781856537	0.026869911700487137	1.1908669471740723	-1.5710188150405884	0.1837792843580246	0.2838306128978729	0.4878624677658081	0.23698104918003082	-0.4063703417778015	0.3106365203857422	1.3068249225616455	1.4903457164764404	-0.07332563400268555	0.348021000623703	0.055854953825473785	-0.059831514954566956	0.059391699731349945	0.03890879452228546	0.04769042134284973	0.17996057868003845	0.18876343965530396	0.18311887979507446	-0.004455447196960449	-0.3977961838245392	-0.03614276647567749	-0.05656685680150986	-0.008031725883483887	-0.012895464897155762	0.02047792077064514	0.0873170793056488	-0.005368143320083618	0.3792155385017395	-0.005053728818893433	-0.0034436583518981934	0.05506575107574463	-0.03956258296966553	0.05440711975097656	0.004132091999053955	-0.009172037243843079	0.00013709068298339844	-0.012229755520820618
23	0.07405035197734833	0.09764356911182404	0.022076554596424103	0.16802459955215454	-0.3224298357963562	-0.09893108904361725	0.3038540780544281	-0.5518069267272949	0.8353797793388367	0.245294451713562	0.04120270907878876	0.025838010013103485	1.190702199935913	-1.5713077783584595	0.18418508768081665	0.2855810821056366	0.4877428710460663	0.24446618556976318	-0.4064672589302063	0.31060975790023804	1.3078950643539429	1.4895308017730713	-0.07221706211566925	0.3480699062347412	0.05591679364442825	-0.05622580647468567	0.05967952311038971	0.037488341331481934	0.040646642446517944	0.17578229308128357	0.1810304820537567	0.16209185123443604	-0.00499337911605835	-0.3886498510837555	-0.03356756642460823	-0.04776693135499954	-0.011920928955078125	-0.014790892601013184	0.020256638526916504	0.08589625358581543	-0.008249282836914062	0.3721427321434021	-0.005691498517990112	-0.002713501453399658	0.05352497100830078	-0.04208981990814209	0.06322283297777176	0.0016584992408752441	-0.006098300218582153	0.0005640089511871338	-0.008352845907211304
24	0.07516846805810928	0.09652689099311829	0.02326672151684761	0.16875484585762024	-0.32168060541152954	-0.09545715898275375	0.3073941469192505	-0.5487916469573975	0.8352404832839966	0.2376309633255005	0.04055219516158104	0.02495923452079296	1.1903901100158691	-1.571610450744629	0.18458954989910126	0.28726646304130554	0.48753249645233154	0.25186675786972046	-0.4065980017185211	0.3105279803276062	1.3089659214019775	1.4886621236801147	-0.07079672068357468	0.348087340593338	0.05442574620246887	-0.05696490406990051	0.058384425938129425	0.03577694296836853	0.03487244248390198	0.17105340957641602	0.17462074756622314	0.140245258808136	-0.0112876296043396	-0.3754079341888428	-0.03247326239943504	-0.042584024369716644	-0.018534064292907715	-0.012770295143127441	0.01951642334461212	0.078602135181427	-0.01295730471611023	0.37101060152053833	-0.007569044828414917	-0.006057322025299072	0.05398094654083252	-0.04444420337677002	0.08231811225414276	0.0008814036846160889	-0.002023950219154358	0.0006593763828277588	-0.005885213613510132
25	0.07622738182544708	0.09536497294902802	0.02441193163394928	0.16945567727088928	-0.3210349380970001	-0.09208895266056061	0.310838907957077	-0.5461971163749695	0.8349282741546631	0.2302781343460083	0.039903778582811356	0.024134648963809013	1.1899608373641968	-1.5718185901641846	0.18496574461460114	0.2887251675128937	0.4872245788574219	0.2593066096305847	-0.4067700207233429	0.3103674650192261	1.3100543022155762	1.4877530336380005	-0.06892433762550354	0.34810516238212585	0.051063112914562225	-0.05763396620750427	0.05895509570837021	0.033639371395111084	0.030311942100524902	0.16367080807685852	0.16950368881225586	0.12564361095428467	-0.017467141151428223	-0.3644585609436035	-0.03273002803325653	-0.040390387177467346	-0.0241696834564209	-0.01379549503326416	0.017198920249938965	0.06818920373916626	-0.020334869623184204	0.370972603559494	-0.009635835886001587	-0.0085487961769104	0.05421936511993408	-0.04467964172363281	0.10284930467605591	0.0013530254364013672	-0.0006511807441711426	0.00037997961044311523	-0.005972385406494141
26	0.07721099257469177	0.09422153234481812	0.025624925270676613	0.17010042071342468	-0.32046812772750854	-0.08891032636165619	0.3141742944717407	-0.5437659025192261	0.8345417976379395	0.22305262088775635	0.03924299404025078	0.02334361895918846	1.1894233226776123	-1.5721622705459595	0.18527750670909882	0.2899940311908722	0.4867191016674042	0.2667056620121002	-0.4069834351539612	0.3101860284805298	1.311134696006775	1.4868749380111694	-0.06668274849653244	0.34814146161079407	0.04788357764482498	-0.05656145513057709	0.05843783915042877	0.031575560569763184	0.028245151042938232	0.15398263931274414	0.16414299607276917	0.11821389198303223	-0.019402801990509033	-0.35843437910079956	-0.033038947731256485	-0.03766673803329468	-0.026744604110717773	-0.016680359840393066	0.01411736011505127	0.06053149700164795	-0.02967938780784607	0.3692738711833954	-0.011770427227020264	-0.008488446474075317	0.05574822425842285	-0.04239678382873535	0.11866483837366104	0.0018842518329620361	-0.0006213784217834473	5.1409006118774414e-05	-0.005892664194107056
27	0.07814272493124008	0.09310251474380493	0.026749445125460625	0.1707186996936798	-0.3199051320552826	-0.08592964708805084	0.3174046277999878	-0.5414685606956482	0.8341521620750427	0.21594075858592987	0.038582220673561096	0.022627979516983032	1.188891053199768	-1.5724858045578003	0.18553043901920319	0.2911464273929596	0.48603740334510803	0.27407756447792053	-0.4072408378124237	0.31002792716026306	1.312284231185913	1.486057162284851	-0.0641777440905571	0.34818053245544434	0.04582889378070831	-0.055683404207229614	0.05368562415242195	0.030560418963432312	0.028261542320251465	0.14435407519340515	0.15896186232566833	0.11159628629684448	-0.01941770315170288	-0.3528949022293091	-0.032651424407958984	-0.03362931311130524	-0.023856759071350098	-0.013774633407592773	0.011705979704856873	0.05483254790306091	-0.03908202052116394	0.36589279770851135	-0.01424252986907959	-0.008133798837661743	0.0629723072052002	-0.039765238761901855	0.1293536275625229	0.0016808509826660156	-3.8370490074157715e-05	-0.000295788049697876	-0.005412474274635315
28	0.0790441483259201	0.09199419617652893	0.02777235023677349	0.17132283747196198	-0.3193376660346985	-0.0831361636519432	0.32053276896476746	-0.5393020510673523	0.8337650895118713	0.20893682539463043	0.03793693706393242	0.021998446434736252	1.1884690523147583	-1.5727132558822632	0.1857457458972931	0.29218733310699463	0.4851558208465576	0.2813413739204407	-0.40755313634872437	0.3098606765270233	1.313653588294983	1.4852843284606934	-0.061508603394031525	0.3482086956501007	0.04417151212692261	-0.055143050849437714	0.050516240298748016	0.02932921051979065	0.028029829263687134	0.13609528541564941	0.15342310070991516	0.10508149862289429	-0.016987323760986328	-0.3479890525341034	-0.03168350085616112	-0.029703835025429726	-0.02022385597229004	-0.011363625526428223	0.010259822010993958	0.04878342151641846	-0.053235143423080444	0.35995692014694214	-0.01690015196800232	-0.00977739691734314	0.0737220048904419	-0.03713071346282959	0.1329050362110138	0.0010289251804351807	0.0007249414920806885	-0.000651925802230835	-0.004473328590393066
29	0.07990958541631699	0.09089679270982742	0.028770094737410545	0.17189186811447144	-0.3187839388847351	-0.08048583567142487	0.3235415518283844	-0.5372653007507324	0.8334726691246033	0.20202119648456573	0.03731488063931465	0.021439826115965843	1.1880820989608765	-1.5729403495788574	0.18594083189964294	0.29309776425361633	0.4839079976081848	0.2884758412837982	-0.4079168438911438	0.30963683128356934	1.3152331113815308	1.484571933746338	-0.058861542493104935	0.34822168946266174	0.04210714250802994	-0.05463603883981705	0.04950254410505295	0.027653202414512634	0.027269870042800903	0.12791621685028076	0.14766603708267212	0.09973794221878052	-0.015889108180999756	-0.34286603331565857	-0.030473992228507996	-0.026319362223148346	-0.021836161613464355	-0.013214349746704102	0.009420886635780334	0.042466819286346436	-0.06348341703414917	0.3537006676197052	-0.019854307174682617	-0.012868642807006836	0.07962286472320557	-0.03553032875061035	0.12910571694374084	-0.0014953315258026123	0.001484900712966919	-0.001154094934463501	-0.003346055746078491
30	0.0807284340262413	0.08980875462293625	0.029752451926469803	0.17242896556854248	-0.31824687123298645	-0.07801951467990875	0.32643941044807434	-0.5353125333786011	0.8331295251846313	0.1952221840620041	0.0367179773747921	0.020945671945810318	1.1875956058502197	-1.5732418298721313	0.1861225813627243	0.2938860058784485	0.48261648416519165	0.2954894006252289	-0.40834730863571167	0.30934593081474304	1.3168385028839111	1.483863115310669	-0.056344375014305115	0.3481488823890686	0.040368176996707916	-0.05386006087064743	0.04818988963961601	0.02611316740512848	0.026898831129074097	0.11921394616365433	0.14167726039886475	0.09594559669494629	-0.017617642879486084	-0.33829396963119507	-0.028936471790075302	-0.022925110533833504	-0.023677945137023926	-0.016322731971740723	0.008792802691459656	0.036541372537612915	-0.05850791931152344	0.34584105014801025	-0.02294778823852539	-0.01620277762413025	0.0776529312133789	-0.03663301467895508	0.11898912489414215	-0.0034697353839874268	0.00191517174243927	-0.0015400350093841553	-0.0029418617486953735
31	0.0815243124961853	0.08874239027500153	0.030697690322995186	0.17293639481067657	-0.31770798563957214	-0.07571727782487869	0.329208642244339	-0.5334274768829346	0.8327679634094238	0.18848943710327148	0.03615742176771164	0.020522821694612503	1.1871349811553955	-1.573593258857727	0.18629254400730133	0.29455941915512085	0.4815676808357239	0.30230948328971863	-0.4088347554206848	0.3089887201786041	1.318339228630066	1.4831066131591797	-0.05410197749733925	0.34808290004730225	0.03948081284761429	-0.05285646766424179	0.04620710387825966	0.024870410561561584	0.027039647102355957	0.11101458221673965	0.13528317213058472	0.09319484233856201	-0.01837611198425293	-0.3326382637023926	-0.026969239115715027	-0.019927136600017548	-0.022724270820617676	-0.017368793487548828	0.008007511496543884	0.030341744422912598	-0.04293471574783325	0.3379315137863159	-0.02529546618461609	-0.019625574350357056	0.07052719593048096	-0.038743019104003906	0.10413005948066711	-0.003596395254135132	0.0019781291484832764	-0.001586228609085083	-0.003355368971824646
32	0.08230766654014587	0.08769449591636658	0.03160073608160019	0.17342378199100494	-0.3171652853488922	-0.07357893139123917	0.33185073733329773	-0.5315847396850586	0.8323944807052612	0.18191665410995483	0.0356392078101635	0.020148586481809616	1.186686635017395	-1.5739365816116333	0.18644288182258606	0.295099675655365	0.4808990955352783	0.3090066611766815	-0.4093591272830963	0.30856090784072876	1.3196595907211304	1.4823133945465088	-0.05217917263507843	0.3480050265789032	0.03843456506729126	-0.05145464092493057	0.04434189945459366	0.024276599287986755	0.02713724970817566	0.10337196290493011	0.13027191162109375	0.09189844131469727	-0.01735985279083252	-0.325997918844223	-0.025044195353984833	-0.01724851317703724	-0.020900368690490723	-0.01799464225769043	0.007238239049911499	0.024516135454177856	-0.0254899263381958	0.3304213285446167	-0.02720579504966736	-0.02297535538673401	0.06121695041656494	-0.03991425037384033	0.08818013966083527	-0.003419816493988037	0.001813843846321106	-0.0014886260032653809	-0.0034064054489135742
33	0.08306169509887695	0.0866842046380043	0.032471366226673126	0.17390745878219604	-0.3166224956512451	-0.07158239930868149	0.33441951870918274	-0.5297515392303467	0.8320735692977905	0.17544952034950256	0.035155653953552246	0.019832881167531013	1.1862989664077759	-1.5743130445480347	0.1865820735692978	0.29554006457328796	0.48054808378219604	0.3155263364315033	-0.4099229872226715	0.30806970596313477	1.3207879066467285	1.481510043144226	-0.05057477205991745	0.3479461073875427	0.03728792071342468	-0.04976727068424225	0.04152720794081688	0.024468451738357544	0.02725645899772644	0.09490810334682465	0.1274019479751587	0.09085386991500854	-0.013171136379241943	-0.31945034861564636	-0.023344438523054123	-0.014391960576176643	-0.01767277717590332	-0.016960501670837402	0.0067565590143203735	0.01997128129005432	-0.009751319885253906	0.32219141721725464	-0.029603391885757446	-0.025425106287002563	0.05211532115936279	-0.040334463119506836	0.07238686084747314	-0.0011801719665527344	0.0015392899513244629	-0.0014513731002807617	-0.0033814460039138794
34	0.08379918336868286	0.08570380508899689	0.033261824399232864	0.17440252006053925	-0.31607502698898315	-0.06978260725736618	0.3369468152523041	-0.5279505848884583	0.8318676352500916	0.16913864016532898	0.03470543026924133	0.01957290805876255	1.1859797239303589	-1.5746150016784668	0.18671314418315887	0.29589852690696716	0.48050904273986816	0.3218943178653717	-0.4105432629585266	0.30754390358924866	1.3217442035675049	1.4807000160217285	-0.049283698201179504	0.3479578197002411	0.03642421215772629	-0.047579407691955566	0.03785984590649605	0.024782493710517883	0.027751922607421875	0.08754003793001175	0.12428984045982361	0.09008795022964478	-0.005601346492767334	-0.31359121203422546	-0.021935254335403442	-0.01157582737505436	-0.01329183578491211	-0.015506148338317871	0.006339326500892639	0.015418976545333862	0.0034980475902557373	0.3122985363006592	-0.03259032964706421	-0.02728477120399475	0.043776631355285645	-0.04048943519592285	0.05838340148329735	0.0016041100025177002	0.0014103949069976807	-0.0015057623386383057	-0.004176422953605652
35	0.084518663585186	0.08478102833032608	0.03398576006293297	0.17489875853061676	-0.31551241874694824	-0.06808079779148102	0.3393911123275757	-0.5261480212211609	0.8318495154380798	0.16290587186813354	0.03427824378013611	0.01936984807252884	1.1857672929763794	-1.5749332904815674	0.1868356466293335	0.2961568236351013	0.4806880056858063	0.32801827788352966	-0.4112266004085541	0.306978315114975	1.32253897190094	1.4798904657363892	-0.048239436000585556	0.34801027178764343	0.0354597344994545	-0.04597324877977371	0.03416137769818306	0.024247169494628906	0.029946118593215942	0.08389092981815338	0.11842921376228333	0.09077340364456177	0.0018581748008728027	-0.3087162971496582	-0.020873267203569412	-0.009558489546179771	-0.009566545486450195	-0.013881921768188477	0.006119534373283386	0.008572638034820557	0.012468546628952026	0.3018580377101898	-0.03472417593002319	-0.030281394720077515	0.034806132316589355	-0.03982186317443848	0.043016206473112106	0.002514570951461792	0.0015955418348312378	-0.0011906027793884277	-0.004770606756210327
36	0.08521757274866104	0.08386487513780594	0.03462827950716019	0.1753724068403244	-0.3148771822452545	-0.06642697006464005	0.3416839838027954	-0.5243196487426758	0.8319419622421265	0.15678998827934265	0.033870499581098557	0.01919056847691536	1.1855970621109009	-1.5751702785491943	0.1869579255580902	0.29624143242836	0.48100778460502625	0.3339686393737793	-0.41193222999572754	0.30633264780044556	1.3231364488601685	1.479107141494751	-0.04756304994225502	0.34805840253829956	0.03464687615633011	-0.04573259502649307	0.03121914342045784	0.023071467876434326	0.03357455134391785	0.08114203810691833	0.11126101016998291	0.09243488311767578	0.004951655864715576	-0.3037106394767761	-0.01983465626835823	-0.007905997335910797	-0.008067488670349121	-0.014722347259521484	0.00594407320022583	0.0014290213584899902	0.01654103398323059	0.2931423485279083	-0.035052746534347534	-0.03497973084449768	0.02505779266357422	-0.038686394691467285	0.026940181851387024	0.0027492642402648926	0.0012449920177459717	-0.0006794929504394531	-0.00394769012928009
37	0.08590453863143921	0.08295172452926636	0.03523452579975128	0.17582161724567413	-0.31416943669319153	-0.06483511626720428	0.343841552734375	-0.5224506258964539	0.8320475816726685	0.15075744688510895	0.03348485752940178	0.019053608179092407	1.1854445934295654	-1.5755221843719482	0.18707340955734253	0.2962139844894409	0.4813496470451355	0.339743971824646	-0.412628710269928	0.30557912588119507	1.323541283607483	1.4783430099487305	-0.047161828726530075	0.34812024235725403	0.034367479383945465	-0.04495084285736084	0.028942804783582687	0.02249404788017273	0.03613010048866272	0.07812008261680603	0.10434165596961975	0.09407401084899902	0.006926059722900391	-0.3006786108016968	-0.018631666898727417	-0.005579134449362755	-0.005161762237548828	-0.01767277717590332	0.005627050995826721	-0.003156810998916626	0.015229731798171997	0.28467029333114624	-0.033980607986450195	-0.04068911075592041	0.01753866672515869	-0.03827810287475586	0.01591695472598076	0.005004554986953735	0.00015944242477416992	-0.0004388391971588135	-0.0023789703845977783
38	0.08659227192401886	0.0820668414235115	0.035785991698503494	0.1762721687555313	-0.313431978225708	-0.0633021667599678	0.3458576500415802	-0.5205566883087158	0.8322190046310425	0.14476284384727478	0.03312523290514946	0.01896740309894085	1.185390591621399	-1.5758771896362305	0.18718300759792328	0.2961151599884033	0.4816169738769531	0.34535545110702515	-0.41329145431518555	0.30470508337020874	1.3238379955291748	1.4775760173797607	-0.04692637175321579	0.3482585847377777	0.034929439425468445	-0.042764656245708466	0.026698224246501923	0.022603198885917664	0.036988407373428345	0.07577259093523026	0.0971481204032898	0.09505301713943481	0.010961294174194336	-0.29628241062164307	-0.017031840980052948	-0.0029223505407571793	-0.0018715858459472656	-0.016430020332336426	0.0054854899644851685	-0.005869567394256592	0.012531876564025879	0.2777218818664551	-0.03205612301826477	-0.046578049659729004	0.013840198516845703	-0.038298964500427246	0.010272301733493805	0.008068978786468506	-0.0012330710887908936	-0.0003457069396972656	-0.0016782432794570923
39	0.08730171620845795	0.08124113827943802	0.03630245476961136	0.17672574520111084	-0.3126899003982544	-0.061804212629795074	0.3477274775505066	-0.5186485052108765	0.8324860334396362	0.13890615105628967	0.03280358389019966	0.01893671415746212	1.1853697299957275	-1.5761793851852417	0.18729282915592194	0.29597920179367065	0.48185092210769653	0.3508528470993042	-0.41391095519065857	0.3037160038948059	1.3240948915481567	1.4768110513687134	-0.04675093665719032	0.34844300150871277	0.036487169563770294	-0.03848206251859665	0.02448977902531624	0.023351609706878662	0.0365138053894043	0.0743946060538292	0.09095370769500732	0.09518563747406006	0.014773011207580566	-0.2890646457672119	-0.01481473445892334	0.0004391651600599289	-0.002759695053100586	-0.012376904487609863	0.005667656660079956	-0.006572902202606201	0.009038299322128296	0.2715654671192169	-0.030039995908737183	-0.05054697394371033	0.010955333709716797	-0.037544965744018555	0.010057725012302399	0.009059906005859375	-0.0031363219022750854	-0.0004172325134277344	-0.0022333115339279175
40	0.08805175870656967	0.08052755892276764	0.036765582859516144	0.17720623314380646	-0.31197142601013184	-0.060326382517814636	0.3494957983493805	-0.5167492628097534	0.8328099250793457	0.1332002580165863	0.032532643526792526	0.018984969705343246	1.185280203819275	-1.5763722658157349	0.18740971386432648	0.2958522439002991	0.48197850584983826	0.3562180697917938	-0.41449305415153503	0.3026832044124603	1.3242762088775635	1.47607421875	-0.046524062752723694	0.3486209809780121	0.03875531256198883	-0.03188718110322952	0.021955184638500214	0.025064870715141296	0.034436583518981934	0.07404042780399323	0.08660480380058289	0.09455978870391846	0.016592442989349365	-0.28137826919555664	-0.012200791388750076	0.004353001713752747	-0.0005841255187988281	-0.009566545486450195	0.006468221545219421	-0.005482882261276245	0.0006601214408874512	0.26386454701423645	-0.02865716814994812	-0.0513128936290741	0.008094310760498047	-0.035956501960754395	0.010676868259906769	0.006903707981109619	-0.005060061812400818	-0.0008061528205871582	-0.00336281955242157
41	0.0888519287109375	0.07996565103530884	0.03718066215515137	0.1777283400297165	-0.3113124370574951	-0.05884259566664696	0.3511916697025299	-0.5148661136627197	0.8331497311592102	0.12765102088451385	0.03231555223464966	0.01911083422601223	1.1853463649749756	-1.5765620470046997	0.1875515580177307	0.2957598865032196	0.48187732696533203	0.36140742897987366	-0.4150572419166565	0.30166348814964294	1.3244186639785767	1.4753727912902832	-0.04632386192679405	0.34871914982795715	0.04332028329372406	-0.02227034419775009	0.020300038158893585	0.026758015155792236	0.030863285064697266	0.07376279681921005	0.0840902328491211	0.09290724992752075	0.013819336891174316	-0.27137064933776855	-0.008139479905366898	0.008934922516345978	0.010222196578979492	-0.008493661880493164	0.008790940046310425	-0.0029318034648895264	-0.014532357454299927	0.2570025622844696	-0.028280168771743774	-0.050242990255355835	0.008225440979003906	-0.034627318382263184	0.009328033775091171	0.0021904706954956055	-0.006137415766716003	-0.0012859702110290527	-0.006417185068130493
42	0.08978457003831863	0.07963674515485764	0.03757758438587189	0.17827655375003815	-0.31073689460754395	-0.057375870645046234	0.35285940766334534	-0.5130329728126526	0.8333626985549927	0.12234543263912201	0.03220706433057785	0.019342366605997086	1.185689091682434	-1.5767120122909546	0.1877613514661789	0.2957349717617035	0.48139721155166626	0.3664981722831726	-0.4156242609024048	0.3006734848022461	1.3246052265167236	1.4746891260147095	-0.04615094140172005	0.3487085998058319	0.05042515695095062	-0.011523626744747162	0.020011328160762787	0.0279303640127182	0.026339292526245117	0.07421961426734924	0.08135512471199036	0.08815079927444458	0.0012725591659545898	-0.2596462070941925	-0.0028833746910095215	0.013317679986357689	0.019913911819458008	-0.003534555435180664	0.013265013694763184	-0.0005990266799926758	-0.0325225293636322	0.2480827271938324	-0.02909228205680847	-0.04881024360656738	0.011941790580749512	-0.03400146961212158	0.008927565068006516	-0.0038988888263702393	-0.005821511149406433	-0.0016093254089355469	-0.008147582411766052
43	0.09086893498897552	0.07950470596551895	0.03798111528158188	0.17884555459022522	-0.3102588653564453	-0.0558738112449646	0.3544458746910095	-0.5113400816917419	0.8332006335258484	0.11726517230272293	0.03220021724700928	0.019643541425466537	1.186142921447754	-1.576703429222107	0.18808215856552124	0.2957359254360199	0.48057642579078674	0.37133073806762695	-0.41622093319892883	0.29971107840538025	1.3248963356018066	1.4740127325057983	-0.04596675932407379	0.34856319427490234	0.0534670427441597	-0.005709566175937653	0.021235737949609756	0.028117746114730835	0.022195279598236084	0.07497435808181763	0.07846131920814514	0.08018165826797485	-0.019444525241851807	-0.24886858463287354	-0.0006321817636489868	0.014733010903000832	0.02046525478363037	-0.0018149614334106445	0.017853453755378723	-0.0004202127456665039	-0.04417002201080322	0.2366982400417328	-0.0309869647026062	-0.046128034591674805	0.016033649444580078	-0.03477334976196289	0.009683426469564438	-0.008483976125717163	-0.005212798714637756	-0.0017292797565460205	-0.004135444760322571
44	0.09192325174808502	0.07940836250782013	0.03842701390385628	0.17940126359462738	-0.3098490834236145	-0.05437689647078514	0.35599786043167114	-0.5098257064819336	0.8325849175453186	0.11239068955183029	0.03218177706003189	0.01993168704211712	1.1865077018737793	-1.576784610748291	0.18847548961639404	0.29571816325187683	0.47963041067123413	0.3759661018848419	-0.41686373949050903	0.2988283634185791	1.3252465724945068	1.473298192024231	-0.04576360434293747	0.3483692407608032	0.05070790648460388	-0.0052092596888542175	0.023298896849155426	0.027257204055786133	0.01960769295692444	0.07409676909446716	0.07768869400024414	0.07129311561584473	-0.0395849347114563	-0.24047493934631348	-0.0026067718863487244	0.01308787614107132	0.014010071754455566	-0.005266070365905762	0.019755586981773376	-0.002758204936981201	-0.04908069968223572	0.22821873426437378	-0.03211945295333862	-0.04166066646575928	0.01004636287689209	-0.03574490547180176	0.009500421583652496	-0.009720772504806519	-0.005392357707023621	-0.0013321638107299805	0.00025331974029541016
45	0.09289725124835968	0.07929633557796478	0.038913071155548096	0.17993584275245667	-0.30947455763816833	-0.05290994048118591	0.3575534224510193	-0.5084883570671082	0.8316172361373901	0.10764617472887039	0.03209594637155533	0.02016705647110939	1.1867033243179321	-1.5769140720367432	0.18887238204479218	0.29562559723854065	0.4786131978034973	0.3804594874382019	-0.4175057113170624	0.2980446517467499	1.3252981901168823	1.4725829362869263	-0.04558674246072769	0.3481743633747101	0.04535522311925888	-0.007420778274536133	0.02542426809668541	0.026289746165275574	0.01813843846321106	0.07251612842082977	0.07787421345710754	0.06250888109207153	-0.05301237106323242	-0.23520812392234802	-0.006721634417772293	0.010671792551875114	0.0035703182220458984	-0.0068187713623046875	0.018985942006111145	-0.004550814628601074	-0.051449984312057495	0.22220835089683533	-0.031635165214538574	-0.03524124622344971	-0.018671154975891113	-0.03394186496734619	0.010241195559501648	-0.00935867428779602	-0.006918981671333313	-0.0008314847946166992	0.003598257899284363
46	0.09373746067285538	0.07911153137683868	0.039443984627723694	0.1804528534412384	-0.30912354588508606	-0.05147625133395195	0.35911282896995544	-0.5073253512382507	0.8304644227027893	0.10298236459493637	0.031912911683321	0.020358558744192123	1.1866505146026611	-1.5770573616027832	0.1892349272966385	0.2955361306667328	0.47757241129875183	0.38485443592071533	-0.4181291460990906	0.2974187135696411	1.3244997262954712	1.471940517425537	-0.045353956520557404	0.3479948937892914	0.03769826143980026	-0.0128990039229393	0.027376320213079453	0.02560056746006012	0.016604363918304443	0.0734599307179451	0.07713586091995239	0.051155686378479004	-0.04776716232299805	-0.23789778351783752	-0.011522229760885239	0.008787121623754501	-0.013929605484008789	-0.008699297904968262	0.016890093684196472	-0.0028401613235473633	-0.05746036767959595	0.21576136350631714	-0.030690431594848633	-0.026601552963256836	-0.07613897323608398	-0.029531121253967285	0.016091298311948776	-0.008654594421386719	-0.008935853838920593	-0.0009052455425262451	0.008387491106987
47	0.09440518170595169	0.07878037542104721	0.040008123964071274	0.18095986545085907	-0.30881038308143616	-0.04997154325246811	0.3606388568878174	-0.506442129611969	0.8297065496444702	0.09813026338815689	0.03163505718111992	0.02051854133605957	1.1861461400985718	-1.577262043952942	0.18954798579216003	0.29551199078559875	0.4763147830963135	0.3890899419784546	-0.4187333285808563	0.2969805896282196	1.322252631187439	1.4714016914367676	-0.04494309052824974	0.3478281795978546	0.03283694386482239	-0.016107596457004547	0.027816183865070343	0.025032460689544678	0.01453012228012085	0.07765907794237137	0.07521212100982666	0.03819167613983154	-0.027211010456085205	-0.24384409189224243	-0.014108605682849884	0.00790380872786045	-0.0452578067779541	-0.005367398262023926	0.015174224972724915	-0.0016257166862487793	-0.07479488849639893	0.21369382739067078	-0.029528886079788208	-0.019582360982894897	-0.17052292823791504	-0.02391040325164795	0.022019632160663605	-0.007121264934539795	-0.009034574031829834	-0.0011578202247619629	0.007547438144683838
48	0.09505093842744827	0.0784672275185585	0.04055663198232651	0.1814541518688202	-0.3085423409938812	-0.048369888216257095	0.3621213138103485	-0.5057976841926575	0.8293759822845459	0.09322860091924667	0.031348567456007004	0.02067471109330654	1.184840202331543	-1.5772720575332642	0.18984189629554749	0.29547110199928284	0.4745806157588959	0.39340218901634216	-0.4193103015422821	0.2966354191303253	1.3176788091659546	1.4709841012954712	-0.04447317123413086	0.3477100431919098	0.03637280315160751	-0.009754672646522522	0.0284452922642231	0.024264678359031677	0.012151151895523071	0.08373083174228668	0.07241740822792053	0.029322504997253418	0.00031888484954833984	-0.24185609817504883	-0.012165261432528496	0.009826011955738068	-0.08421242237091064	0.0026434659957885742	0.01549646258354187	-0.0013947486877441406	-0.12143775820732117	0.22225603461265564	-0.027509033679962158	-0.016272813081741333	-0.32084882259368896	-0.017699599266052246	0.026658829301595688	-0.004501640796661377	-0.008285045623779297	-0.0008940696716308594	-0.0002823770046234131
49	0.09586009383201599	0.07839018851518631	0.0411459356546402	0.18193045258522034	-0.30832433700561523	-0.04662230983376503	0.3635355532169342	-0.5052692294120789	0.8297193050384521	0.08845601975917816	0.03114844672381878	0.020911581814289093	1.1827776432037354	-1.5771563053131104	0.1901678442955017	0.295456200838089	0.47145727276802063	0.3979801833629608	-0.4198336899280548	0.29632967710494995	1.3094186782836914	1.4706937074661255	-0.04387673735618591	0.34764811396598816	0.04467461258172989	0.0017255544662475586	0.031070690602064133	0.023106858134269714	0.009816139936447144	0.0893917828798294	0.06810352206230164	0.02547353506088257	0.01182258129119873	-0.24020783603191376	-0.008204486221075058	0.013227434828877449	-0.10942816734313965	0.0038743019104003906	0.016923248767852783	5.21540641784668e-05	-0.18117427825927734	0.23393630981445312	-0.024881213903427124	-0.014385581016540527	-0.5135208368301392	-0.012943148612976074	0.023470353335142136	-0.0053532421588897705	-0.007965415716171265	-0.00034049153327941895	-0.005487352609634399
50	0.09683792293071747	0.0785362496972084	0.04179945960640907	0.18237842619419098	-0.30814969539642334	-0.04479421675205231	0.3648454546928406	-0.5047787427902222	0.8298488855361938	0.08362028747797012	0.031020388007164	0.02120380848646164	1.1804630756378174	-1.5771170854568481	0.1905188262462616	0.29547318816185	0.4673336446285248	0.4027596414089203	-0.4203055500984192	0.2960599958896637	1.297137975692749	1.4704663753509521	-0.043534357100725174	0.3474959135055542	0.05027893930673599	0.0092359259724617	0.029457174241542816	0.022049620747566223	0.009547173976898193	0.08935611695051193	0.0644385814666748	0.024014711380004883	-0.011786818504333496	-0.24622417986392975	-0.006804428994655609	0.014052493497729301	-0.12183785438537598	0.0031441450119018555	0.01715943217277527	0.0005960464477539062	-0.23265108466148376	0.24112313985824585	-0.022471696138381958	-0.012529641389846802	-0.7111966609954834	-0.013089179992675781	-0.0018236227333545685	-0.01530870795249939	-0.006590783596038818	-0.00011771917343139648	-0.0035729259252548218
51	0.09787125140428543	0.07875962555408478	0.04232422262430191	0.18281243741512299	-0.3079424500465393	-0.04304806515574455	0.3661130964756012	-0.5043086409568787	0.8292478322982788	0.07860705256462097	0.030876269564032555	0.021473681554198265	1.1779041290283203	-1.5770305395126343	0.19085422158241272	0.29548004269599915	0.4621512293815613	0.40762510895729065	-0.4207325577735901	0.2958284914493561	1.280970811843872	1.4701701402664185	-0.043949682265520096	0.3470357656478882	0.051200948655605316	0.011618994176387787	0.026876945048570633	0.020479783415794373	0.010817497968673706	0.08616083860397339	0.0625714659690857	0.02233833074569702	-0.03421902656555176	-0.25182104110717773	-0.00888332724571228	0.01187976449728012	-0.1471012830734253	0.004673004150390625	0.01586899161338806	-0.00043138861656188965	-0.3062210977077484	0.2517290413379669	-0.020622462034225464	-0.010531395673751831	-0.9148776531219482	-0.024121999740600586	-0.05398225039243698	-0.036441534757614136	-0.00532194972038269	-9.611248970031738e-05	0.0013519078493118286
52	0.09888596087694168	0.07900100946426392	0.0428745374083519	0.18319761753082275	-0.3077169954776764	-0.04134778305888176	0.367348313331604	-0.5038852095603943	0.8284801244735718	0.07354744523763657	0.03066505491733551	0.021678999066352844	1.1745790243148804	-1.5769301652908325	0.19115358591079712	0.2954559326171875	0.45508480072021484	0.41282880306243896	-0.4211304485797882	0.2956387400627136	1.260542869567871	1.4695014953613281	-0.04569364711642265	0.34603825211524963	0.05177352577447891	0.013104453682899475	0.027088262140750885	0.01843981444835663	0.011516362428665161	0.07943445444107056	0.06153807044029236	0.02121180295944214	-0.035281479358673096	-0.24174824357032776	-0.011050840839743614	0.009498512372374535	-0.19782185554504395	0.00973045825958252	0.014238804578781128	-0.0013887882232666016	-0.41021928191185	0.27849897742271423	-0.01933351159095764	-0.008488446474075317	-1.1512815952301025	-0.05334615707397461	-0.1387719064950943	-0.06701871752738953	-0.004892423748970032	0.00013113021850585938	0.0036001205444335938
53	0.09994219243526459	0.07928380370140076	0.043407753109931946	0.18355002999305725	-0.3074817955493927	-0.03987068682909012	0.3685746192932129	-0.503460168838501	0.8278365731239319	0.06893712282180786	0.03043423593044281	0.021853622049093246	1.1699912548065186	-1.576641321182251	0.19142377376556396	0.2954244911670685	0.4457424581050873	0.4187650680541992	-0.4215058982372284	0.29548895359039307	1.234919548034668	1.4680362939834595	-0.04950055852532387	0.3443550169467926	0.08446704596281052	0.008906051516532898	0.05494235083460808	0.026957690715789795	0.02710595726966858	0.11198176443576813	0.11922791600227356	0.04943758249282837	-0.22953450679779053	-0.5050217509269714	-0.03498983383178711	0.002361694350838661	-0.333482027053833	-0.004684925079345703	0.019758939743041992	-0.01051872968673706	-0.7581725716590881	0.5908377170562744	-0.03472566604614258	-0.011195987462997437	-2.7019052505493164	-0.23160576820373535	-0.4754529297351837	-0.1443624496459961	-0.007498264312744141	-9.238719940185547e-05	0.020300596952438354
54	0.1022646427154541	0.07935725152492523	0.04507223144173622	0.18427592515945435	-0.30663275718688965	-0.036868512630462646	0.37211742997169495	-0.5019077062606812	0.8192987442016602	0.05334657430648804	0.02926546148955822	0.02177346684038639	1.161239743232727	-1.5771175622940063	0.1919439435005188	0.295035183429718	0.4247578978538513	0.43646231293678284	-0.4225194752216339	0.2951909005641937	1.1524666547775269	1.4602372646331787	-0.06471176445484161	0.3402637541294098	0.09746067225933075	-0.009544938802719116	0.07104361057281494	0.0331927090883255	0.04455298185348511	0.12329733371734619	0.167025625705719	0.0810667872428894	-0.3535434603691101	-0.7610108852386475	-0.0631600171327591	-0.011145835742354393	-0.44543445110321045	0.005888938903808594	0.021049752831459045	-0.026004016399383545	-0.9348109364509583	0.9250707626342773	-0.04401952028274536	-0.013758242130279541	-4.025012016296387	-0.49229860305786133	-0.7817267179489136	-0.13018399477005005	-0.0074259936809539795	0.00028461217880249023	0.028402358293533325
55	0.10384061932563782	0.07890200614929199	0.046249497681856155	0.18487773835659027	-0.3056996762752533	-0.03493879362940788	0.37525564432144165	-0.5002174973487854	0.8136948347091675	0.03849668800830841	0.027907835319638252	0.02140778861939907	1.1521738767623901	-1.5764057636260986	0.19226576387882233	0.29438433051109314	0.40835002064704895	0.4557678997516632	-0.4232666790485382	0.2949386239051819	1.0739190578460693	1.448344349861145	-0.0807696282863617	0.3391476571559906	0.05571022629737854	-0.041528232395648956	0.04726247861981392	0.029150396585464478	0.04838705062866211	0.0730985775589943	0.15379935503005981	0.07803887128829956	-0.17557144165039062	-0.7317511439323425	-0.07462403923273087	-0.022760499268770218	-0.4697561264038086	0.056549906730651855	0.0048335641622543335	-0.0364936888217926	-0.7678426504135132	0.9625710248947144	-0.030630826950073242	-0.011811405420303345	-3.9239258766174316	-0.6996244192123413	-0.7854651808738708	-0.011555105447769165	-0.005101785063743591	0.0013850629329681396	0.017417967319488525
56	0.10449305176734924	0.07769612222909927	0.04696273058652878	0.18544194102287292	-0.30469727516174316	-0.033944569528102875	0.37826940417289734	-0.49878615140914917	0.8122758865356445	0.02407652884721756	0.02628049999475479	0.020863046869635582	1.1424494981765747	-1.5748555660247803	0.19213728606700897	0.2935754358768463	0.3940441906452179	0.4749651551246643	-0.42374470829963684	0.2947184443473816	0.9955096244812012	1.432252287864685	-0.09613037109375	0.339801549911499	0.01901816576719284	-0.07135681807994843	0.024051126092672348	0.027247890830039978	0.04980787634849548	0.03237808123230934	0.14719218015670776	0.06582513451576233	-0.005133450031280518	-0.7131541967391968	-0.0801973044872284	-0.026630889624357224	-0.4959702491760254	0.08604228496551514	-0.016993656754493713	-0.04033893346786499	-0.7146828174591064	0.9487993717193604	-0.02001747488975525	-0.010310113430023193	-3.942263126373291	-0.9199202060699463	-0.5885342359542847	0.07851123809814453	-0.005989149212837219	0.0022523105144500732	0.009519234299659729
57	0.10460134595632553	0.07604773342609406	0.04721154272556305	0.18596765398979187	-0.3037073612213135	-0.03364367038011551	0.38114333152770996	-0.4975844919681549	0.8134894967079163	0.009970518760383129	0.024699943140149117	0.020342553034424782	1.1323350667953491	-1.572964072227478	0.19158601760864258	0.29277077317237854	0.3797627091407776	0.4937198758125305	-0.4240673780441284	0.29452621936798096	0.9162285327911377	1.4115475416183472	-0.10431099683046341	0.3422881066799164	-0.013674609363079071	-0.09764004498720169	0.0037452206015586853	0.02402961254119873	0.04729554057121277	-0.004260707646608353	0.14156103134155273	0.05255267024040222	0.11536478996276855	-0.6979000568389893	-0.07588416337966919	-0.02778712660074234	-0.5560785531997681	0.11813044548034668	-0.0314466655254364	-0.04141032695770264	-0.6976253986358643	0.9044602513313293	-0.015503913164138794	-0.005879253149032593	-3.9927914142608643	-1.1315703392028809	-0.10193437337875366	0.17313063144683838	-0.0057950615882873535	0.002969801425933838	0.007337704300880432
58	0.10394606739282608	0.0737905204296112	0.047112539410591125	0.18640312552452087	-0.30280545353889465	-0.03411499783396721	0.38393184542655945	-0.4966840445995331	0.8168904781341553	-0.0038394734729081392	0.023245133459568024	0.01975156180560589	1.120206356048584	-1.5701303482055664	0.19087941944599152	0.2919190227985382	0.36613917350769043	0.5111435651779175	-0.4243648648262024	0.2944832742214203	0.8357979655265808	1.3869894742965698	-0.10020774602890015	0.34672677516937256	-0.05868617445230484	-0.13420134782791138	-0.013300217688083649	0.01927390694618225	0.04403367638587952	-0.04573231562972069	0.1378871500492096	0.038745999336242676	0.30244290828704834	-0.6760398149490356	-0.0718039944767952	-0.0325176864862442	-0.6049841642379761	0.16025304794311523	-0.04011094570159912	-0.04439353942871094	-0.6293975114822388	0.8126139640808105	-0.012055039405822754	0.003980100154876709	-4.012685775756836	-1.3265341520309448	0.5705198049545288	0.31190142035484314	-0.00539533793926239	0.003626197576522827	0.012301281094551086
59	0.10225389897823334	0.0706796795129776	0.0466795340180397	0.18673861026763916	-0.3019460141658783	-0.03547296300530434	0.38665881752967834	-0.4960346519947052	0.8255872130393982	-0.01707107201218605	0.021827783435583115	0.019041845574975014	1.10813570022583	-1.5665539503097534	0.1899815797805786	0.2909950315952301	0.35458680987358093	0.5262244343757629	-0.42454957962036133	0.294685423374176	0.7557210922241211	1.3584861755371094	-0.08149020373821259	0.3547641634941101	-0.1170935109257698	-0.18860045075416565	-0.019440706819295883	0.014746561646461487	0.041281431913375854	-0.07814392447471619	0.1404687762260437	0.03306567668914795	0.467468798160553	-0.75568687915802	-0.06886766850948334	-0.02993214875459671	-0.6170332431793213	0.19071102142333984	-0.057371705770492554	-0.04692152142524719	-0.5370274186134338	0.7712528109550476	0.0033274292945861816	0.012201070785522461	-4.562135219573975	-1.660194993019104	1.2919769287109375	0.5606219172477722	-0.007106363773345947	0.005144625902175903	0.004412233829498291
60	0.09926232695579529	0.06624650210142136	0.04633491113781929	0.18699298799037933	-0.3011541962623596	-0.037240754812955856	0.3895505964756012	-0.49536141753196716	0.8355892300605774	-0.03406694903969765	0.020490426570177078	0.01855427585542202	1.0955250263214111	-1.5625019073486328	0.18858455121517181	0.2900421619415283	0.3446580767631531	0.5419936776161194	-0.42423176765441895	0.2949713170528412	0.6533125638961792	1.3205816745758057	-0.04852866753935814	0.36915165185928345	-0.17165914177894592	-0.23371456563472748	-0.015833042562007904	0.005304440855979919	0.0302240252494812	-0.09838547557592392	0.1240171492099762	0.021951645612716675	0.5064710974693298	-0.7495369911193848	-0.05976925790309906	-0.025144778192043304	-0.6510764360427856	0.20285844802856445	-0.08001253008842468	-0.04908069968223572	-0.46224743127822876	0.6998434662818909	0.026438385248184204	0.018302351236343384	-4.850104331970215	-1.8203645944595337	1.5863137245178223	0.7961012125015259	-0.00558122992515564	0.0059351325035095215	-0.002744048833847046
61	0.0953875333070755	0.06133109703660011	0.04604621231555939	0.18695078790187836	-0.30073705315589905	-0.03940838202834129	0.3916195034980774	-0.49515658617019653	0.8458460569381714	-0.04705255106091499	0.019437013193964958	0.01803605444729328	1.0820926427841187	-1.5584396123886108	0.18678107857704163	0.2890318036079407	0.3360969126224518	0.5542181730270386	-0.42349204421043396	0.29541751742362976	0.5617169141769409	1.285671591758728	-0.01803765632212162	0.38660821318626404	-0.22887754440307617	-0.2774624228477478	-0.015049893409013748	-0.005759671330451965	0.014615803956985474	-0.11833179742097855	0.09319186210632324	-0.002537667751312256	0.6104111671447754	-0.6640480160713196	-0.04491615295410156	-0.018201768398284912	-0.6784200668334961	0.1948535442352295	-0.09891428053379059	-0.059676170349121094	-0.40281936526298523	0.6015002727508545	0.04461333155632019	0.028932839632034302	-4.868094444274902	-1.8020868301391602	1.6054491996765137	0.9043440222740173	0.00225752592086792	0.006886571645736694	-0.0031914561986923218
62	0.09010722488164902	0.05514800548553467	0.04573291540145874	0.18676260113716125	-0.3005695641040802	-0.041974026709795	0.3932782709598541	-0.49546292424201965	0.8600056767463684	-0.06062886863946915	0.01869378052651882	0.017826205119490623	1.0683882236480713	-1.5547077655792236	0.1846279799938202	0.2876551151275635	0.32854530215263367	0.5660536885261536	-0.42244723439216614	0.29612863063812256	0.45858877897262573	1.2484982013702393	0.015689298510551453	0.40532541275024414	-0.28888601064682007	-0.32267671823501587	-0.021297205239534378	-0.009709224104881287	0.003957003355026245	-0.13450197875499725	0.05937069654464722	-0.02837255597114563	0.7524564862251282	-0.625260055065155	-0.02461313270032406	0.003042258322238922	-0.7652789354324341	0.19608736038208008	-0.10412298142910004	-0.08904188871383667	-0.2834334969520569	0.5415946245193481	0.056909024715423584	0.04687756299972534	-5.147157669067383	-1.806575059890747	1.8058918714523315	0.9265996217727661	0.008674338459968567	0.010894984006881714	-0.012978911399841309
63	0.08383209258317947	0.04842402786016464	0.04519432410597801	0.1865624189376831	-0.300578773021698	-0.044788461178541183	0.3939943313598633	-0.49629148840904236	0.8759443163871765	-0.07206295430660248	0.018452487885951996	0.01815774478018284	1.0514814853668213	-1.5505961179733276	0.18261615931987762	0.2854701280593872	0.3247595727443695	0.5758819580078125	-0.421215683221817	0.2972926199436188	0.3558306097984314	1.2134085893630981	0.0541980154812336	0.4236721992492676	-0.35288333892822266	-0.3742276728153229	-0.03177467733621597	-0.010177120566368103	-0.004003942012786865	-0.19210287928581238	0.02845674753189087	-0.060161203145980835	0.6539717316627502	-0.5623096823692322	-0.01557772047817707	0.022759567946195602	-0.9152591228485107	0.2288222312927246	-0.11037960648536682	-0.1289956271648407	-0.208175927400589	0.338001549243927	0.07553994655609131	0.06380677223205566	-5.124497413635254	-1.7657428979873657	2.1878721714019775	0.8342273235321045	0.012524798512458801	0.015054643154144287	-0.013288483023643494
64	0.07599189132452011	0.040178898721933365	0.0444619283080101	0.18635551631450653	-0.3007297217845917	-0.049658142030239105	0.39441654086112976	-0.4978693723678589	0.8861645460128784	-0.08312125504016876	0.01807067170739174	0.018736587837338448	1.0317778587341309	-1.5455548763275146	0.18021279573440552	0.28249529004096985	0.3202182650566101	0.5795737504959106	-0.4194256365299225	0.2986809015274048	0.2536088824272156	1.1778684854507446	0.10320418328046799	0.4386945068836212	-0.4237111806869507	-0.4398021399974823	-0.019175373017787933	-0.014209747314453125	-0.0302828848361969	-0.2713575065135956	0.023493170738220215	-0.1223348081111908	-0.0770673155784607	-0.5609134435653687	-0.01269141212105751	0.055442050099372864	-1.0625094175338745	0.29375553131103516	-0.13135187327861786	-0.16305968165397644	-0.267995148897171	0.02539008855819702	0.1022040843963623	0.054157525300979614	-4.940325736999512	-1.7394572496414185	2.4415504932403564	0.5832709074020386	0.019825249910354614	0.014854222536087036	-0.007407739758491516
65	0.0668836459517479	0.030831942334771156	0.044427309185266495	0.18599402904510498	-0.3017900884151459	-0.055642761290073395	0.3949340581893921	-0.50118488073349	0.8728616237640381	-0.09449949115514755	0.017944831401109695	0.02037542685866356	1.0089811086654663	-1.5388458967208862	0.1773620843887329	0.27894774079322815	0.31403976678848267	0.5768975615501404	-0.4171275198459625	0.29945892095565796	0.15821757912635803	1.1438302993774414	0.15186002850532532	0.447003036737442	-0.45522069931030273	-0.48598185181617737	-0.004437752068042755	-0.01780875027179718	-0.07620751857757568	-0.374411404132843	0.04229545593261719	-0.21245330572128296	-0.846002995967865	-0.47544482350349426	0.010729068890213966	0.1218184381723404	-1.259796380996704	0.3542989492416382	-0.15430450439453125	-0.16463547945022583	-0.3010652959346771	-0.267086923122406	0.130404531955719	0.00017434358596801758	-4.492145538330078	-1.743394136428833	2.0656487941741943	0.3156103193759918	0.02796463668346405	0.01488029956817627	-0.005144253373146057
66	0.057783063501119614	0.02073962427675724	0.04428441822528839	0.18564316630363464	-0.3037780225276947	-0.06463459879159927	0.39610835909843445	-0.5063675045967102	0.8523244261741638	-0.10213904827833176	0.018499834463000298	0.023609325289726257	0.9813860058784485	-1.5313829183578491	0.17404061555862427	0.2759098708629608	0.308175653219223	0.5688902735710144	-0.4142094552516937	0.2986878752708435	0.07392306625843048	1.1081327199935913	0.18583013117313385	0.4513189196586609	-0.5220333337783813	-0.5629561543464661	-0.02186233177781105	-0.019002333283424377	-0.11511743068695068	-0.4835326075553894	0.08142143487930298	-0.35254955291748047	-1.8419355154037476	-0.31988584995269775	0.010127527639269829	0.18011397123336792	-1.1694326400756836	0.4010140895843506	-0.19336268305778503	-0.1824982464313507	-0.9093738794326782	-0.5413785576820374	0.155697762966156	0.059489160776138306	-3.8070871829986572	-1.7546772956848145	1.3342366218566895	0.13606250286102295	0.015995651483535767	0.016336143016815186	-0.009493902325630188
67	0.04600231349468231	0.008313696831464767	0.04355281591415405	0.185233935713768	-0.3063947856426239	-0.07498406618833542	0.3981909155845642	-0.5152868628501892	0.7991842031478882	-0.10729492455720901	0.01834993250668049	0.027579985558986664	0.9622038006782532	-1.5228053331375122	0.1696275770664215	0.2716478109359741	0.27766481041908264	0.5552424192428589	-0.4108996093273163	0.3018384873867035	0.005934089422225952	1.0736432075500488	0.2052294909954071	0.45244553685188293	-0.6339705586433411	-0.6718409061431885	-0.018358416855335236	-0.04286468029022217	-0.19529461860656738	-0.5781505107879639	0.12002140283584595	-0.5472227931022644	-2.996981143951416	-0.2055281698703766	0.01604040153324604	0.27497363090515137	-0.9781628847122192	0.4307210445404053	-0.2781033515930176	-0.2591632306575775	-2.282675266265869	-0.7334128022193909	0.1977004110813141	0.22323355078697205	-3.256580352783203	-1.7496287822723389	0.7792476415634155	0.015560537576675415	0.009203329682350159	0.02067089080810547	-0.030096247792243958
68	0.03242424130439758	-0.006134013645350933	0.04355008155107498	0.18392857909202576	-0.3115898072719574	-0.08776061981916428	0.4009092152118683	-0.5282564163208008	0.7324451804161072	-0.11036017537117004	0.01914145052433014	0.03460827097296715	0.9422594904899597	-1.514154076576233	0.16291648149490356	0.2655433416366577	0.21686863899230957	0.5395537614822388	-0.40630143880844116	0.3076172173023224	-0.056340139359235764	1.0381475687026978	0.21700003743171692	0.4519413411617279	-0.6644890308380127	-0.7417394518852234	-0.03482848405838013	-0.0854048877954483	-0.3032594919204712	-0.6765851974487305	0.17781630158424377	-0.7751420140266418	-3.2353744506835938	-0.12145768851041794	0.047221824526786804	0.3819277584552765	-0.9530618786811829	0.4697829484939575	-0.37063026428222656	-0.3140158951282501	-3.15706205368042	-0.6925538182258606	0.24072378873825073	0.22430643439292908	-2.7300515174865723	-1.6178816556930542	0.6194878220558167	-0.14395266771316528	0.013933330774307251	0.0218808650970459	-0.021336227655410767
69	0.019422752782702446	-0.02135588228702545	0.04215967655181885	0.18181774020195007	-0.31852516531944275	-0.10204747319221497	0.40530356764793396	-0.5462925434112549	0.6697692275047302	-0.11215323209762573	0.020238805562257767	0.0428570955991745	0.9240813255310059	-1.504014015197754	0.1548023670911789	0.2590871751308441	0.15138232707977295	0.5275402665138245	-0.40127065777778625	0.31081074476242065	-0.10326796770095825	1.0089279413223267	0.23000900447368622	0.4466874301433563	-0.6766631007194519	-0.8240837454795837	-0.148870050907135	-0.14288835227489471	-0.40111541748046875	-0.740330696105957	0.20487084984779358	-1.030094861984253	-3.663036346435547	-0.2907333970069885	0.05960837006568909	0.4761825203895569	-0.7578462362289429	0.8336693048477173	-0.45065656304359436	-0.32973140478134155	-3.863321304321289	-0.61635822057724	0.24838820099830627	0.05769804120063782	-2.195302724838257	-1.330748200416565	0.7336664795875549	-0.5143597722053528	0.018892809748649597	0.01616254448890686	0.021992623805999756
70	0.005357715301215649	-0.039097364991903305	0.03759527951478958	0.17821304500102997	-0.32763442397117615	-0.11737384647130966	0.40910404920578003	-0.5694602131843567	0.5859237313270569	-0.12198951095342636	0.021525785326957703	0.05365557223558426	0.911945641040802	-1.4808073043823242	0.1448902189731598	0.25235408544540405	0.062335796654224396	0.5148994326591492	-0.3963659107685089	0.3099251389503479	-0.14415225386619568	0.9849176406860352	0.24634669721126556	0.4313669502735138	-0.7618625164031982	-0.9531614184379578	-0.2844931483268738	-0.21003559231758118	-0.5032539367675781	-0.8791532516479492	0.17632842063903809	-1.2164980173110962	-4.422718048095703	-0.7895696759223938	0.05560442805290222	0.606440007686615	-0.720331072807312	1.205688714981079	-0.5497958660125732	-0.3843918442726135	-4.763396739959717	-0.5645662546157837	0.24937093257904053	-0.10998770594596863	-1.8512744903564453	-1.156821846961975	0.7490318417549133	-0.9173110127449036	0.013760849833488464	0.018118321895599365	0.020772218704223633
71	-0.01105174794793129	-0.05948233976960182	0.030779950320720673	0.17341631650924683	-0.3386553227901459	-0.1372136026620865	0.4123567044734955	-0.5949524641036987	0.49286049604415894	-0.14373601973056793	0.022462982684373856	0.0671146959066391	0.8952680826187134	-1.4557864665985107	0.1328105330467224	0.24371150135993958	-0.03915353864431381	0.5049576163291931	-0.39129582047462463	0.3064112365245819	-0.17731894552707672	0.9626550674438477	0.2599702775478363	0.4099949896335602	-0.8576291799545288	-1.090938925743103	-0.42449599504470825	-0.25894010066986084	-0.590960681438446	-1.1377671957015991	0.12893006205558777	-1.24631667137146	-4.840749740600586	-1.5575262308120728	0.06150379776954651	0.7457042336463928	-0.8345887064933777	1.4231503009796143	-0.6247371435165405	-0.4992130994796753	-5.293610572814941	-0.36601722240448	0.24527236819267273	-0.16562938690185547	-1.5852015018463135	-1.0912716388702393	0.47364121675491333	-1.0621458292007446	0.009685754776000977	0.025863200426101685	0.015846267342567444
72	-0.02894745022058487	-0.08273492008447647	0.020615439862012863	0.16785544157028198	-0.351272851228714	-0.16288453340530396	0.41426125168800354	-0.6193128824234009	0.3922937512397766	-0.1842905580997467	0.023985937237739563	0.0834837406873703	0.8785620927810669	-1.4238812923431396	0.11990073323249817	0.2323855608701706	-0.14940863847732544	0.50025874376297	-0.386555016040802	0.3032999634742737	-0.20756031572818756	0.9412667751312256	0.26529234647750854	0.388881117105484	-0.9777087569236755	-1.2561322450637817	-0.5784149169921875	-0.2925928831100464	-0.6474822759628296	-1.368199348449707	0.04124045372009277	-1.18255615234375	-5.074970245361328	-2.4777944087982178	0.08138446509838104	0.8961277008056641	-0.8436858654022217	1.7709285020828247	-0.6511021256446838	-0.6497896909713745	-5.6242356300354	0.034180283546447754	0.2503126859664917	-0.04955977201461792	-1.643538475036621	-1.0049968957901	0.18524155020713806	-1.0263457298278809	0.003661215305328369	0.03149956464767456	0.03162212669849396
73	-0.05016009882092476	-0.10972762852907181	0.007643354125320911	0.16171260178089142	-0.36455461382865906	-0.19194157421588898	0.4140063226222992	-0.6422547101974487	0.28986167907714844	-0.24284780025482178	0.025718361139297485	0.10295980423688889	0.8615206480026245	-1.3849493265151978	0.10676644742488861	0.2177199125289917	-0.26412296295166016	0.506324827671051	-0.38128331303596497	0.3044288456439972	-0.24306048452854156	0.9224551916122437	0.2673799395561218	0.36894115805625916	-1.1069508790969849	-1.4427704811096191	-0.673721432685852	-0.2937294542789459	-0.6050005555152893	-1.551055908203125	-0.07572546601295471	-0.9801357984542847	-4.942975044250488	-3.069122791290283	0.06646160036325455	0.9545801281929016	-0.849565863609314	2.0045666694641113	-0.6457062363624573	-0.7717680335044861	-5.480385780334473	0.47845691442489624	0.2620302140712738	0.0652998685836792	-1.5684504508972168	-0.8847907185554504	0.3002077341079712	-1.0324254035949707	0.0023305416107177734	0.03945380449295044	0.08160509169101715
74	-0.0732254832983017	-0.140445739030838	-0.006333416327834129	0.15610626339912415	-0.37547287344932556	-0.22492676973342896	0.41123223304748535	-0.6585183143615723	0.1945747435092926	-0.3070554733276367	0.026644401252269745	0.12166694551706314	0.8445794582366943	-1.3436986207962036	0.09407248347997665	0.2015148401260376	-0.3686240613460541	0.5193970203399658	-0.37607380747795105	0.30591195821762085	-0.2702983319759369	0.9058751463890076	0.2773006558418274	0.3475840985774994	-1.4557790756225586	-1.9233895540237427	-0.5226560831069946	-0.3610588610172272	-0.600317120552063	-1.8612642288208008	-0.1859799027442932	-0.808495283126831	-5.330423831939697	-3.332899570465088	0.01645744778215885	1.0769633054733276	-1.0276005268096924	1.8336743116378784	-0.7756743431091309	-1.0045260190963745	-5.605717182159424	0.3596961498260498	0.27927905321121216	-0.2683304250240326	-1.426943063735962	-0.9415403008460999	0.7366336584091187	-1.2414448261260986	0.04126988351345062	0.06544813513755798	0.08581951260566711
75	-0.10839126259088516	-0.1866632103919983	-0.013262889347970486	0.14727024734020233	-0.3885672986507416	-0.26639214158058167	0.40656712651252747	-0.674594521522522	0.07664473354816437	-0.3761637806892395	0.02637665905058384	0.14603833854198456	0.8204166293144226	-1.3116023540496826	0.07573947310447693	0.17753887176513672	-0.48835164308547974	0.520712673664093	-0.3701121509075165	0.2936956286430359	-0.3001382052898407	0.8847935795783997	0.29684528708457947	0.3192833662033081	-1.746429443359375	-2.3358020782470703	-0.2771821916103363	-0.3761898875236511	-0.4912339150905609	-1.9753687381744385	-0.22916868329048157	-0.6890520453453064	-5.637305736541748	-2.356410026550293	-0.0657712072134018	1.1096464395523071	-1.1022045612335205	1.8737226724624634	-0.8666218519210815	-1.1496793031692505	-5.606406211853027	-0.9253345727920532	0.28449222445487976	-0.6314709782600403	-1.3387471437454224	-0.8588537573814392	0.7338948249816895	-1.2831032276153564	0.054655224084854126	0.09649395942687988	0.08694864809513092
76	-0.1430826634168625	-0.23387782275676727	-0.017420703545212746	0.14105866849422455	-0.395122230052948	-0.3039415180683136	0.4020654857158661	-0.6860803961753845	-0.030917484313249588	-0.40131187438964844	0.02401355281472206	0.16605280339717865	0.8004912734031677	-1.268749713897705	0.059407610446214676	0.15552766621112823	-0.5928803086280823	0.4823836386203766	-0.36469411849975586	0.28065311908721924	-0.3238482177257538	0.87152099609375	0.30665645003318787	0.29625996947288513	-1.7650147676467896	-2.3976006507873535	-0.23927681148052216	-0.259679913520813	-0.2644576132297516	-1.8419123888015747	-0.3007151186466217	-0.4239514470100403	-5.44327449798584	-0.46637803316116333	-0.08446690440177917	1.1158894300460815	-1.0088622570037842	2.550017833709717	-0.7963272929191589	-1.2775845527648926	-5.308248043060303	-2.055784225463867	0.3206700086593628	-0.7565036416053772	-1.242599606513977	-0.5679786205291748	0.561000406742096	-1.0463439226150513	0.0495176762342453	0.12306869029998779	0.022409111261367798
77	-0.17899185419082642	-0.28256723284721375	-0.022833961993455887	0.13688305020332336	-0.39914560317993164	-0.34006863832473755	0.3945385217666626	-0.6915525794029236	-0.14108625054359436	-0.39481890201568604	0.022997982800006866	0.19067391753196716	0.7800621390342712	-1.209601640701294	0.04388638213276863	0.12643548846244812	-0.7006815671920776	0.43848130106925964	-0.35728535056114197	0.2634354829788208	-0.3498421907424927	0.8620744347572327	0.3192853033542633	0.27742961049079895	-1.9191067218780518	-2.630730390548706	-0.29497799277305603	-0.13388432562351227	-0.17638951539993286	-1.8911793231964111	-0.43994784355163574	-0.1449286937713623	-5.931144714355469	-0.1146957278251648	0.020649703219532967	1.4408819675445557	-1.1890664100646973	3.178706645965576	-0.7798311114311218	-1.838735818862915	-5.996151447296143	-1.1206477880477905	0.443461537361145	-0.9810417890548706	-1.4631890058517456	-0.3126069903373718	0.9339041709899902	-0.6937719583511353	0.030462071299552917	0.14894381165504456	-0.1977965235710144
78	-0.2198469340801239	-0.33910703659057617	-0.029219822958111763	0.13570329546928406	-0.4021778106689453	-0.37958869338035583	0.38446757197380066	-0.691877543926239	-0.26816326379776	-0.40589970350265503	0.02483954094350338	0.22368808090686798	0.752928614616394	-1.1416014432907104	0.028214365243911743	0.08197823166847229	-0.8327263593673706	0.43755772709846497	-0.34695565700531006	0.24141144752502441	-0.3823757767677307	0.8590167164802551	0.34401261806488037	0.2685090899467468	-1.7115492820739746	-2.510295867919922	-0.17618927359580994	-0.018976256251335144	-0.08304566144943237	-1.8268406391143799	-0.37648826837539673	-0.03203749656677246	-5.622283935546875	-0.5666099786758423	0.0988912284374237	1.4797792434692383	-1.511167049407959	3.350532054901123	-0.6219139099121094	-1.8982404470443726	-5.895656585693359	-0.12113600969314575	0.4067428410053253	-0.9491347074508667	-1.1315398216247559	-0.133398175239563	1.0246529579162598	-0.3832422196865082	0.02408921718597412	0.15384554862976074	-0.07830522954463959
79	-0.24745382368564606	-0.38297906517982483	-0.029881533235311508	0.13612399995326996	-0.40246742963790894	-0.41314226388931274	0.37947899103164673	-0.6928340792655945	-0.36597761511802673	-0.41748329997062683	0.02695363201200962	0.2498650848865509	0.7196154594421387	-1.075580358505249	0.019009824842214584	0.0505058690905571	-0.9365078210830688	0.4336358606815338	-0.34101563692092896	0.22547009587287903	-0.39510378241539	0.8567385077476501	0.3602714240550995	0.2620999217033386	-1.357710361480713	-2.250777244567871	-0.007454073056578636	0.083102285861969	0.06482750177383423	-1.654428243637085	-0.1715429127216339	-0.12726634740829468	-4.9593329429626465	-0.8206665515899658	0.034677982330322266	1.3010438680648804	-1.712927222251892	3.4102706909179688	-0.4457412362098694	-1.371788740158081	-5.113253116607666	0.3025166690349579	0.24327188730239868	-0.6950542330741882	-0.4302710294723511	-0.044880807399749756	0.7712446451187134	-0.3490954637527466	0.021091848611831665	0.16057118773460388	0.1567211002111435
80	-0.2741553485393524	-0.4291381239891052	-0.02951798588037491	0.13902738690376282	-0.39958471059799194	-0.44576582312583923	0.3776058554649353	-0.6969681978225708	-0.46653658151626587	-0.43872636556625366	0.02622666023671627	0.27572983503341675	0.6844115257263184	-1.0051906108856201	0.010384716093540192	0.02710668370127678	-1.0372564792633057	0.4496583938598633	-0.3372247815132141	0.21360927820205688	-0.39958661794662476	0.8572214841842651	0.374862402677536	0.25454527139663696	-1.3641040325164795	-2.420957326889038	0.12754103541374207	0.22335238754749298	0.11095330119132996	-1.5098713636398315	-0.06796643137931824	-0.3253564238548279	-5.016099452972412	-0.9246155619621277	-0.023434637114405632	1.4817543029785156	-1.9157066345214844	3.421776056289673	-0.4043779671192169	-1.0537797212600708	-4.727190971374512	0.5404293537139893	0.19357353448867798	-0.475553423166275	-0.11482089757919312	0.16226917505264282	0.4783526062965393	-0.5281709432601929	-0.0399615615606308	0.18774494528770447	0.12170560657978058
81	-0.3020179867744446	-0.47981736063957214	-0.024779891595244408	0.14505809545516968	-0.39802929759025574	-0.4735371172428131	0.376760333776474	-0.7058483362197876	-0.5666216015815735	-0.45446792244911194	0.026016246527433395	0.3091352581977844	0.6429871916770935	-0.9387093186378479	0.0028347058687359095	0.008354678750038147	-1.1255954504013062	0.4552530348300934	-0.33327269554138184	0.20644795894622803	-0.39969661831855774	0.8632292747497559	0.37940552830696106	0.2409730851650238	-1.3990447521209717	-2.5814130306243896	0.309869647026062	0.37290191650390625	0.04464536905288696	-1.2628562450408936	0.022111833095550537	-0.611354410648346	-4.907769203186035	-0.4219047725200653	0.014699902385473251	1.8709957599639893	-2.340596914291382	3.271770477294922	-0.3661148250102997	-0.7794994115829468	-4.1428117752075195	0.06577521562576294	0.19690915942192078	-0.2564080059528351	0.14889389276504517	0.36274492740631104	0.034765154123306274	-0.7133699655532837	-0.09808912873268127	0.19860193133354187	0.05109570920467377
82	-0.3301171362400055	-0.5323946475982666	-0.017123199999332428	0.15394346415996552	-0.39779889583587646	-0.49628007411956787	0.3784903287887573	-0.7214223742485046	-0.6628473401069641	-0.4556025564670563	0.0268146563321352	0.3505696654319763	0.5907876491546631	-0.8743197917938232	-0.004259877372533083	-0.004073292948305607	-1.202968955039978	0.4522894024848938	-0.3293484151363373	0.20335295796394348	-0.39363086223602295	0.8717312812805176	0.37625300884246826	0.22601047158241272	-1.4193356037139893	-2.682297706604004	0.46453386545181274	0.5133621692657471	-0.05227997899055481	-1.0622180700302124	0.15320926904678345	-0.9808346629142761	-4.434536457061768	0.0736527144908905	0.06471975147724152	2.2275454998016357	-2.7422354221343994	3.156883955001831	-0.3425057828426361	-0.5423157215118408	-3.491342067718506	-0.39487704634666443	0.2116464078426361	0.034161657094955444	0.4520125687122345	0.35475343465805054	-0.23876875638961792	-0.8268937468528748	-0.1268722116947174	0.20102038979530334	-0.016039982438087463
83	-0.35879141092300415	-0.5871092677116394	-0.006198536604642868	0.16559258103370667	-0.40012049674987793	-0.5160258412361145	0.38288870453834534	-0.7450817227363586	-0.7440030574798584	-0.4515218138694763	0.028605036437511444	0.39823707938194275	0.5332977771759033	-0.8124339580535889	-0.010865525342524052	-0.013337952084839344	-1.2652491331100464	0.4394579529762268	-0.3248068392276764	0.20781442523002625	-0.38161611557006836	0.8774194121360779	0.36985477805137634	0.2078973352909088	-1.3617701530456543	-2.6415631771087646	0.5629042983055115	0.6473574638366699	-0.19963905215263367	-0.8713126182556152	0.24511590600013733	-1.3397574424743652	-3.767467975616455	0.3370456397533417	0.1675170361995697	2.5701544284820557	-2.9651262760162354	2.982725143432617	-0.26955702900886536	-0.3899681270122528	-2.843904495239258	-0.7900394201278687	0.2511709928512573	0.28456413745880127	0.7411763072013855	0.10543763637542725	-0.2829425036907196	-0.9231913685798645	-0.1416962593793869	0.20228028297424316	-0.062271952629089355
84	-0.38458794355392456	-0.6380571722984314	0.005392972845584154	0.17983776330947876	-0.4057844579219818	-0.5311325788497925	0.3882949650287628	-0.7750126719474792	-0.8135460615158081	-0.4421207308769226	0.033515337854623795	0.45337584614753723	0.47218260169029236	-0.7550107836723328	-0.015042157843708992	-0.01967201754450798	-1.3167251348495483	0.42068782448768616	-0.319301575422287	0.21473552286624908	-0.36398380994796753	0.8759487867355347	0.3649353086948395	0.1890828162431717	-1.2090682983398438	-2.478891611099243	0.680471658706665	0.7333815097808838	-0.4187487065792084	-0.6530925631523132	0.23965388536453247	-1.5906140804290771	-3.1935362815856934	0.43635815382003784	0.29082298278808594	2.935103416442871	-3.0970215797424316	2.6413962841033936	-0.16253313422203064	-0.22056598961353302	-2.145034074783325	-0.8786879777908325	0.27863234281539917	0.2591397762298584	1.0614179372787476	-0.28568506240844727	-0.14255493879318237	-1.004065990447998	-0.15079639852046967	0.1902177929878235	0.005564093589782715
85	-0.4071541428565979	-0.6862649321556091	0.021020330488681793	0.19492784142494202	-0.41687044501304626	-0.542149543762207	0.39247485995292664	-0.8087062835693359	-0.8717445135116577	-0.4340674877166748	0.04023795574903488	0.5156412124633789	0.40941691398620605	-0.7067781090736389	-0.01736685074865818	-0.022160591557621956	-1.3510504961013794	0.4043104350566864	-0.3136615455150604	0.21818001568317413	-0.33915939927101135	0.86599200963974	0.36415258049964905	0.16773469746112823	-1.10374915599823	-2.395789384841919	0.8731157779693604	0.7871214151382446	-0.6492518186569214	-0.5324766039848328	0.1626826822757721	-1.6635849475860596	-2.7780680656433105	0.2494901418685913	0.3446935713291168	3.2890565395355225	-3.103578805923462	2.2367074489593506	-0.08254088461399078	-0.02381051890552044	-2.349147319793701	-0.4132091999053955	0.23931637406349182	0.06318874657154083	1.22066068649292	-0.6055429577827454	0.06429478526115417	-1.0934240818023682	-0.162549689412117	0.18099844455718994	0.1024339348077774
86	-0.42873790860176086	-0.7338887453079224	0.040317602455616	0.211322620511055	-0.43175452947616577	-0.5524316430091858	0.3948022723197937	-0.8415560722351074	-0.9246687889099121	-0.43214112520217896	0.047303080558776855	0.584938108921051	0.348039448261261	-0.665542483329773	-0.018343793228268623	-0.020624438300728798	-1.4106910228729248	0.40415945649147034	-0.3097289204597473	0.21726307272911072	-0.31515738368034363	0.8517270684242249	0.36750710010528564	0.14534585177898407	-0.882720947265625	-1.9365251064300537	0.806961178779602	0.6169766187667847	-0.5414642095565796	-0.544506311416626	0.04267990589141846	-1.3047754764556885	-2.5285913944244385	-0.07653757929801941	0.2243264615535736	2.687983274459839	-2.8423681259155273	1.6105502843856812	-0.04773680120706558	0.10506166517734528	-1.6321390867233276	0.6662413477897644	0.13125091791152954	-0.008513405919075012	1.0302081108093262	-0.4545286297798157	0.01966133713722229	-0.8400115966796875	-0.1409243792295456	0.20702630281448364	0.22025704383850098
87	-0.4424629807472229	-0.7637259364128113	0.05329877883195877	0.2196069061756134	-0.43852901458740234	-0.5639297962188721	0.3941820561885834	-0.8608973026275635	-0.972888171672821	-0.4371289908885956	0.049211014062166214	0.6231605410575867	0.29572218656539917	-0.6423560976982117	-0.019276322796940804	-0.017958125099539757	-1.4163360595703125	0.430960088968277	-0.30841150879859924	0.21783947944641113	-0.2979510724544525	0.8478108644485474	0.36493903398513794	0.1341342329978943	-0.7113851308822632	-1.5585734844207764	0.7606502771377563	0.4455808401107788	-0.36889389157295227	-0.5349621176719666	-0.060952454805374146	-0.9658336639404297	-2.329498529434204	-0.729300856590271	0.09273187816143036	2.066680908203125	-2.6974101066589355	1.0262980461120605	-0.058820098638534546	0.1859278678894043	-0.4873603582382202	1.6496970653533936	0.059910863637924194	0.09017772972583771	0.8813761472702026	-0.030434131622314453	-0.17231926321983337	-0.7045712471008301	-0.12710802257061005	0.2665027976036072	0.2383396029472351
88	-0.4571933150291443	-0.7962316870689392	0.0707436129450798	0.2291458547115326	-0.44651028513908386	-0.5738301277160645	0.39236417412757874	-0.8801894187927246	-1.0178487300872803	-0.4613131582736969	0.05101235583424568	0.6676053404808044	0.2401430457830429	-0.6244905591011047	-0.020696597173810005	-0.013187323696911335	-1.4301854372024536	0.47014734148979187	-0.30733248591423035	0.22087018191814423	-0.2799023389816284	0.8505097031593323	0.3606143295764923	0.11716300249099731	-1.8030226230621338	-3.7063300609588623	1.840246319770813	1.928783893585205	-1.5600130558013916	-0.34914761781692505	-0.6067156791687012	-1.1637508869171143	-2.5248959064483643	-2.2575371265411377	0.6776378750801086	6.5489678382873535	-2.788050889968872	0.838625431060791	0.051433686167001724	0.07533533871173859	-0.6528109312057495	3.1113617420196533	0.06089359521865845	0.3463156521320343	1.2230231761932373	0.40804892778396606	-0.5761250853538513	-2.3843586444854736	-0.4859812557697296	0.024208426475524902	-0.3800243139266968
89	-0.5145838856697083	-0.9119791388511658	0.12690863013267517	0.2967582643032074	-0.5009295344352722	-0.5778957009315491	0.3699134290218353	-0.907447338104248	-1.0738840103149414	-0.5274304747581482	0.07631652802228928	0.8851192593574524	0.18420015275478363	-0.60881108045578	-0.017218975350260735	-0.014944711700081825	-1.4424484968185425	0.5554145574569702	-0.3059757649898529	0.2316921055316925	-0.24903014302253723	0.864132821559906	0.3418940305709839	0.03875988721847534	-1.8308684825897217	-3.681741714477539	1.9929008483886719	1.938841462135315	-1.676043152809143	-0.2271786332130432	-0.8277453184127808	-0.8631721138954163	-2.368828773498535	-2.2736661434173584	0.7872215509414673	6.755220890045166	-2.550917387008667	0.2816528081893921	0.0971347987651825	-0.14939305186271667	-0.5389183759689331	3.231475591659546	0.0072002410888671875	0.3744896650314331	1.2492302656173706	-0.07597655057907104	-0.4351191222667694	-2.4860970973968506	-0.592089056968689	0.016139447689056396	-0.3581154942512512
90	-0.5304280519485474	-0.943501353263855	0.1504596471786499	0.3066995143890381	-0.5135520100593567	-0.5829172730445862	0.3592543601989746	-0.9147163033485413	-1.11260187625885	-0.5522598028182983	0.08250121772289276	0.9378141760826111	0.1381063461303711	-0.613224446773529	-0.016811205074191093	-0.019163046032190323	-1.451742172241211	0.599406361579895	-0.30704447627067566	0.2358497679233551	-0.22993312776088715	0.8474706411361694	0.34320956468582153	0.017719123512506485	-0.9998559951782227	-1.930375337600708	1.3357534408569336	0.6876074075698853	-0.7886111736297607	-0.14209747314453125	-0.6519593000411987	-0.3540053963661194	-1.9361704587936401	-1.2956827878952026	0.3590337932109833	3.2538816928863525	-2.241626262664795	-0.26084184646606445	0.015598023310303688	-0.18945527076721191	-0.4716545343399048	1.5586779117584229	-0.007849931716918945	0.3040674924850464	1.0119136571884155	-1.352597713470459	0.10180845856666565	-1.3485767841339111	-0.39715394377708435	0.2452060580253601	0.11811479926109314
91	-0.5545781254768372	-0.9891941547393799	0.1803387701511383	0.3242625594139099	-0.5324739813804626	-0.5835795998573303	0.3438350558280945	-0.9216075539588928	-1.151330828666687	-0.5792577862739563	0.09067787975072861	1.0152745246887207	0.09453510493040085	-0.6192447543144226	-0.016595054417848587	-0.022522922605276108	-1.4613146781921387	0.6177616715431213	-0.30628976225852966	0.2438548058271408	-0.20855359733104706	0.8100289106369019	0.3459663689136505	-0.01518318336457014	-1.6089528799057007	-2.930119514465332	1.7565257549285889	1.3399362564086914	-1.3986334800720215	0.18543899059295654	-1.1186085939407349	-0.12305229902267456	-1.8193095922470093	-1.0217413902282715	0.8378468751907349	5.359007358551025	-2.257628917694092	-0.46766549348831177	0.09737370908260345	-0.5356308817863464	-0.45050978660583496	-0.056102871894836426	0.13015568256378174	0.5430608987808228	1.1693611145019531	-2.999983787536621	0.1760430634021759	-2.337735414505005	-0.6072357296943665	0.05472749471664429	-0.17037056386470795
92	-0.5947861671447754	-1.0607061386108398	0.22072067856788635	0.36029696464538574	-0.5694973468780518	-0.5754997134208679	0.3145100176334381	-0.9196383953094482	-1.1853742599487305	-0.5931294560432434	0.11601509153842926	1.152174472808838	0.0478011891245842	-0.6319310665130615	-0.012916256673634052	-0.04058828204870224	-1.4697625637054443	0.5971622467041016	-0.3018382489681244	0.257572203874588	-0.18315868079662323	0.7274712920188904	0.35025128722190857	-0.07579029351472855	-1.6067862510681152	-2.813455581665039	1.7425880432128906	1.2150883674621582	-1.3625890016555786	0.35655051469802856	-1.2258894443511963	0.09655803442001343	-1.6176700592041016	-0.6206020712852478	0.9777406454086304	5.218303203582764	-2.068185329437256	-0.5261316895484924	0.1701585054397583	-0.6666984558105469	-0.32730698585510254	-1.284492015838623	0.2919323742389679	0.5717512369155884	0.9757816791534424	-3.574669361114502	0.08374527096748352	-2.0981502532958984	-0.6782017946243286	0.06914734840393066	-0.15915855765342712
93	-0.6188495755195618	-1.1017323732376099	0.25004228949546814	0.37286609411239624	-0.5869775414466858	-0.5693175792694092	0.29479947686195374	-0.9177452325820923	-1.216037631034851	-0.6040818691253662	0.12978750467300415	1.2240066528320312	0.011807692237198353	-0.6402900218963623	-0.009788714349269867	-0.049190860241651535	-1.4744069576263428	0.5663819909095764	-0.29461246728897095	0.2667248547077179	-0.16952233016490936	0.6670421361923218	0.34931617975234985	-0.09910919517278671	-1.4710321426391602	-2.546757459640503	1.5321165323257446	0.8813872933387756	-1.0199815034866333	0.32165348529815674	-1.3549997806549072	0.326026976108551	-1.4002352952957153	-0.42710304260253906	0.8629869818687439	4.419264316558838	-1.1950297355651855	-0.32487213611602783	0.14409974217414856	-0.5931370258331299	-0.2959311008453369	-1.5455677509307861	0.8015617728233337	0.5522876977920532	0.5263477563858032	-3.815826892852783	-0.07063373923301697	-1.3443102836608887	-0.6731278896331787	0.12586265802383423	-0.04606805741786957
94	-0.6536274552345276	-1.16257643699646	0.28200533986091614	0.39555245637893677	-0.6102966070175171	-0.5626335740089417	0.26031002402305603	-0.9065973162651062	-1.241383671760559	-0.610213577747345	0.15053457021713257	1.3289450407028198	1.8561843728726046e-10	-0.6449259519577026	-0.007152267266064882	-0.06431376188993454	-1.4815998077392578	0.5353395342826843	-0.26977577805519104	0.27966371178627014	-0.1621047705411911	0.5748382210731506	0.3474259376525879	-0.12956270575523376	-1.4861494302749634	-2.7053117752075195	1.4458000659942627	0.8225992321968079	-0.9127780795097351	0.3927081823348999	-1.8454272747039795	0.5714908242225647	-1.2885481119155884	-0.3454670310020447	0.8204702138900757	4.397764682769775	-0.29519230127334595	-0.18334537744522095	0.053990550339221954	-0.6438228487968445	-0.2696186304092407	-1.5326887369155884	1.1623531579971313	0.5253546237945557	0.10994970798492432	-4.020066738128662	-0.05491897463798523	-1.2350889444351196	-0.6875358819961548	0.1181185245513916	-0.06631240248680115
