BUCAI-qaq/main/m/chapter3/record_data_x3_chars_288_1250/real_state.txt
timestep	qpos_left_hip_pitch_joint	qpos_right_hip_pitch_joint	qpos_waist_roll_joint	qpos_left_hip_roll_joint	qpos_right_hip_roll_joint	qpos_waist_yaw_joint	qpos_left_hip_yaw_joint	qpos_right_hip_yaw_joint	qpos_left_shoulder_pitch_joint	qpos_right_shoulder_pitch_joint	qpos_left_knee_joint	qpos_right_knee_joint	qpos_left_shoulder_roll_joint	qpos_right_shoulder_roll_joint	qpos_left_ankle_pitch_joint	qpos_right_ankle_pitch_joint	qpos_left_shoulder_yaw_joint	qpos_right_shoulder_yaw_joint	qpos_left_ankle_roll_joint	qpos_right_ankle_roll_joint	qpos_left_elbow_joint	qpos_right_elbow_joint	qpos_left_wrist_roll_joint	qpos_right_wrist_roll_joint	qvel_left_hip_pitch_joint	qvel_right_hip_pitch_joint	qvel_waist_roll_joint	qvel_left_hip_roll_joint	qvel_right_hip_roll_joint	qvel_waist_yaw_joint	qvel_left_hip_yaw_joint	qvel_right_hip_yaw_joint	qvel_left_shoulder_pitch_joint	qvel_right_shoulder_pitch_joint	qvel_left_knee_joint	qvel_right_knee_joint	qvel_left_shoulder_roll_joint	qvel_right_shoulder_roll_joint	qvel_left_ankle_pitch_joint	qvel_right_ankle_pitch_joint	qvel_left_shoulder_yaw_joint	qvel_right_shoulder_yaw_joint	qvel_left_ankle_roll_joint	qvel_right_ankle_roll_joint	qvel_left_elbow_joint	qvel_right_elbow_joint	qvel_left_wrist_roll_joint	qvel_right_wrist_roll_joint	root_vel_x	root_vel_y	root_vel_z
0	-0.42403656244277954	-0.2779847979545593	-0.0279691144824028	0.26914697885513306	0.056333277374506	-0.00861297082155943	0.1369599997997284	-0.16656699776649475	0.1403200477361679	0.19156944751739502	0.6206145882606506	0.45477232336997986	0.14671100676059723	-0.1434762179851532	-0.12367726862430573	-0.27834630012512207	-0.026436809450387955	-0.20250225067138672	-0.17224222421646118	-0.10599953681230545	0.39600029587745667	0.5776880979537964	0.6162963509559631	-0.565847635269165	6.983705997467041	7.322633743286133	-2.5704641342163086	-4.019145488739014	-0.14287462830543518	-1.5462324619293213	-4.800013065338135	6.735352516174316	1.2878613471984863	1.3533704280853271	-6.782680034637451	-9.463458061218262	0.7375893592834473	-0.30493444204330444	-2.7254345417022705	-3.0479354858398438	0.915668249130249	1.5895687341690063	3.6093130111694336	1.5853153467178345	-4.995133876800537	-7.580843925476074	-8.488685607910156	7.932468414306641	0.7779260873794556	-0.1398666948080063	-0.10602710396051407
1	-0.39562445878982544	-0.2594487965106964	-0.03540743514895439	0.25367915630340576	0.022113781422376633	-0.03725726157426834	0.08586352318525314	-0.21035660803318024	0.16599774360656738	0.2847491204738617	0.6062594652175903	0.45964160561561584	0.14812488853931427	-0.15062958002090454	-0.20752403140068054	-0.3329896628856659	-0.004975312389433384	-0.2468266487121582	-0.15618719160556793	-0.06705790013074875	0.23647254705429077	0.3777947723865509	0.5838217735290527	-0.5245100259780884	-4.872315883636475	-3.9826364517211914	1.0063481330871582	2.533709764480591	-2.1942930221557617	-2.22684645652771	2.3637375831604004	-6.535576820373535	0.7600029110908508	5.405971050262451	6.540243625640869	6.085436820983887	0.3858376741409302	1.5885138511657715	-3.3853368759155273	-1.3469367027282715	0.5781623125076294	-6.009840965270996	-0.43632981181144714	-0.122556172311306	-8.234628677368164	-10.00001335144043	-4.996216297149658	3.8996427059173584	0.1511235386133194	-0.013046269305050373	-0.3978516459465027
2	-0.5778749585151672	-0.34168100357055664	0.02396174892783165	0.364525705575943	0.00986739993095398	-0.0875665545463562	0.15762057900428772	-0.31074944138526917	0.1806211769580841	0.4531823694705963	0.8261244893074036	0.5542353391647339	0.14825676381587982	-0.15054209530353546	-0.17289195954799652	-0.37465372681617737	0.005219904240220785	-0.3575165867805481	-0.16250821948051453	-0.01681184023618698	0.1059412732720375	0.1802678257226944	0.5480977296829224	-0.45695075392723083	-9.340888977050781	-3.1589934825897217	2.7274599075317383	5.9377641677856445	-0.3981308341026306	-0.7412581443786621	3.6226770877838135	-3.984266996383667	-1.4590063095092773	10.454638481140137	11.135157585144043	3.142947196960449	0.747412919998169	3.724428653717041	5.124693870544434	-2.8302645683288574	-0.736285924911499	-9.997065544128418	-0.22683945298194885	2.3093461990356445	1.9971818923950195	-9.99996280670166	-2.4682798385620117	1.9321461915969849	0.09482689201831818	-0.022656487300992012	-0.6478594541549683
3	-0.6548805832862854	-0.3692004680633545	0.036234576255083084	0.4288623631000519	-0.017768295481801033	-0.1374829113483429	0.2125033587217331	-0.35328617691993713	0.2527545988559723	0.6219012141227722	0.9252870678901672	0.5968157649040222	0.15368802845478058	-0.15633544325828552	-0.0935891792178154	-0.43061456084251404	0.11533980071544647	-0.4246745705604553	-0.19058474898338318	-0.02430126443505287	0.11263443529605865	0.11566302925348282	0.5237199068069458	-0.3961479067802429	0.44636961817741394	-0.4895297884941101	-0.8311072587966919	0.866030752658844	-2.2991859912872314	-1.8147356510162354	2.3695240020751953	-1.1292579174041748	4.0747904777526855	8.105512619018555	0.07870952039957047	2.3255865573883057	0.42411303520202637	2.175044059753418	2.662874937057495	-1.9757072925567627	6.128175735473633	-4.739683628082275	-1.7707178592681885	0.2537219524383545	1.7107529640197754	0.5170633792877197	-0.8331235647201538	-0.10196936130523682	0.6179930567741394	-0.03374415263533592	-0.22703054547309875
4	-0.5743805766105652	-0.34821203351020813	-0.00022886205988470465	0.4227469861507416	-0.054571788758039474	-0.18970966339111328	0.25984930992126465	-0.339630126953125	0.40626928210258484	0.7342419028282166	0.8628663420677185	0.6153063774108887	0.155790314078331	-0.1601092666387558	-0.07886868715286255	-0.4583369791507721	0.3146076500415802	-0.41586530208587646	-0.23288904130458832	-0.016736410558223724	0.11596295237541199	0.11288377642631531	0.5197176337242126	-0.39486464858055115	5.193121910095215	1.854343056678772	-2.1694178581237793	-0.7254281044006348	-1.2977365255355835	-1.3246984481811523	1.787652611732483	1.522701382637024	7.214743614196777	4.69966459274292	-4.023743629455566	-0.014709169045090675	0.275020569562912	1.4372553825378418	-0.032382119446992874	-0.9934937953948975	9.999959945678711	-0.3771964907646179	-2.134888172149658	0.18830808997154236	2.627603530883789	2.2712953090667725	0.7626320719718933	-1.1650325059890747	0.9005059599876404	-0.1092558205127716	0.02774442546069622
5	-0.5691812634468079	-0.331689715385437	-0.0160631462931633	0.44175246357917786	-0.047486379742622375	-0.22367876768112183	0.2283659726381302	-0.3148604929447174	0.5427733063697815	0.7870054244995117	0.8939411044120789	0.6095003485679626	0.16117583215236664	-0.16170035302639008	-0.08832070231437683	-0.4691544771194458	0.5140169858932495	-0.3865850269794464	-0.22509366273880005	-0.01700189709663391	0.1190151497721672	0.10721027106046677	0.4478362202644348	-0.3293105661869049	-3.1261672973632812	-0.31261375546455383	-0.5122432708740234	2.218392848968506	0.9647244215011597	-0.9950891733169556	-2.322283983230591	1.3116859197616577	5.300901412963867	1.0526387691497803	5.5976152420043945	-0.12174329906702042	0.33307409286499023	1.2547541856765747	-0.26261892914772034	-0.26107195019721985	9.759029388427734	0.27690160274505615	1.2062908411026	-0.3167911469936371	2.045807361602783	1.6135332584381104	-0.3690263032913208	1.537424087524414	0.42734625935554504	-0.1682465523481369	-0.0991513654589653
6	-0.6299799084663391	-0.3669353127479553	-0.034032758325338364	0.48940595984458923	-0.02772579900920391	-0.21576416492462158	0.2112438827753067	-0.25399279594421387	0.6529980897903442	0.8007382154464722	1.0000405311584473	0.6267993450164795	0.17058002948760986	-0.16949589550495148	-0.0885261669754982	-0.46888014674186707	0.6830437779426575	-0.31697946786880493	-0.22745631635189056	-0.015184943564236164	0.11624724417924881	0.1066165640950203	0.4390439987182617	-0.31130242347717285	-2.2175567150115967	-1.8621553182601929	-0.7512481212615967	1.581817626953125	0.9109933972358704	1.0896552801132202	-0.715778112411499	3.4652273654937744	4.2535858154296875	0.055255226790905	3.584691047668457	0.7047308087348938	-0.6725377440452576	0.6184341907501221	-0.009957421571016312	0.30069538950920105	8.61512565612793	2.5999231338500977	-0.5516429543495178	1.6182332038879395	1.5335735082626343	1.770151138305664	0.7286646366119385	-0.016934126615524292	0.25517603754997253	-0.04433706775307655	-0.046960122883319855
7	-0.6322862505912781	-0.38010576367378235	-0.0634315088391304	0.4656403362751007	-0.022945312783122063	-0.21851296722888947	0.19054915010929108	-0.202290877699852	0.7461686730384827	0.8024886250495911	0.9722301363945007	0.6138811707496643	0.17756226658821106	-0.17425575852394104	-0.08464451879262924	-0.4671648442745209	0.8232370018959045	-0.22160236537456512	-0.24227777123451233	-0.024705158546566963	0.11492694914340973	0.10469840466976166	0.41407471895217896	-0.31158122420310974	1.4594426155090332	0.472353458404541	-1.634606122970581	-2.587614059448242	-0.0952606350183487	-0.8697988986968994	-0.9372242093086243	1.9179835319519043	3.8135950565338135	-0.614162802696228	-4.9404425621032715	-1.9660686254501343	-0.2043292224407196	0.7273882627487183	-0.11251118779182434	0.18263885378837585	7.240171432495117	3.649531364440918	-0.7245376706123352	0.7324249744415283	1.9557729959487915	2.1665568351745605	-0.22688519954681396	-0.7080250978469849	0.376994252204895	-0.0644599199295044	0.15979428589344025
8	-0.6323313117027283	-0.36518988013267517	-0.056415803730487823	0.41813936829566956	-0.004201708361506462	-0.21938946843147278	0.12809616327285767	-0.18699531257152557	0.787947416305542	0.8237689733505249	0.883675754070282	0.563931405544281	0.18628926575183868	-0.17624138295650482	-0.13314850628376007	-0.450494647026062	0.8946563601493835	-0.2218618243932724	-0.26058274507522583	-0.01982077769935131	0.10510727763175964	0.10471086204051971	0.3745824098587036	-0.3040194809436798	-1.282289981842041	1.1633083820343018	1.010707139968872	-2.191037178039551	1.4174717664718628	0.2608907222747803	-4.0345635414123535	0.6100302934646606	0.7992017865180969	0.8156906962394714	-2.834944725036621	-3.4250266551971436	-0.616499662399292	-0.22665396332740784	-3.513292074203491	1.1502121686935425	3.621283769607544	-1.1657419204711914	-0.8864086270332336	-0.13893359899520874	1.0221316814422607	2.2142715454101562	-0.4911613464355469	0.1303640604019165	0.34591251611709595	0.17547281086444855	0.1944536417722702
9	-0.683704137802124	-0.35679924488067627	-0.033923931419849396	0.40307390689849854	0.025819920003414154	-0.17615488171577454	0.10152778029441833	-0.15872211754322052	0.7959710955619812	0.8715187907218933	0.8827436566352844	0.5164096355438232	0.20274339616298676	-0.17797012627124786	-0.21127602458000183	-0.42809733748435974	0.9217398762702942	-0.28064820170402527	-0.2636493146419525	-0.017767582088708878	0.10328070819377899	0.10501030832529068	0.3305787742137909	-0.3153250813484192	-3.09482479095459	0.1648852527141571	0.9014269113540649	-0.42747825384140015	1.159239649772644	1.9430497884750366	0.1342042088508606	1.826104998588562	0.30243274569511414	1.7393852472305298	1.1563496589660645	-1.949983835220337	-0.9508824348449707	-0.27153199911117554	-3.873256206512451	1.0788400173187256	2.6840479373931885	-3.1863739490509033	0.050038762390613556	1.7296371459960938	1.0383455753326416	2.1374597549438477	-0.4663001298904419	1.901748538017273	0.3121165931224823	0.2833118140697479	0.09522223472595215
10	-0.7427236437797546	-0.37093386054039	-0.05231818929314613	0.359123557806015	0.015695074573159218	-0.15271681547164917	0.10420946031808853	-0.1220233216881752	0.840891420841217	0.9169085025787354	0.9076457023620605	0.5260242223739624	0.22521322965621948	-0.18072295188903809	-0.21567177772521973	-0.4292767345905304	0.9640123248100281	-0.3117360472679138	-0.25572142004966736	-0.005626958329230547	0.10431027412414551	0.10478208214044571	0.32037773728370667	-0.3148094713687897	-2.483961582183838	-1.0782489776611328	-1.5738756656646729	-3.0345680713653564	-1.2788960933685303	0.3436567187309265	-0.09644903242588043	1.7850607633590698	2.42602801322937	1.4042683839797974	0.8680213093757629	1.7883490324020386	-0.25193923711776733	1.2886366844177246	1.8145407438278198	-0.4027871787548065	3.9266459941864014	-2.8831210136413574	0.5188300609588623	1.3024107217788696	1.4553536176681519	2.2757959365844727	1.3622000217437744	-1.0316388607025146	0.382931113243103	0.19428090751171112	-0.028651123866438866
11	-0.7397571802139282	-0.4330952763557434	-0.05638796091079712	0.30722135305404663	-0.004176018759608269	-0.13862651586532593	0.08055824786424637	-0.101186104118824	0.8862584829330444	0.959568202495575	0.8325207829475403	0.6587904691696167	0.24948552250862122	-0.18294264376163483	-0.06633581966161728	-0.4091954827308655	0.9818969368934631	-0.32210659980773926	-0.2318759560585022	0.06880118697881699	0.10626515746116638	0.10523825883865356	0.3470688462257385	-0.3107164800167084	1.2771885395050049	-3.940868616104126	1.8536007404327393	2.4527313709259033	0.7069913148880005	0.21718600392341614	0.3773850202560425	0.39167651534080505	1.6647799015045166	1.2235229015350342	-0.7189831733703613	8.853287696838379	-1.0754950046539307	0.3307581841945648	-0.9765119552612305	3.118272066116333	2.5419580936431885	-1.4160577058792114	5.368564605712891	4.364954948425293	0.4401503801345825	2.3924970626831055	0.37623727321624756	0.6051961183547974	0.4816023111343384	0.18981152772903442	-0.1333416849374771
12	-0.6896873712539673	-0.5300654768943787	-0.019034191966056824	0.306878924369812	-0.04570741206407547	-0.15950457751750946	0.032960329204797745	-0.17166376113891602	0.8841263055801392	0.9822796583175659	0.814128577709198	0.8808586597442627	0.26510488986968994	-0.18489211797714233	-0.14391940832138062	-0.36608457565307617	0.9860496520996094	-0.28356900811195374	-0.20704872906208038	0.10614656656980515	0.10752885788679123	0.1045350730419159	0.2878457307815552	-0.31506773829460144	3.3537886142730713	-5.293335437774658	2.232652425765991	-0.2477657049894333	-3.261962652206421	-2.046663761138916	-2.297508955001831	-4.468550205230713	-1.436156988143921	-0.1681443452835083	-2.259091377258301	11.84656047821045	-1.014526128768921	0.5824770927429199	-4.568504333496094	1.6602026224136353	1.777559757232666	1.1565231084823608	1.4252609014511108	0.9074724316596985	1.1817606687545776	2.1474521160125732	-0.7193450927734375	-0.037869930267333984	0.4425971508026123	0.2572525441646576	-0.1058596819639206
13	-0.6347478628158569	-0.6299753785133362	0.03938953951001167	0.301717609167099	-0.11249343305826187	-0.19941647350788116	-0.0360771045088768	-0.23057903349399567	0.8397490978240967	0.9822618961334229	0.7713923454284668	1.0906479358673096	0.26283058524131775	-0.18686428666114807	-0.22483214735984802	-0.41061583161354065	0.955976128578186	-0.17645050585269928	-0.16170145571231842	0.10071655362844467	0.10578948259353638	0.10717056691646576	0.20250673592090607	-0.3050035238265991	2.1002566814422607	-4.592574596405029	3.1592788696289062	0.08711232244968414	-2.9289186000823975	-1.9319883584976196	-3.5325751304626465	-1.7128937244415283	-3.2551426887512207	-1.0584545135498047	-1.6634020805358887	8.542733192443848	-1.670083999633789	-0.6942436695098877	-3.1553146839141846	-4.438271522521973	0.20930510759353638	6.0998101234436035	2.4212045669555664	-0.6302740573883057	0.929416298866272	2.2221603393554688	-0.6692357063293457	-0.9150745868682861	0.34489116072654724	0.32244637608528137	-0.07132827490568161
14	-0.6329444646835327	-0.7011464834213257	0.10376754403114319	0.31296563148498535	-0.16347336769104004	-0.21137559413909912	-0.06757144629955292	-0.2542213499546051	0.7411068677902222	0.9630166292190552	0.7724080085754395	1.1684554815292358	0.2592777907848358	-0.19060619175434113	-0.2498845010995865	-0.47740504145622253	0.8476725816726685	-0.035497959703207016	-0.14230488240718842	0.06998831778764725	0.10684125870466232	0.10830694437026978	0.08512350916862488	-0.30881884694099426	-1.1971851587295532	-2.967090129852295	2.5245108604431152	0.497774213552475	-2.528792142868042	-0.8007307052612305	-0.040211644023656845	-0.8668472170829773	-5.807494640350342	-2.225341320037842	1.0401502847671509	0.9349660277366638	-0.7701222896575928	-0.8291057348251343	0.2707841098308563	-2.419025182723999	-3.5738205909729004	7.676870822906494	0.8143343329429626	-1.7659233808517456	1.7395617961883545	1.9105687141418457	-0.995039701461792	0.556380569934845	0.1553884744644165	0.33916065096855164	0.07402019947767258
15	-0.6814379096031189	-0.7396674752235413	0.1456921249628067	0.31677350401878357	-0.20353181660175323	-0.20623621344566345	-0.06897212564945221	-0.26900526881217957	0.5968340635299683	0.9279444217681885	0.8117653727531433	1.104290246963501	0.25601768493652344	-0.19192452728748322	-0.21809659898281097	-0.49361228942871094	0.7086455225944519	0.05353430286049843	-0.12648151814937592	0.044848814606666565	0.11039785295724869	0.10480104386806488	-0.0013695157831534743	-0.31309959292411804	-2.5599098205566406	-1.4782441854476929	1.208676815032959	-0.2332964986562729	-1.794352650642395	0.300656795501709	0.007021304219961166	-0.3653021454811096	-7.980009078979492	-2.647876501083374	1.8732728958129883	-5.333056449890137	-0.9052263498306274	-0.251031756401062	2.441133737564087	0.09013652801513672	-4.149734020233154	3.762958288192749	0.7342557907104492	-1.038246750831604	2.099703788757324	2.01202392578125	-0.6666522026062012	0.18317516148090363	0.03925260528922081	0.31902745366096497	0.17604611814022064
16	-0.7262405157089233	-0.7552995681762695	0.14611126482486725	0.30959418416023254	-0.2246880829334259	-0.21123433113098145	-0.054610054939985275	-0.261568158864975	0.47501787543296814	0.8793428540229797	0.8398365378379822	0.9586102962493896	0.254047691822052	-0.19244615733623505	-0.1698935478925705	-0.45015671849250793	0.6082417964935303	0.0946153849363327	-0.14050403237342834	0.03624579310417175	0.10791733860969543	0.1044616848230362	-0.04891389235854149	-0.30632856488227844	-1.7293930053710938	-0.21158167719841003	-0.5448068380355835	-0.5243425965309143	-0.6352928876876831	-1.1526004076004028	0.8810684680938721	0.7118797302246094	-5.789206504821777	-3.127612590789795	0.7023729085922241	-8.103816986083984	-0.46735700964927673	0.1188320517539978	2.4183669090270996	3.37949800491333	-2.569304943084717	1.3535799980163574	-1.129102110862732	-0.22235240042209625	2.1910293102264404	2.3291828632354736	-0.6235661506652832	-0.8229104280471802	0.02093760296702385	0.08602052927017212	0.17133785784244537
17	-0.7268581986427307	-0.726327121257782	0.13412795960903168	0.31842008233070374	-0.22303232550621033	-0.23195138573646545	-0.006468778010457754	-0.2639104723930359	0.3851385712623596	0.8645475506782532	0.8353671431541443	0.7765291333198547	0.252712607383728	-0.1911931186914444	-0.15256574749946594	-0.27641212940216064	0.565211832523346	0.062264878302812576	-0.18395215272903442	0.034160587936639786	0.10596240311861038	0.1035737544298172	-0.09772513061761856	-0.3072070777416229	1.4387352466583252	2.8310883045196533	-0.7248443365097046	0.8379480838775635	0.3278068006038666	-1.25925612449646	3.2404723167419434	-0.9660096168518066	-4.4716081619262695	-0.4333013594150543	-1.0330679416656494	-9.70385456085205	-0.7966078519821167	-0.7213867902755737	-0.08861516416072845	11.791773796081543	0.5448573231697083	-1.5619546175003052	-2.25482439994812	-0.04286465421319008	1.8715144395828247	2.2126970291137695	-0.5136147737503052	1.0661154985427856	0.2907549738883972	-0.1091538518667221	0.1081702932715416
18	-0.7048629522323608	-0.6714168190956116	0.11985328793525696	0.3307810127735138	-0.21528764069080353	-0.24186588823795319	0.02576063945889473	-0.28251200914382935	0.3042433559894562	0.9074403047561646	0.8436575531959534	0.6545288562774658	0.25179946422576904	-0.19745318591594696	-0.15985065698623657	-0.08828974515199661	0.5449188351631165	0.014713545329868793	-0.20861373841762543	0.04573627561330795	0.10550262778997421	0.10480750352144241	-0.14717324078083038	-0.31646406650543213	0.5615771412849426	1.790832757949829	-0.6115341186523438	0.6706309914588928	0.29838496446609497	0.25605976581573486	0.5758298635482788	-0.11473398655653	-4.811023712158203	2.701695442199707	1.6048405170440674	-0.2788122296333313	-0.7665696144104004	0.38576626777648926	-0.08279202878475189	-1.5870513916015625	0.9849914908409119	-2.802457809448242	-0.7734650373458862	1.477632761001587	2.0015671253204346	2.2950336933135986	-0.1749722957611084	-0.6414752006530762	0.3906995356082916	-0.22018790245056152	-0.14602446556091309
19	-0.7060590386390686	-0.6340863108634949	0.11144080013036728	0.3554975092411041	-0.20038293302059174	-0.23586887121200562	0.022817030549049377	-0.2887182831764221	0.25797131657600403	0.973147988319397	0.897188127040863	0.6610074043273926	0.2535087764263153	-0.19827570021152496	-0.15059946477413177	-0.13354529440402985	0.5166321992874146	-0.03418158367276192	-0.22629491984844208	0.06755214929580688	0.10331648588180542	0.10487640649080276	-0.20040833950042725	-0.3017456829547882	-0.05928871035575867	2.194171190261841	-0.5097851753234863	1.3228989839553833	0.8330186605453491	0.4106971025466919	-0.2723168730735779	-0.4027840495109558	-2.15006160736084	2.8922739028930664	2.802029609680176	0.20960471034049988	-0.6012366414070129	0.6744726896286011	0.8489711880683899	-2.1019716262817383	-1.3093645572662354	-2.7710957527160645	-0.7936514019966125	0.9520083665847778	2.0429580211639404	2.1271660327911377	-0.5303760766983032	-0.35290783643722534	0.4460078477859497	-0.2970530688762665	-0.18597930669784546
20	-0.6858511567115784	-0.5744696259498596	0.08246774226427078	0.35665762424468994	-0.20110368728637695	-0.25785788893699646	0.007152343634516001	-0.3072945177555084	0.266257643699646	1.0185198783874512	0.9264165163040161	0.6550638675689697	0.2509309947490692	-0.1993308961391449	-0.14445792138576508	-0.18561142683029175	0.4947831332683563	-0.05871596187353134	-0.22930468618869781	0.0973348394036293	0.10392199456691742	0.10335139185190201	-0.23898638784885406	-0.2978236973285675	2.1245532035827637	3.557844638824463	-2.0124614238739014	-0.8055007457733154	-0.5800274014472961	-1.1367684602737427	-0.7661212086677551	-1.1567091941833496	0.31218013167381287	1.6218256950378418	0.03461570292711258	-0.9360196590423584	0.18224667012691498	1.3217214345932007	-0.1523093283176422	-2.735732078552246	-0.7603921890258789	-1.8211655616760254	-0.018003830686211586	1.5897798538208008	2.098978042602539	2.3022215366363525	-0.37129783630371094	-0.24696266651153564	0.5244836807250977	-0.36867886781692505	-0.06568638235330582
21	-0.6451452970504761	-0.5294995307922363	0.05320722237229347	0.3478676676750183	-0.19759167730808258	-0.2564932405948639	-0.0025573859456926584	-0.30832454562187195	0.2977551519870758	1.0443679094314575	0.9161604046821594	0.640195906162262	0.2549794316291809	-0.20017147064208984	-0.1701522022485733	-0.22044889628887177	0.4592094421386719	-0.0940864086151123	-0.23576390743255615	0.11244656890630722	0.107331283390522	0.10361408442258835	-0.23327456414699554	-0.30105966329574585	1.5044517517089844	1.259208083152771	-0.8732403516769409	-0.2605861723423004	0.7693457007408142	1.3753371238708496	-0.7008920907974243	0.7513888478279114	0.9751781225204468	0.6162228584289551	-0.6642948389053345	-0.5985082387924194	-1.1848992109298706	0.5858216285705566	-1.6786741018295288	-0.6341829299926758	0.20350635051727295	-2.4314632415771484	-0.28930366039276123	0.28231480717658997	0.5474250912666321	2.06878924369812	0.21449898183345795	0.15698100626468658	0.39758235216140747	-0.12787477672100067	-0.035563014447689056
22	-0.6441331505775452	-0.5292565822601318	0.04310297220945358	0.3453301191329956	-0.18644297122955322	-0.22356262803077698	0.0006285334820859134	-0.2921472489833832	0.30878856778144836	1.0494606494903564	0.9116175174713135	0.643297016620636	0.2580615282058716	-0.20051255822181702	-0.21226537227630615	-0.22634077072143555	0.4327563941478729	-0.11848389357328415	-0.24174484610557556	0.1156010776758194	0.1099352240562439	0.10444925725460052	-0.2585574686527252	-0.29581570625305176	-0.8698250651359558	-0.3492104411125183	-0.07532209157943726	-0.1047174334526062	0.36861148476600647	1.4155739545822144	0.6567563414573669	0.314330518245697	-0.20969527959823608	-0.5198114514350891	-0.056720077991485596	0.35495448112487793	-1.359156847000122	0.5997481942176819	-2.235909938812256	-0.020261939615011215	0.2276483178138733	-1.613276720046997	-0.3530849814414978	0.09565795958042145	0.49128881096839905	2.0429279804229736	1.067408561706543	-1.5311827659606934	0.21413253247737885	0.06986946612596512	-0.06555894017219543
23	-0.6716005206108093	-0.5411122441291809	0.040602173656225204	0.3398967981338501	-0.18935853242874146	-0.2008194476366043	0.0398365743458271	-0.2899024486541748	0.3019271492958069	1.042031168937683	0.9027646780014038	0.6567780375480652	0.25520798563957214	-0.20010459423065186	-0.23735299706459045	-0.22916963696479797	0.4232223331928253	-0.11327540874481201	-0.2483171969652176	0.10685807466506958	0.10919905453920364	0.10424990206956863	-0.29946279525756836	-0.2669304609298706	-1.4735000133514404	-0.3417763113975525	0.09347860515117645	-0.4308054447174072	-0.2812703847885132	1.0817538499832153	2.324638605117798	-0.3596034049987793	-1.0412383079528809	-0.7256657481193542	-0.8595647811889648	0.42776307463645935	-1.0489273071289062	0.4117908477783203	-0.646311342716217	-0.20142081379890442	1.0878485441207886	0.3761638402938843	-0.3275897204875946	-0.519831120967865	0.6022185683250427	1.6905860900878906	-0.4859795570373535	0.1460995078086853	0.1733403205871582	0.17677195370197296	-0.08515084534883499
24	-0.7092592716217041	-0.5345770716667175	0.046982165426015854	0.33299535512924194	-0.2069748044013977	-0.20755387842655182	0.08492070436477661	-0.323361873626709	0.28745976090431213	1.0298187732696533	0.906435489654541	0.6681233644485474	0.25652337074279785	-0.19900397956371307	-0.24231943488121033	-0.23921476304531097	0.42739272117614746	-0.07856057584285736	-0.21436461806297302	0.11417815834283829	0.10700112581253052	0.10267386585474014	-0.32881617546081543	-0.26484858989715576	-1.8833284378051758	0.8692789673805237	0.5295642614364624	-0.11495983600616455	-1.1041980981826782	-1.2523927688598633	2.105583667755127	-2.5531952381134033	-1.0460996627807617	-1.2490252256393433	0.8913249969482422	0.523340106010437	-0.9878186583518982	0.08989471197128296	0.21023160219192505	-0.5135060548782349	1.9784408807754517	1.899564504623413	2.078381299972534	0.7991581559181213	0.9931722283363342	2.1582818031311035	-0.08508849143981934	-0.5628468990325928	0.20822487771511078	0.15435801446437836	-0.10200004279613495
25	-0.6966884136199951	-0.5188397169113159	0.041910819709300995	0.3282245397567749	-0.23318634927272797	-0.2247418463230133	0.12603092193603516	-0.3499554395675659	0.29661130905151367	1.0074704885482788	0.9031918048858643	0.6942293643951416	0.25630155205726624	-0.19867123663425446	-0.262206494808197	-0.24294379353523254	0.4634934067726135	-0.03205178305506706	-0.19104982912540436	0.13868793845176697	0.10467486828565598	0.10306946188211441	-0.3309648931026459	-0.26239797472953796	2.4396047592163086	1.0342371463775635	-0.24746419489383698	-0.5974966287612915	-1.0650867223739624	-0.19660073518753052	1.0607181787490845	-0.6070888638496399	0.15514183044433594	-1.494510293006897	-1.5881990194320679	1.3482741117477417	-0.6642993688583374	0.5973783731460571	-2.048217535018921	0.4151766896247864	2.306340217590332	1.678137183189392	0.4716506898403168	1.3004817962646484	1.8148977756500244	2.291625499725342	0.4034743905067444	-0.07581198215484619	0.3959128260612488	0.09281138330698013	-0.005784645210951567
26	-0.6236120462417603	-0.5064571499824524	0.05387301370501518	0.3247085213661194	-0.23058776557445526	-0.21591193974018097	0.11386259645223618	-0.34112349152565	0.3216440975666046	0.9892516136169434	0.8475546836853027	0.7324406504631042	0.25323277711868286	-0.1980099380016327	-0.32586193084716797	-0.21932266652584076	0.44248902797698975	-0.012217099778354168	-0.18592022359371185	0.1397259682416916	0.10422570258378983	0.10316959768533707	-0.33149784803390503	-0.26775696873664856	4.265352725982666	0.4082444906234741	0.8593643307685852	0.2034856677055359	0.6860169172286987	1.0189963579177856	-0.8506989479064941	1.0719729661941528	0.7509334087371826	-1.2483339309692383	-3.6263086795806885	2.0083353519439697	0.4392988085746765	1.1589852571487427	-3.144653558731079	1.8070708513259888	-1.8400301933288574	-0.13003087043762207	-0.21718810498714447	-1.1821151971817017	2.5150327682495117	2.450139284133911	0.2301943600177765	0.07464507222175598	0.42984315752983093	0.05751112475991249	0.058610640466213226
27	-0.5693116784095764	-0.5265069603919983	0.08946441113948822	0.358242392539978	-0.18860477209091187	-0.2126617133617401	0.11540156602859497	-0.2939273416996002	0.3634856939315796	0.9587560892105103	0.7995783090591431	0.7931243777275085	0.2544049918651581	-0.1964953988790512	-0.3771924376487732	-0.19863401353359222	0.41117724776268005	0.004041724372655153	-0.16624096035957336	0.1424103081226349	0.10518575459718704	0.10331732034683228	-0.3242323398590088	-0.26534736156463623	1.6708073616027832	-1.8136066198349	2.2166690826416016	1.9908567667007446	2.5536999702453613	0.006658345460891724	-0.33556801080703735	2.2789194583892822	1.523684024810791	-2.116171360015869	-1.6525139808654785	3.5435924530029297	-0.6569525599479675	0.656009316444397	-2.040652275085449	0.4306066036224365	-0.5679271221160889	0.07404768466949463	1.7177231311798096	0.45384085178375244	2.0772554874420166	2.3566246032714844	-0.283337265253067	-0.3598875105381012	0.22968469560146332	0.01316785253584385	0.03859596699476242
28	-0.5658779740333557	-0.5864561200141907	0.10813230276107788	0.3861125111579895	-0.16163794696331024	-0.21577738225460052	0.10846544802188873	-0.26998817920684814	0.39998388290405273	0.9097321629524231	0.796165943145752	0.8781678676605225	0.255217969417572	-0.19395266473293304	-0.3887774348258972	-0.2649996876716614	0.39715951681137085	0.057716477662324905	-0.1569000631570816	0.13820724189281464	0.10568270832300186	0.10343482345342636	-0.32857879996299744	-0.26202040910720825	-0.3979611098766327	-3.3307883739471436	0.44646039605140686	1.1026973724365234	0.7770795822143555	-0.057740598917007446	-0.09196382761001587	0.5183074474334717	1.0865739583969116	-3.115107297897339	0.47444480657577515	4.005241870880127	-1.237389326095581	-0.23645886778831482	-0.015910491347312927	-5.2981414794921875	1.1522252559661865	2.9165170192718506	0.9302265644073486	-0.4026683270931244	1.7835530042648315	2.1597020626068115	0.23980939388275146	-0.09963446855545044	0.030509093776345253	-0.02764785662293434	0.014100772328674793
29	-0.5755826234817505	-0.6326515078544617	0.09649308770895004	0.40345582365989685	-0.14582251012325287	-0.19117698073387146	0.1225922703742981	-0.2594680190086365	0.4079030156135559	0.861971378326416	0.8230557441711426	0.8984149694442749	0.25308987498283386	-0.1931069940328598	-0.3736618757247925	-0.35741567611694336	0.3632465600967407	0.10568393766880035	-0.14740127325057983	0.12586039304733276	0.10571616888046265	0.10367722064256668	-0.33450570702552795	-0.2660311162471771	-0.23032647371292114	-1.1095714569091797	-1.2018020153045654	0.6395566463470459	0.8591379523277283	1.4646124839782715	1.233052372932434	0.40859276056289673	-0.3232657015323639	-2.880826711654663	1.5927177667617798	-1.4078937768936157	-1.0138194561004639	-0.1688680648803711	1.1669833660125732	-4.018298625946045	0.08235150575637817	2.029543399810791	0.4716988801956177	-0.6730063557624817	1.7835395336151123	2.1787354946136475	1.047979474067688	0.0031422600150108337	0.046192217618227005	-0.04646359756588936	0.06272858381271362
30	-0.564687192440033	-0.6232215166091919	0.0654887706041336	0.40930625796318054	-0.12632258236408234	-0.16943533718585968	0.15151768922805786	-0.2560163140296936	0.4090733826160431	0.8283931612968445	0.8480626940727234	0.8242228627204895	0.2504556179046631	-0.19262506067752838	-0.3506161570549011	-0.39293336868286133	0.3417247533798218	0.09023425728082657	-0.15895169973373413	0.1153503805398941	0.10462886095046997	0.10239385068416595	-0.3305168151855469	-0.2696574926376343	1.3888134956359863	1.4032707214355469	-1.6539039611816406	-0.05214238911867142	0.9928022623062134	0.5796840190887451	1.7476824522018433	0.07476396858692169	-0.4706263542175293	-1.821374773979187	0.20583723485469818	-4.683810710906982	-0.1506185531616211	0.5019322037696838	0.8311597108840942	-0.380799263715744	-0.8839012384414673	-1.8801906108856201	-1.236112117767334	-0.46652844548225403	2.3190572261810303	2.4078259468078613	-0.01907757669687271	0.21314862370491028	0.15308353304862976	-0.10692284256219864	0.08671202510595322
31	-0.5165632963180542	-0.5965321660041809	0.038884036242961884	0.4138302803039551	-0.09302554279565811	-0.1616533398628235	0.1950216442346573	-0.24627630412578583	0.4141550660133362	0.8005704283714294	0.8373357057571411	0.7406734228134155	0.2492503672838211	-0.19371779263019562	-0.3515581488609314	-0.34565967321395874	0.31459376215934753	0.09020966291427612	-0.20050126314163208	0.10538589954376221	0.10462511330842972	0.1031172126531601	-0.3309669494628906	-0.2691459059715271	2.9886651039123535	1.2437845468521118	-0.9132483005523682	0.43692198395729065	1.9914977550506592	0.5175761580467224	2.3950064182281494	0.26308125257492065	-0.4454742670059204	-1.5737720727920532	-1.223152995109558	-3.588146209716797	-0.17122229933738708	0.4088762402534485	-0.436381459236145	3.8284924030303955	-0.7130014896392822	-0.2420506477355957	-2.570916175842285	-0.4899408519268036	2.2861993312835693	2.382974863052368	-0.049456700682640076	0.031331151723861694	0.1835380494594574	-0.1589251607656479	0.04245287925004959
32	-0.4722668528556824	-0.5795217752456665	0.03975720331072807	0.4300718605518341	-0.048766717314720154	-0.15625619888305664	0.2269304245710373	-0.2510228157043457	0.41230669617652893	0.7949860095977783	0.8274359107017517	0.6917198300361633	0.2499939352273941	-0.19233553111553192	-0.3702360987663269	-0.226643905043602	0.2851503789424896	0.09555703401565552	-0.24132733047008514	0.0829143077135086	0.1040269061923027	0.10310269892215729	-0.3516372740268707	-0.26346221566200256	1.746755838394165	0.8285831212997437	0.5419068932533264	0.9290199875831604	2.243691921234131	-0.003904297947883606	1.066236138343811	-0.37844565510749817	-0.5461593270301819	-0.3675838112831116	-0.027586709707975388	-2.111462354660034	-0.707549512386322	-0.6073998212814331	-0.8921441435813904	7.112359046936035	0.12783145904541016	0.624690055847168	-1.7540358304977417	-1.2778222560882568	1.8133392333984375	2.1809141635894775	-0.7223941087722778	-0.025265634059906006	0.1794414520263672	-0.11160571873188019	-0.09672020375728607
33	-0.4614514410495758	-0.5699899196624756	0.05465976521372795	0.44320058822631836	-0.02565271221101284	-0.15956707298755646	0.22506994009017944	-0.2532768249511719	0.39979374408721924	0.8136774301528931	0.8459388017654419	0.6865923404693604	0.25060057640075684	-0.19172658026218414	-0.38523194193840027	-0.1680298149585724	0.26588892936706543	0.09668174386024475	-0.27139711380004883	0.03275534510612488	0.10593816637992859	0.1025095283985138	-0.3843052387237549	-0.265165776014328	0.0722317099571228	0.4994531571865082	1.069765329360962	0.6876776218414307	0.3752876818180084	-0.3928498327732086	-0.6186162233352661	-0.3214929401874542	-1.021759271621704	0.6102758049964905	1.2131167650222778	0.7656272053718567	-0.5943173766136169	-0.4090651571750641	-0.5714154243469238	-0.9973049759864807	-0.22160232067108154	0.3087960183620453	-1.4126218557357788	-2.0850207805633545	1.5850520133972168	2.204376697540283	-0.15107011795043945	-0.18456508219242096	0.14287829399108887	-0.04616013541817665	-0.1739775836467743
34	-0.4792068302631378	-0.5612567663192749	0.06292383372783661	0.4488660395145416	-0.027156386524438858	-0.1717042475938797	0.20345070958137512	-0.26001477241516113	0.3891139328479767	0.8225005865097046	0.8854061365127563	0.6973207592964172	0.2521217465400696	-0.19118936359882355	-0.3822226822376251	-0.1980804055929184	0.25741294026374817	0.10570333153009415	-0.28859686851501465	0.01906062662601471	0.10603634268045425	0.10354309529066086	-0.43318626284599304	-0.2637676000595093	-1.2840280532836914	0.6367051005363464	0.031439200043678284	0.0953858345746994	-0.16659365594387054	-1.0619031190872192	-1.1616344451904297	-0.2037392109632492	-0.3911948800086975	-0.5773972272872925	2.328669309616089	0.051406003534793854	-0.7093280553817749	-1.0443488359451294	0.6403647661209106	-1.575647234916687	1.050539493560791	1.4109137058258057	-0.5784244537353516	-0.639205276966095	1.2754499912261963	1.927092432975769	-0.20212280750274658	-0.13844537734985352	0.034219905734062195	-0.05707119032740593	-0.18250180780887604
35	-0.4948294162750244	-0.5579625368118286	0.060316022485494614	0.4555887281894684	-0.025946637615561485	-0.16933569312095642	0.19835777580738068	-0.25203990936279297	0.38088491559028625	0.8221518397331238	0.9203599691390991	0.7005211114883423	0.24991869926452637	-0.19129475951194763	-0.3736194968223572	-0.2184491902589798	0.2509201765060425	0.09467270225286484	-0.294297456741333	0.051574889570474625	0.10657919943332672	0.10322704911231995	-0.4521882236003876	-0.26993995904922485	-0.3496074080467224	-0.060364898294210434	0.04411568492650986	0.6062607765197754	0.4004562199115753	0.14055828750133514	0.04131796956062317	0.4718620777130127	-0.42618322372436523	-0.7791905999183655	1.0257205963134766	0.10528610646724701	-0.5573536157608032	-0.6893125176429749	0.20150282979011536	0.09228552877902985	0.6262927651405334	-0.13282322883605957	-0.07897403091192245	2.073085308074951	1.1828850507736206	2.032848834991455	-0.07431340217590332	0.5481923222541809	-0.02390970103442669	-0.0424538217484951	-0.0942678451538086
36	-0.5086320042610168	-0.5603060126304626	0.0707348883152008	0.4592524468898773	-0.019199024885892868	-0.16805033385753632	0.1691751778125763	-0.263649582862854	0.3544608950614929	0.8338577151298523	0.9264705777168274	0.7009482979774475	0.24910418689250946	-0.19463379681110382	-0.37803739309310913	-0.2181054949760437	0.22976846992969513	0.06326598674058914	-0.2890416383743286	0.05390860140323639	0.10684841126203537	0.10293076187372208	-0.4521695375442505	-0.2639920115470886	-0.5877247452735901	-0.01579100824892521	0.42483144998550415	-0.21638019382953644	0.09557276964187622	-0.15285521745681763	-1.8177413940429688	-0.9601609706878662	-1.9046883583068848	0.4091121554374695	-0.3446793854236603	-0.24318146705627441	-0.28682640194892883	0.07461833953857422	-0.33851709961891174	0.09140603244304657	0.03231406211853027	-1.7184326648712158	0.28373080492019653	0.12226355075836182	1.422224521636963	2.1281230449676514	0.007089190185070038	-0.4217844605445862	-0.08196398615837097	-0.0065851095132529736	-0.009478374384343624
37	-0.5290191769599915	-0.5616565942764282	0.07514611631631851	0.4472702741622925	-0.029764216393232346	-0.18257136642932892	0.1329256147146225	-0.29619982838630676	0.30857396125793457	0.8562568426132202	0.9166965484619141	0.6980647444725037	0.249611958861351	-0.19518747925758362	-0.3819577395915985	-0.2176164835691452	0.21271589398384094	0.034557048231363297	-0.2834521234035492	0.053483616560697556	0.10893572121858597	0.10258515924215317	-0.42287108302116394	-0.264763742685318	-1.1228432655334473	0.04804768040776253	-0.10869887471199036	-0.8361825346946716	-0.9429773688316345	-1.1362823247909546	-1.4568513631820679	-1.8611210584640503	-2.6703035831451416	0.7114405035972595	-0.558694064617157	-0.20525819063186646	-0.6116742491722107	0.15840047597885132	0.12965863943099976	0.018523816019296646	0.5945823788642883	-1.5172960758209229	0.2744256258010864	0.2018505185842514	1.1341028213500977	2.1295652389526367	-0.7277843952178955	0.06702190637588501	-0.13428007066249847	0.00505818659439683	0.04218510538339615
38	-0.5451652407646179	-0.5667384266853333	0.06604575365781784	0.43259117007255554	-0.045560322701931	-0.18718045949935913	0.11806272715330124	-0.3171325623989105	0.2568399906158447	0.8820188641548157	0.906636655330658	0.6966531872749329	0.24849370121955872	-0.19538834691047668	-0.3777814507484436	-0.21561859548091888	0.2146838903427124	0.01616188883781433	-0.26663315296173096	0.053402431309223175	0.10742487758398056	0.10274981707334518	-0.3914908468723297	-0.2673948407173157	-0.6130349040031433	-0.2552129328250885	-0.5415574312210083	-0.411662220954895	-0.5329009890556335	0.3586953282356262	-0.0729626715183258	-0.6057735681533813	-2.929075002670288	0.9121598601341248	-0.4987528622150421	-0.30103403329849243	-0.4100560247898102	0.25598371028900146	0.39547082781791687	0.27028998732566833	1.1422511339187622	-1.0477161407470703	0.9451238512992859	0.2123444676399231	1.1738519668579102	2.3053812980651855	0.40266484022140503	0.0021859854459762573	-0.161023810505867	0.020210929214954376	0.05522068589925766
39	-0.5477394461631775	-0.5697080492973328	0.0597415566444397	0.4292183220386505	-0.04891759902238846	-0.19037491083145142	0.12259533256292343	-0.327243834733963	0.22769780457019806	0.8991374373435974	0.8854267001152039	0.6847661733627319	0.24985647201538086	-0.20598378777503967	-0.3777100145816803	-0.20724065601825714	0.22733767330646515	0.007215129677206278	-0.24581149220466614	0.05231846496462822	0.10578760504722595	0.10251003503799438	-0.3697076439857483	-0.2677042782306671	0.4098712205886841	0.16048063337802887	-0.269744873046875	-0.31761959195137024	-0.06376025080680847	-0.10731697082519531	0.2667452394962311	-0.5640700459480286	-1.7256717681884766	0.36285701394081116	-1.811489224433899	-1.0504534244537354	-0.07861796021461487	0.5761075019836426	-0.24651019275188446	0.5789288878440857	1.0504719018936157	-1.3145703077316284	1.0125573873519897	0.19111058115959167	2.0012335777282715	2.3826704025268555	0.648257851600647	-0.2172079235315323	-0.14319099485874176	0.017949238419532776	0.1328434944152832
40	-0.5285917520523071	-0.5644327402114868	0.05350044369697571	0.42128270864486694	-0.048683978617191315	-0.20084819197654724	0.1327364146709442	-0.338299423456192	0.2082543969154358	0.9026284217834473	0.8342586159706116	0.6600015163421631	0.2518469989299774	-0.21262210607528687	-0.38949674367904663	-0.19374051690101624	0.22929970920085907	0.01844376139342785	-0.2275576889514923	0.05125676840543747	0.10612355172634125	0.10383816808462143	-0.3672100305557251	-0.2630912661552429	1.321325659751892	0.5212494134902954	-0.3642517924308777	-0.541612446308136	-0.006482318043708801	-0.5474873185157776	0.5440870523452759	-0.6505767107009888	-1.4734336137771606	-0.3520814776420593	-3.095974922180176	-1.5366870164871216	-0.48923254013061523	0.06500083208084106	-0.5657684803009033	0.775202214717865	1.0089224576950073	0.42594385147094727	0.848785936832428	-0.012805415317416191	1.7267494201660156	2.1210274696350098	0.14574109017848969	-0.019097566604614258	-0.12881968915462494	0.02866099402308464	0.19995519518852234
41	-0.5159215331077576	-0.5633655190467834	0.0431605763733387	0.4117395579814911	-0.04855712130665779	-0.1965685933828354	0.14670297503471375	-0.33987802267074585	0.1724759191274643	0.9050588011741638	0.7951986193656921	0.6358335614204407	0.2482895404100418	-0.2174864113330841	-0.39160585403442383	-0.17827065289020538	0.21194925904273987	0.036290012300014496	-0.189304918050766	0.050366587936878204	0.10548972338438034	0.1033252403140068	-0.3783818483352661	-0.26641494035720825	0.1506475955247879	-0.2046698033809662	-0.8167284727096558	-0.5750868320465088	-0.07421408593654633	0.9671698212623596	0.6751589775085449	0.44518008828163147	-2.614154815673828	-0.15071120858192444	-1.1121253967285156	-1.0497671365737915	-0.23246438801288605	0.5527725219726562	0.760606586933136	0.7989780902862549	-0.5037792325019836	-0.1340728998184204	1.995029330253601	-0.019198153167963028	1.8942101001739502	2.158752918243408	0.8928378820419312	-0.08217974752187729	-0.19243796169757843	0.059027139097452164	0.144642636179924
42	-0.5106729865074158	-0.5707371830940247	0.027788303792476654	0.4042366147041321	-0.05094526708126068	-0.17650994658470154	0.16702835261821747	-0.32414478063583374	0.13382753729820251	0.9139004349708557	0.7823613882064819	0.62608802318573	0.24862931668758392	-0.21694408357143402	-0.38376954197883606	-0.16744518280029297	0.18155741691589355	0.04447231814265251	-0.17321063578128815	0.0529366210103035	0.10607069730758667	0.1027350053191185	-0.4059700071811676	-0.2643212080001831	0.4954453110694885	-0.1765383929014206	-0.8337940573692322	-0.4621794819831848	-0.25825393199920654	0.8803282976150513	1.0208837985992432	0.7948264479637146	-2.095310688018799	0.09658859670162201	-0.6050993204116821	-0.35343918204307556	-0.13042692840099335	0.3573669195175171	0.3647969365119934	0.3855016827583313	-0.5604678988456726	0.01523590087890625	0.19017170369625092	0.12163638323545456	1.6400015354156494	2.241222381591797	-0.05736362934112549	-0.34105172753334045	-0.13061203062534332	0.05291001498699188	0.07838691771030426
43	-0.4987625479698181	-0.568850040435791	0.014971453696489334	0.39513811469078064	-0.05666413530707359	-0.18026778101921082	0.18066389858722687	-0.31367653608322144	0.11405736207962036	0.9100542068481445	0.7717576622962952	0.6216244697570801	0.24646009504795074	-0.2226613461971283	-0.3778657913208008	-0.16354353725910187	0.17543774843215942	0.06259293109178543	-0.17071835696697235	0.050929732620716095	0.10542678833007812	0.10343803465366364	-0.41584786772727966	-0.2650746703147888	0.9205851554870605	0.39346200227737427	-0.7297115325927734	-0.5567392110824585	-0.3255348205566406	-0.43913233280181885	0.6691708564758301	0.4520988464355469	-1.1566931009292603	-0.7992648482322693	-0.7991071343421936	-0.3566528260707855	0.3109672963619232	0.17173975706100464	0.38594385981559753	0.20916129648685455	-0.019560158252716064	0.1385420560836792	0.2247980684041977	-0.02924705669283867	1.6867960691452026	2.2453675270080566	0.9873852133750916	-0.1825861781835556	-0.06814543902873993	-0.005171868950128555	0.09794474393129349
44	-0.47533363103866577	-0.5598448514938354	0.0029695359990000725	0.3908248245716095	-0.05639011412858963	-0.18015089631080627	0.20217998325824738	-0.29722386598587036	0.08959928900003433	0.9005964398384094	0.7585811614990234	0.6134557127952576	0.24683384597301483	-0.22329694032669067	-0.3727641999721527	-0.15609879791736603	0.16751475632190704	0.06943073123693466	-0.1700066775083542	0.05202239006757736	0.10746746510267258	0.10337743908166885	-0.43717172741889954	-0.2664091885089874	1.4405791759490967	0.49449422955513	-0.7575809955596924	-0.16021794080734253	0.12717454135417938	0.35250329971313477	1.4347630739212036	1.0691431760787964	-1.6634016036987305	-0.9497655630111694	-0.7969545125961304	-0.4589163362979889	0.14448925852775574	0.06258058547973633	0.3004726469516754	0.27756649255752563	0.15181434154510498	0.14311295747756958	0.1863330602645874	-0.1356039047241211	1.3256242275238037	2.196331262588501	0.1261603832244873	0.05600779503583908	-0.05445164069533348	-0.03348628431558609	0.09337934851646423
45	-0.45660918951034546	-0.552397608757019	-0.005228985100984573	0.3872328996658325	-0.05651314556598663	-0.17950192093849182	0.2178482860326767	-0.2849877178668976	0.05651884526014328	0.8921582698822021	0.7492890954017639	0.6093365550041199	0.24641743302345276	-0.22361943125724792	-0.36872920393943787	-0.15221241116523743	0.1633613258600235	0.07582555711269379	-0.1696552038192749	0.04875405132770538	0.10670139640569687	0.10334455966949463	-0.4732479155063629	-0.2655217945575714	0.8383725881576538	0.3690473139286041	-0.4184931516647339	-0.36396104097366333	-0.2200835943222046	-0.1403178572654724	0.5341835021972656	0.38612139225006104	-2.025057792663574	-0.787354588508606	-0.49780648946762085	-0.09118929505348206	0.1741032898426056	-0.0507512092590332	0.2339465320110321	0.1103338673710823	0.3631267845630646	0.16750484704971313	0.08929257094860077	-0.06815943121910095	1.5307843685150146	2.1753435134887695	-0.016987323760986328	-0.1066083014011383	-0.06781268119812012	-0.025819342583417892	0.05097876489162445
46	-0.4468062222003937	-0.5448783040046692	-0.003984598442912102	0.38489753007888794	-0.057718802243471146	-0.18504397571086884	0.21973691880702972	-0.2839929163455963	0.02779477648437023	0.888696551322937	0.7446596622467041	0.6079120635986328	0.24615702033042908	-0.22311854362487793	-0.36572200059890747	-0.1511559784412384	0.16397002339363098	0.0923214852809906	-0.1700328290462494	0.047618165612220764	0.10621193796396255	0.1025468036532402	-0.49215924739837646	-0.2636549472808838	0.5364859700202942	0.590861976146698	0.2711889445781708	0.019597142934799194	0.12035088986158371	-0.370103657245636	-0.02354159578680992	-0.10055158287286758	-1.5146453380584717	-0.5863557457923889	-0.31634610891342163	-0.3250778615474701	-0.07759259641170502	-0.16533154249191284	0.1869821697473526	0.1203855574131012	0.8522924184799194	0.8682951331138611	0.07434014976024628	-0.05322332680225372	1.8944708108901978	2.197734832763672	-0.38935309648513794	-0.31562650203704834	-0.047971706837415695	-0.0442875511944294	0.04535241052508354
47	-0.4374054968357086	-0.5367612242698669	-0.004450638312846422	0.37902113795280457	-0.0629122257232666	-0.1973634958267212	0.21662349998950958	-0.2875902056694031	0.009543397463858128	0.8845895528793335	0.7376205921173096	0.6089889407157898	0.24843944609165192	-0.22472602128982544	-0.3613514304161072	-0.1528947353363037	0.16920138895511627	0.11464771628379822	-0.1708725243806839	0.046530552208423615	0.1062270775437355	0.10269413888454437	-0.5015068054199219	-0.26401278376579285	0.564400851726532	0.5543281435966492	-0.15155674517154694	-0.5163180232048035	-0.4555822014808655	-0.9645552635192871	-0.3016747534275055	-0.33397719264030457	-1.0497642755508423	-0.722486138343811	-0.5268228650093079	0.010743055492639542	-0.5218744874000549	-0.6322692632675171	0.29139742255210876	-0.09657914191484451	1.6994011402130127	1.3386054039001465	0.10513828694820404	-0.010711349546909332	1.7232439517974854	2.140563726425171	1.1372654438018799	0.051757216453552246	-0.032501157373189926	-0.07605169713497162	0.049505893141031265
48	-0.42393895983695984	-0.5287729501724243	-0.00833633542060852	0.3698156476020813	-0.07192467898130417	-0.2028273195028305	0.21541322767734528	-0.28954315185546875	-0.010553557425737381	0.8855752348899841	0.7285172939300537	0.6151554584503174	0.2503078877925873	-0.22460821270942688	-0.3568432033061981	-0.1602526605129242	0.15923166275024414	0.11925637722015381	-0.17176520824432373	0.048810869455337524	0.10582573711872101	0.10335700958967209	-0.5269306898117065	-0.26660606265068054	0.852612316608429	0.6182087063789368	0.02941417694091797	-0.2935945987701416	-0.2435029298067093	-0.21289953589439392	0.009283654391765594	-0.08714202046394348	-1.2427704334259033	-0.388632208108902	-0.5241472125053406	0.12384644150733948	-0.49974048137664795	-0.5860704183578491	0.2196441888809204	-0.45391106605529785	0.9347812533378601	0.2152305245399475	0.04097193479537964	0.23635607957839966	1.922168254852295	2.05912184715271	0.7337063550949097	-0.12043128162622452	-0.003276239614933729	-0.08472952246665955	0.050516799092292786
49	-0.41391682624816895	-0.5173681974411011	-0.008138737641274929	0.361222505569458	-0.08078503608703613	-0.21538180112838745	0.20451927185058594	-0.30051952600479126	-0.025539275258779526	0.8811080455780029	0.7192938327789307	0.619635820388794	0.2516964077949524	-0.23350246250629425	-0.35162872076034546	-0.16956780850887299	0.149533212184906	0.1179058775305748	-0.17314952611923218	0.046272777020931244	0.10544732213020325	0.10356450080871582	-0.5421962738037109	-0.2670222222805023	0.4194834232330322	0.7724062204360962	0.03979562222957611	-0.5332555770874023	-0.5262415409088135	-0.638990044593811	-0.9313130378723145	-0.9268612861633301	-1.4559361934661865	-0.5652064681053162	-0.6045688986778259	0.03222890943288803	-1.0025746822357178	0.22537577152252197	0.36239224672317505	-0.41920435428619385	1.2281297445297241	-0.8952682018280029	-0.0010974407196044922	-0.1455802619457245	2.1874115467071533	2.141540765762329	0.485382080078125	-0.03040599822998047	-0.011273845098912716	-0.11682993173599243	0.06008261814713478
50	-0.40841394662857056	-0.5083609223365784	-0.008753769099712372	0.35459908843040466	-0.08776682615280151	-0.21969597041606903	0.1929878145456314	-0.31154268980026245	-0.04213644936680794	0.8736521005630493	0.7121749520301819	0.6209186911582947	0.2477966845035553	-0.24081355333328247	-0.3465690314769745	-0.1697518527507782	0.1322709321975708	0.11059771478176117	-0.17507876455783844	0.04583928361535072	0.10583043098449707	0.10292886942625046	-0.5714684128761292	-0.2684488892555237	0.33514130115509033	0.33818715810775757	-0.14974161982536316	-0.29186034202575684	-0.24325498938560486	0.3794613480567932	-0.275534451007843	-0.2885136008262634	-1.2849925756454468	-0.6972638368606567	-0.4214826822280884	-0.06448770314455032	-0.22703523933887482	0.5755840539932251	0.288536012172699	0.2589717209339142	-0.0011115074157714844	-1.49452805519104	-0.013192087411880493	-0.18890169262886047	1.7548153400421143	2.221113920211792	-0.019528865814208984	0.06978825479745865	-0.052674852311611176	-0.1423376351594925	0.024033749476075172
51	-0.4118034541606903	-0.508608877658844	-0.004590645432472229	0.3545379042625427	-0.0891377329826355	-0.2133282572031021	0.18413738906383514	-0.31891706585884094	-0.05612639710307121	0.8654565811157227	0.7122599482536316	0.6245328187942505	0.24712763726711273	-0.2408352643251419	-0.3436988294124603	-0.16925133764743805	0.11004689335823059	0.09125630557537079	-0.17768487334251404	0.0404198132455349	0.10603728890419006	0.10326860845088959	-0.6219180822372437	-0.26810091733932495	-0.2023986577987671	-0.11472761631011963	0.08035299181938171	-0.0717933401465416	-0.1390765905380249	0.32769036293029785	-0.4032127559185028	-0.3408311903476715	-0.7731606364250183	-0.9032876491546631	-0.06938501447439194	0.23673492670059204	0.250790536403656	0.3386160135269165	0.1995358169078827	-0.041312187910079956	-0.29946744441986084	-1.1990662813186646	-0.0841885507106781	-0.058712754398584366	1.293158769607544	2.1938490867614746	-0.28518223762512207	0.0019953204318881035	-0.09044740349054337	-0.1451379507780075	-0.018032709136605263
52	-0.4235866367816925	-0.5147345662117004	0.004334267228841782	0.3605734407901764	-0.08712894469499588	-0.20927269756793976	0.17842017114162445	-0.3273305296897888	-0.06409022212028503	0.8511190414428711	0.7176029086112976	0.6296429634094238	0.24811705946922302	-0.24122123420238495	-0.3408309817314148	-0.1699879914522171	0.10665813088417053	0.08179140836000443	-0.18051618337631226	0.03542959690093994	0.10632025450468063	0.10354238003492355	-0.6655081510543823	-0.2657257914543152	-0.6046500205993652	-0.2852937877178192	0.4689260423183441	0.3957553207874298	0.19196821749210358	0.22993184626102448	-0.13372796773910522	-0.4518999755382538	-0.6681800484657288	-1.203675389289856	0.19408465921878815	0.11824894696474075	-0.33059847354888916	0.40974104404449463	0.22783160209655762	-0.012421805411577225	1.6148951053619385	-0.6843947172164917	-0.12364095449447632	-0.5654361248016357	1.5665078163146973	2.1498284339904785	0.020727336406707764	-0.04569144546985626	-0.11647152155637741	-0.13965095579624176	-0.032456185668706894
53	-0.44088393449783325	-0.5215754508972168	0.020448310300707817	0.37546202540397644	-0.07640831172466278	-0.20268353819847107	0.17040719091892242	-0.33781909942626953	-0.07897957414388657	0.8309245109558105	0.7263521552085876	0.6306535601615906	0.24786755442619324	-0.24172092974185944	-0.338544636964798	-0.17122401297092438	0.07198847085237503	0.07817275077104568	-0.18455718457698822	0.03088906966149807	0.10552075505256653	0.10378928482532501	-0.724031925201416	-0.2632721960544586	-0.7043504118919373	-0.2421184778213501	0.5695538520812988	0.6985175609588623	0.6089025735855103	0.4750669300556183	-0.3936500549316406	-0.44129353761672974	-1.1544731855392456	-1.5450984239578247	0.21793216466903687	-0.19509431719779968	0.3186977505683899	0.7458643913269043	0.1863439381122589	0.24398231506347656	-2.2019011974334717	-0.6137185096740723	-0.24221691489219666	-0.13041873276233673	1.4062495231628418	2.050067663192749	-0.4935264587402344	-0.4692595601081848	-0.13747848570346832	-0.15885218977928162	-0.031325966119766235
54	-0.45388108491897583	-0.528089165687561	0.03014325723052025	0.394416481256485	-0.06127125397324562	-0.19976894557476044	0.17288775742053986	-0.34214910864830017	-0.08807677030563354	0.7970637679100037	0.7341907620429993	0.6286531686782837	0.24666443467140198	-0.24560050666332245	-0.33553290367126465	-0.16785340011119843	0.04120727628469467	0.07922299206256866	-0.18904231488704681	0.02411278337240219	0.10521511733531952	0.10352399945259094	-0.7814033031463623	-0.24210089445114136	-0.41198569536209106	-0.3527297079563141	-0.09947830438613892	0.783377468585968	0.5349633693695068	0.346932590007782	0.6451689004898071	-0.024936094880104065	-0.8628791570663452	-2.1153366565704346	0.21705710887908936	0.002007126808166504	0.8720464706420898	0.729598879814148	0.36532828211784363	0.16703154146671295	-2.0302884578704834	-0.7092398405075073	-0.34548893570899963	-0.8911110162734985	1.4610471725463867	2.23660945892334	-0.5111746788024902	0.23079705238342285	-0.14140984416007996	-0.20393311977386475	-0.03451280668377876
55	-0.47051069140434265	-0.5396669507026672	0.03720344975590706	0.4122389853000641	-0.04979444295167923	-0.19768230617046356	0.1697354018688202	-0.34737324714660645	-0.1076202318072319	0.7705919146537781	0.7474539279937744	0.6391230821609497	0.2454240918159485	-0.246804341673851	-0.33514919877052307	-0.17726771533489227	0.013571253046393394	0.06649152934551239	-0.1940949559211731	0.020687278360128403	0.1060723215341568	0.10403218865394592	-0.828058660030365	-0.22969165444374084	-0.7249691486358643	-0.70142662525177	0.1524122953414917	0.6542014479637146	0.4548571705818176	0.09145115315914154	-0.44286370277404785	-0.14969852566719055	-1.303785800933838	-1.6290122270584106	0.5918903350830078	0.7734574675559998	0.400204598903656	0.12124085426330566	-0.12603065371513367	-0.6653971672058105	-1.0930733680725098	-1.0685157775878906	-0.3898460865020752	-0.25930970907211304	1.3255807161331177	2.3690528869628906	-0.3213249444961548	-1.0206780433654785	-0.14684778451919556	-0.16986466944217682	-0.11464059352874756
56	-0.4842977225780487	-0.5554897785186768	0.035446006804704666	0.4220944941043854	-0.04532302916049957	-0.1948765367269516	0.1704874336719513	-0.34182220697402954	-0.12161283940076828	0.7469696998596191	0.7661207318305969	0.6547570824623108	0.24533696472644806	-0.24717988073825836	-0.33653733134269714	-0.17525489628314972	-0.004555043298751116	0.054182447493076324	-0.19758383929729462	0.01231791079044342	0.10602931678295135	0.10431209951639175	-0.8654974699020386	-0.23361118137836456	-0.3651160001754761	-0.8949241042137146	-0.5677315592765808	0.15584203600883484	-0.12096129357814789	0.2689462900161743	0.4427306354045868	0.6973370909690857	-0.7533679008483887	-1.6394078731536865	0.8322162628173828	1.1151119470596313	0.6724168658256531	0.10677659511566162	0.13086779415607452	-0.33801907300949097	-0.9140413403511047	-0.57825767993927	-0.28077566623687744	-0.18400388956069946	1.4622563123703003	2.142423391342163	-0.22417384386062622	-0.7278217673301697	-0.125413179397583	-0.1481809765100479	-0.12253820896148682
57	-0.4994523227214813	-0.5676117539405823	0.03966539353132248	0.435048371553421	-0.038135357201099396	-0.19377394020557404	0.16806529462337494	-0.3352799117565155	-0.1300741732120514	0.7203596234321594	0.7917570471763611	0.669906497001648	0.24503619968891144	-0.2473374456167221	-0.3333170711994171	-0.17967034876346588	-0.009138880297541618	0.05511518940329552	-0.20826445519924164	0.0077904160134494305	0.10588588565587997	0.10570310801267624	-0.8924274444580078	-0.2237628549337387	-0.6808865070343018	-0.3470059037208557	0.3439648151397705	0.8570157885551453	0.6109656095504761	0.06910349428653717	-0.22474241256713867	0.2725009322166443	-0.7103793621063232	-1.691049337387085	1.3190385103225708	0.497897207736969	0.5952050685882568	0.3552204370498657	0.28414300084114075	-0.13128463923931122	-0.0626983642578125	-0.05747783184051514	-0.7853679060935974	-0.21343687176704407	1.8542166948318481	1.598691701889038	0.6951372027397156	-0.1944883167743683	-0.10972294211387634	-0.1351403295993805	-0.10775308310985565
58	-0.5097329020500183	-0.5757536888122559	0.043356191366910934	0.4476420283317566	-0.029911119490861893	-0.19374628365039825	0.16951534152030945	-0.3261359930038452	-0.13327303528785706	0.690961480140686	0.8155314326286316	0.6815811395645142	0.24662122130393982	-0.246582493185997	-0.32790905237197876	-0.18257732689380646	-0.007855244912207127	0.0690796822309494	-0.21108372509479523	0.0035503965336829424	0.10600584000349045	0.10505703836679459	-0.920531690120697	-0.21702547371387482	-0.2848066985607147	-0.4042060971260071	-0.24238714575767517	0.2144867181777954	0.04238253831863403	-0.0495324432849884	0.29774221777915955	0.6137756109237671	-0.43475911021232605	-1.849947452545166	0.9327178001403809	0.6275700330734253	0.44459667801856995	0.0630418062210083	0.4333294630050659	-0.14003989100456238	0.19702956080436707	0.5479190349578857	0.03591958433389664	-0.09194354712963104	1.7848010063171387	1.9263733625411987	-0.5956132411956787	-0.7960778474807739	-0.10450606048107147	-0.10274292528629303	-0.07203439623117447
59	-0.5150675773620605	-0.5822819471359253	0.04675038903951645	0.4586726725101471	-0.024115104228258133	-0.19587622582912445	0.1812179982662201	-0.31793785095214844	-0.13175532221794128	0.6607266664505005	0.8283408284187317	0.687860369682312	0.24499529600143433	-0.24641001224517822	-0.32191357016563416	-0.18270009756088257	-0.013447576202452183	0.07636421918869019	-0.2196684628725052	0.00043874868424609303	0.1051330417394638	0.10520756989717484	-0.9289332032203674	-0.2175031304359436	-0.08714744448661804	-0.1656465381383896	0.19356459379196167	0.6154555082321167	0.40014857053756714	-0.19122329354286194	0.7150611877441406	0.31712502241134644	-0.09334423393011093	-1.9684970378875732	0.2753344178199768	0.010950513184070587	0.24190014600753784	0.19830262660980225	0.31021949648857117	0.13348795473575592	-0.02631998062133789	-0.06267309188842773	-0.5488189458847046	-0.11210250854492188	1.7088327407836914	1.9596394300460815	-0.3482605814933777	-0.9164782762527466	-0.10726318508386612	-0.07336439192295074	-0.025794871151447296
60	-0.5153070688247681	-0.5875095129013062	0.05404592677950859	0.4701121747493744	-0.015366501174867153	-0.19981558620929718	0.1947290152311325	-0.3146010935306549	-0.12800493836402893	0.6354078650474548	0.8249863982200623	0.6862128973007202	0.24458807706832886	-0.24570420384407043	-0.3224235773086548	-0.17929866909980774	-0.025518087670207024	0.0786982998251915	-0.22243373095989227	-0.0019410891691222787	0.10618922114372253	0.10477542877197266	-0.9403175711631775	-0.22180454432964325	0.18696282804012299	-0.20602840185165405	0.17551934719085693	0.3434334397315979	0.3576526641845703	-0.47195595502853394	0.7030643224716187	0.12320337444543839	0.20182934403419495	-1.7024519443511963	-0.5591290593147278	-0.26454970240592957	0.35582461953163147	-0.2636832594871521	-0.11034399271011353	0.3255928158760071	-0.0653265118598938	0.17370867729187012	-0.002745933597907424	-0.7562786340713501	1.2101337909698486	2.0789506435394287	0.021061599254608154	-0.3217260241508484	-0.11738507449626923	-0.05019871145486832	-0.003336903639137745
61	-0.5155178308486938	-0.5971065759658813	0.05907643213868141	0.47496289014816284	-0.010491544380784035	-0.20143656432628632	0.20355111360549927	-0.3122435510158539	-0.1283528357744217	0.6203012466430664	0.8168932795524597	0.6869016289710999	0.2442142516374588	-0.24505403637886047	-0.3286818265914917	-0.17682430148124695	-0.04040293022990227	0.07431983202695847	-0.2245679348707199	-0.003525352803990245	0.10520602017641068	0.10598447173833847	-0.9507436752319336	-0.21158790588378906	0.013235889375209808	-0.4544432461261749	0.13402661681175232	0.15895384550094604	0.18179026246070862	-0.17450213432312012	0.4278913736343384	0.16579893231391907	-0.19510817527770996	-1.025649905204773	-0.321696400642395	0.045415036380290985	0.24055755138397217	-0.4288725256919861	-0.31548309326171875	0.22593413293361664	-0.009345948696136475	0.0024799108505249023	-0.09195473790168762	-0.394075870513916	1.578033685684204	1.538297414779663	1.1614834070205688	-0.18921774625778198	-0.12377987056970596	-0.016715122386813164	-0.03915859013795853
62	-0.5139212012290955	-0.60821932554245	0.06068722903728485	0.47945359349250793	-0.006524873431771994	-0.19543194770812988	0.21682582795619965	-0.30446431040763855	-0.13180725276470184	0.6090256571769714	0.8138553500175476	0.6916484832763672	0.2440190315246582	-0.24567146599292755	-0.33695465326309204	-0.17407914996147156	-0.0536593534052372	0.0736360102891922	-0.22339114546775818	-0.006532775238156319	0.10651642084121704	0.1054520532488823	-0.9553672671318054	-0.20180191099643707	0.25617697834968567	-0.39053189754486084	-0.06776252388954163	0.17541134357452393	0.21801133453845978	0.20555809140205383	0.7776570916175842	0.49253371357917786	-0.20417077839374542	-1.1034595966339111	-0.1319158375263214	0.13228926062583923	0.1490083634853363	-0.18818610906600952	-0.36324289441108704	0.19410139322280884	0.3451409935951233	0.059626102447509766	0.30702170729637146	-0.6375664472579956	1.5013059377670288	1.7901647090911865	-0.033619001507759094	-1.1503807306289673	-0.10342161357402802	-0.002781732939183712	-0.045659586787223816
63	-0.5091269612312317	-0.6156622767448425	0.06095785275101662	0.4839024543762207	-0.0023688822984695435	-0.19196559488773346	0.2330399453639984	-0.2921852767467499	-0.12115591019392014	0.5971226692199707	0.8157477378845215	0.696688175201416	0.24828118085861206	-0.2454524040222168	-0.34180307388305664	-0.1725936084985733	-0.052961982786655426	0.06957272440195084	-0.21566854417324066	-0.008200664073228836	0.1059008240699768	0.10504186153411865	-0.9534705281257629	-0.2000291645526886	0.32831358909606934	-0.10715928673744202	0.12979063391685486	0.2284948080778122	0.27981236577033997	-0.08477789163589478	0.7025495171546936	0.6132133603096008	0.622334361076355	-1.0549477338790894	0.14000247418880463	0.04627012461423874	-0.3073173761367798	-0.45973795652389526	-0.041989684104919434	0.13632191717624664	1.6092476844787598	-0.04822266101837158	0.3906674385070801	-0.08649489283561707	1.834517240524292	1.9846469163894653	-0.06470248103141785	-0.3669205904006958	-0.04937714338302612	0.03285251185297966	-0.02248443104326725
64	-0.4905048608779907	-0.6144569516181946	0.05946551263332367	0.4848557114601135	0.0016535725444555283	-0.19270433485507965	0.25830861926078796	-0.2720680236816406	-0.08672098070383072	0.5803306102752686	0.8126645684242249	0.6968936324119568	0.24954426288604736	-0.2457278072834015	-0.34218838810920715	-0.17012877762317657	-0.045053813606500626	0.06881985068321228	-0.20884858071804047	-0.008128270506858826	0.1075114980340004	0.10621894150972366	-0.9357509613037109	-0.1873127520084381	1.3261531591415405	0.4549938440322876	0.0493813157081604	0.03988543152809143	0.28706255555152893	-0.2439073920249939	1.4073859453201294	1.0514224767684937	2.0484745502471924	-1.2654588222503662	-0.38987863063812256	-0.3277278542518616	-0.625382661819458	-0.5157656669616699	-0.026003535836935043	0.22849231958389282	1.9401473999023438	0.32115888595581055	0.04327388107776642	0.13812249898910522	1.259859561920166	1.4165318012237549	0.4868966341018677	-0.16256415843963623	0.04069431126117706	0.04136471077799797	0.06351063400506973
65	-0.46044012904167175	-0.6015858054161072	0.060817789286375046	0.4825277626514435	0.005264780018478632	-0.1973308026790619	0.28537869453430176	-0.2528061270713806	-0.044270917773246765	0.5669184327125549	0.8007363677024841	0.6888384222984314	0.24870942533016205	-0.24561350047588348	-0.34121865034103394	-0.16633032262325287	-0.031066972762346268	0.0693010538816452	-0.20811645686626434	-0.005909548606723547	0.10596039146184921	0.10494937002658844	-0.9346907734870911	-0.16287565231323242	1.624831199645996	1.0216169357299805	0.29333263635635376	-0.0987241119146347	0.2796226739883423	-0.5960094332695007	1.1557940244674683	0.7385265827178955	1.9917008876800537	-1.1185188293457031	-0.7522423267364502	-0.7627972364425659	-0.6677076816558838	-0.46989428997039795	0.09453307092189789	0.3367037773132324	2.4739999771118164	0.3346410393714905	0.015272339805960655	-0.23766490817070007	1.5752685070037842	1.8767064809799194	0.9368966221809387	0.5860161781311035	0.09160076081752777	0.03864210471510887	0.1236158236861229
66	-0.4286981523036957	-0.5854767560958862	0.06493363529443741	0.47936126589775085	0.008926439099013805	-0.20544838905334473	0.30952709913253784	-0.23699840903282166	-0.002909933216869831	0.5527240037918091	0.7839118838310242	0.6799879670143127	0.24793888628482819	-0.24558784067630768	-0.338105171918869	-0.1719585359096527	-0.023903939872980118	0.07202460616827011	-0.20756056904792786	0.004493871238082647	0.10681162029504776	0.10579203069210052	-0.9317805767059326	-0.13300922513008118	1.5760407447814941	0.872100293636322	0.2970539629459381	-0.10765445232391357	0.259860634803772	-0.5864250063896179	1.1326318979263306	0.7030746340751648	1.917305588722229	-1.1742987632751465	-0.9678153991699219	-0.5448521375656128	-0.4549528956413269	-0.4940778613090515	0.2229708731174469	-0.4587482213973999	1.5196032524108887	0.4491966962814331	-0.006742395460605621	0.9231851696968079	1.5096659660339355	1.5445425510406494	0.30275145173072815	0.14142966270446777	0.08129708468914032	0.018893828615546227	0.1523815542459488
67	-0.40394026041030884	-0.5811760425567627	0.07185167074203491	0.4805271029472351	0.018950780853629112	-0.20925332605838776	0.33576521277427673	-0.20964381098747253	0.04098048806190491	0.5414553880691528	0.7673342823982239	0.6811943054199219	0.24817706644535065	-0.24473723769187927	-0.33360961079597473	-0.2049165964126587	-0.011342788115143776	0.07166577875614166	-0.20776738226413727	0.018229631707072258	0.1079418957233429	0.10468386858701706	-0.9169144630432129	-0.1066921129822731	0.988544762134552	0.05041522532701492	0.6968705058097839	0.29545027017593384	0.7684692740440369	-0.3776629865169525	1.219759464263916	1.5388002395629883	2.13101863861084	-1.052201747894287	-0.7501043677330017	0.14639709889888763	-0.5832586288452148	-0.686453104019165	0.2186441421508789	-2.3014442920684814	2.062896251678467	0.38035595417022705	-0.04933854937553406	0.6552720069885254	1.6675809621810913	1.9036619663238525	0.5033092498779297	0.6786226630210876	0.0345953106880188	0.020835937932133675	0.12892676889896393
68	-0.38354578614234924	-0.5793147087097168	0.08723924309015274	0.4843713939189911	0.03275728598237038	-0.21490740776062012	0.36624911427497864	-0.18062317371368408	0.10240156203508377	0.5324035286903381	0.7511923313140869	0.6721906065940857	0.24756009876728058	-0.2451513409614563	-0.32923442125320435	-0.21943046152591705	0.009888661094009876	0.06325618922710419	-0.2079966515302658	0.0344025082886219	0.10589317977428436	0.10500574111938477	-0.8697844743728638	-0.11382876336574554	1.2949985265731812	0.5119583010673523	0.9849299192428589	0.11055374145507812	0.6548203229904175	-0.4687010645866394	1.690658450126648	1.123182773590088	3.1532692909240723	-0.9107711315155029	-1.0021272897720337	-1.1416691541671753	-0.44903141260147095	-0.6639666557312012	0.2554830014705658	0.43653494119644165	1.9210536479949951	0.0004241764545440674	0.03037979081273079	0.8858340382575989	1.7147643566131592	2.061682939529419	0.9488354325294495	-0.03365917503833771	0.09002340584993362	0.03955550864338875	0.159882053732872
69	-0.363608181476593	-0.5753351449966431	0.10265619307756424	0.4768494963645935	0.04123566672205925	-0.22272711992263794	0.39548519253730774	-0.13383843004703522	0.1646970808506012	0.5289716720581055	0.7343589663505554	0.6628571152687073	0.24736151099205017	-0.24531596899032593	-0.3257386088371277	-0.22030054032802582	0.021973252296447754	0.056983545422554016	-0.20634813606739044	0.02617543376982212	0.10735366493463516	0.10314473509788513	-0.8372862339019775	-0.08468091487884521	0.7791389226913452	0.24089860916137695	0.7872800230979919	-0.6203352212905884	0.19626502692699432	-0.7478441596031189	1.0282742977142334	2.598151683807373	2.7110726833343506	-0.5609453916549683	-0.7738142609596252	-0.10456471145153046	-0.42986226081848145	-0.6285766959190369	0.15165814757347107	-0.3524148464202881	1.445594310760498	0.3401143252849579	0.10683447867631912	-0.6309096217155457	1.5638591051101685	1.8844387531280518	0.9940155148506165	0.8652377724647522	0.09724773466587067	0.0479852519929409	0.09615829586982727
70	-0.35115846991539	-0.5758657455444336	0.11892250180244446	0.465440571308136	0.03911975771188736	-0.23084022104740143	0.4124220311641693	-0.10253135114908218	0.22126898169517517	0.5272632241249084	0.7240512371063232	0.673408031463623	0.2472875416278839	-0.24576818943023682	-0.32498160004615784	-0.2428814023733139	0.026133734732866287	0.06426412612199783	-0.20473377406597137	0.026958823204040527	0.1079082041978836	0.10531467199325562	-0.8187881708145142	-0.062044620513916016	0.7581222057342529	0.16895811259746552	1.0244940519332886	-0.3581664562225342	-0.01077970303595066	-0.34106701612472534	0.7876434326171875	1.0321440696716309	2.5675487518310547	-0.4126383364200592	-0.4791530966758728	0.5337005257606506	-0.44610142707824707	-0.4362162947654724	-0.009108336642384529	-1.7690813541412354	1.11408269405365	0.7586162090301514	-0.003410913050174713	0.05901950225234032	1.6178611516952515	1.3690241575241089	0.7363156080245972	0.10434472560882568	0.13026493787765503	0.011137754656374454	0.050891246646642685
71	-0.33355268836021423	-0.5732535719871521	0.14418074488639832	0.46815791726112366	0.04652545228600502	-0.22328388690948486	0.43028193712234497	-0.08952971547842026	0.2748854458332062	0.5295446515083313	0.719218909740448	0.6825240850448608	0.2476547658443451	-0.24568767845630646	-0.32769641280174255	-0.2701031565666199	0.034484341740608215	0.0802515372633934	-0.20680035650730133	0.020311996340751648	0.1087341383099556	0.10487471520900726	-0.8080799579620361	-0.019018521532416344	1.045135498046875	0.4794962704181671	1.5435186624526978	0.4385346472263336	0.6958233714103699	0.44489967823028564	0.8118589520454407	0.5838732719421387	2.4683995246887207	-0.19742918014526367	-0.21151797473430634	0.1921657919883728	-0.4840520918369293	-0.32038211822509766	-0.17693103849887848	-1.2424490451812744	1.6206659078598022	0.8668426275253296	-0.19178271293640137	-0.44282862544059753	1.334908127784729	1.538465976715088	-0.03161180019378662	0.3135712742805481	0.18328365683555603	-0.0501553975045681	0.02972765639424324
72	-0.31829899549484253	-0.5592136383056641	0.16763272881507874	0.4688539206981659	0.0516667515039444	-0.23051433265209198	0.43263334035873413	-0.0833168774843216	0.3373156487941742	0.5287612080574036	0.7149016857147217	0.6764229536056519	0.24876874685287476	-0.24494324624538422	-0.3301135301589966	-0.25644829869270325	0.06478065997362137	0.10335344821214676	-0.21012158691883087	0.01747323013842106	0.10693785548210144	0.10281667858362198	-0.7735781073570251	0.005661279894411564	0.759300172328949	1.0579264163970947	0.9951080679893494	-0.31441253423690796	-0.20892608165740967	-1.0427932739257812	-0.17577819526195526	-0.11443644016981125	2.951226234436035	-0.6538064479827881	-0.4004838764667511	-0.8653457760810852	-0.5753874182701111	-0.32006579637527466	-0.012008631601929665	1.969069480895996	2.56878924369812	1.1238824129104614	-0.09927721321582794	-0.35262295603752136	2.0586066246032715	1.8896397352218628	-1.43192458152771	0.5151038765907288	0.17964787781238556	-0.09703654795885086	0.026415573433041573
73	-0.3100775182247162	-0.5361666083335876	0.18378716707229614	0.46151766180992126	0.044351618736982346	-0.24892960488796234	0.4226309657096863	-0.0873165875673294	0.3943265378475189	0.533349871635437	0.712440550327301	0.6467536687850952	0.24921025335788727	-0.24425722658634186	-0.3325898349285126	-0.1769111156463623	0.08193319290876389	0.11018368601799011	-0.21784797310829163	0.018542570993304253	0.10597280412912369	0.10275880992412567	-0.7342046499252319	0.011943493969738483	0.4322759807109833	1.4660842418670654	0.8236276507377625	-0.34484511613845825	-0.3235871195793152	-1.1316074132919312	-0.5993510484695435	-0.250275194644928	2.4201300144195557	-0.19604913890361786	-0.12629465758800507	-2.0994813442230225	-0.6712037324905396	-0.3642995357513428	-0.1491663008928299	4.942351341247559	1.6516757011413574	0.10548621416091919	-0.47439470887184143	0.08029520511627197	1.9446704387664795	2.1063742637634277	0.2864527106285095	-0.49815332889556885	0.17091049253940582	-0.1034848615527153	-0.015632005408406258
74	-0.2924831807613373	-0.5291516184806824	0.19638335704803467	0.46244826912879944	0.04726174846291542	-0.24748900532722473	0.4330635070800781	-0.0804976299405098	0.4473453164100647	0.5393723845481873	0.7095834016799927	0.6521487832069397	0.249215230345726	-0.24441148340702057	-0.3360987901687622	-0.17777281999588013	0.07692696899175644	0.11580988764762878	-0.2213984578847885	0.018318528309464455	0.10691128671169281	0.10288362205028534	-0.6794894337654114	0.012272587977349758	1.3166189193725586	0.6410709619522095	0.6448819637298584	0.22029124200344086	0.4476928114891052	0.14536339044570923	0.8308078050613403	0.48003172874450684	2.48461651802063	-0.17224687337875366	-0.378257691860199	0.09954339265823364	-0.8019040822982788	-0.21601974964141846	-0.11926079541444778	-0.2965015769004822	0.7521758675575256	0.050242066383361816	-0.0012560086324810982	-0.19401568174362183	1.4646365642547607	1.9955148696899414	0.3729183077812195	0.1551680862903595	0.18643628060817719	-0.16194754838943481	0.00611858582124114
75	-0.26525792479515076	-0.5161440968513489	0.20507590472698212	0.4716779589653015	0.06083829700946808	-0.24143318831920624	0.4502779543399811	-0.07117804139852524	0.5012891888618469	0.5403108596801758	0.7024845480918884	0.6552377939224243	0.24890515208244324	-0.2446243166923523	-0.3372357189655304	-0.18729548156261444	0.06701555848121643	0.12294037640094757	-0.22405576705932617	0.01620258204638958	0.10846100002527237	0.10369624942541122	-0.6272850036621094	0.008881856687366962	1.4336062669754028	0.8909420371055603	0.37028345465660095	0.5994457006454468	0.821978747844696	0.03734826669096947	0.8169753551483154	0.3791460692882538	2.5795133113861084	-0.5549836754798889	-0.4833073019981384	-0.2684910297393799	-0.7539111375808716	-0.05085080862045288	0.004190819803625345	-0.017834991216659546	0.8288842439651489	-0.10897612571716309	-0.4183087646961212	0.23090089857578278	1.2502998113632202	1.8903305530548096	0.3737448453903198	-0.12639743089675903	0.16455617547035217	-0.24406304955482483	0.02161363512277603
76	-0.24160611629486084	-0.4960315525531769	0.20634746551513672	0.4805624783039093	0.07184858620166779	-0.24917219579219818	0.4526330828666687	-0.0747876912355423	0.544138491153717	0.5399601459503174	0.6920004487037659	0.6512625217437744	0.24858275055885315	-0.2436540573835373	-0.3352034091949463	-0.19004680216312408	0.06405525654554367	0.11958004534244537	-0.23225347697734833	0.010159607976675034	0.10736237466335297	0.10369276255369186	-0.564217209815979	0.008264904841780663	1.2712485790252686	1.280263066291809	-0.13521531224250793	0.23618634045124054	0.36904433369636536	-1.0001909732818604	-0.18002399802207947	-0.4537352919578552	1.7868194580078125	-0.5244961977005005	-0.794496476650238	-0.3556445837020874	-0.7174878120422363	-0.13251644372940063	0.23315739631652832	-0.215083509683609	1.1596367359161377	-0.5773197412490845	-0.3509169816970825	-0.7283991575241089	1.1223989725112915	1.8730473518371582	0.7617406845092773	-0.19914580881595612	0.14353123307228088	-0.28246429562568665	0.05210040137171745
77	-0.2243076115846634	-0.47983577847480774	0.19794189929962158	0.4837978780269623	0.07638432830572128	-0.260394811630249	0.4474942088127136	-0.08376772701740265	0.571497917175293	0.5434578061103821	0.6792478561401367	0.6503149271011353	0.2496950775384903	-0.244065523147583	-0.3305272161960602	-0.19736045598983765	0.0581466369330883	0.12327013909816742	-0.239324152469635	0.0029479917138814926	0.10591147840023041	0.103840671479702	-0.5108405351638794	0.00993026327341795	0.580460786819458	0.6731101274490356	-0.4006763696670532	0.20737463235855103	0.29700979590415955	-0.779169499874115	-0.3060053586959839	-0.41907647252082825	1.0836848020553589	-0.40890005230903625	-0.6253014206886292	-0.29621464014053345	-1.33309006690979	-0.5064086318016052	0.26371753215789795	-0.062314122915267944	1.902385950088501	0.7923887968063354	-0.2925386428833008	-0.1218443512916565	1.440342903137207	1.8784273862838745	0.38114452362060547	0.4076671302318573	0.07188837975263596	-0.25430500507354736	0.03608457371592522
78	-0.2228061556816101	-0.48383253812789917	0.1807330846786499	0.4820404052734375	0.07472913712263107	-0.26151371002197266	0.4436686038970947	-0.08850812911987305	0.5870503187179565	0.5486363172531128	0.6726065278053284	0.6605990529060364	0.2529427111148834	-0.24309080839157104	-0.3262920677661896	-0.20851324498653412	0.06399141252040863	0.1393689662218094	-0.24430733919143677	0.0007248661713674664	0.10701094567775726	0.10319472849369049	-0.48532021045684814	0.010012398473918438	-0.12060321867465973	-0.3216858506202698	-0.7520902156829834	-0.08520859479904175	-0.09959545731544495	-0.7647016048431396	-0.21458598971366882	-0.2298687994480133	0.9596298336982727	-0.8063862919807434	-0.23798716068267822	0.482120156288147	-1.9098689556121826	-1.0359135866165161	0.16285420954227448	-0.5744271278381348	3.2847723960876465	1.8708606958389282	-0.17099198698997498	-0.13511501252651215	1.3033723831176758	1.8881123065948486	0.2834588289260864	-0.3228718638420105	0.004260150250047445	-0.19961394369602203	-0.021138964220881462
79	-0.23321907222270966	-0.4904178977012634	0.17753289639949799	0.4902026355266571	0.07972569763660431	-0.25951680541038513	0.43445074558258057	-0.0970238596200943	0.5896445512771606	0.5548548698425293	0.6756959557533264	0.6640340685844421	0.24764181673526764	-0.2439212203025818	-0.3254925310611725	-0.2090444713830948	0.06537152826786041	0.1406492292881012	-0.24890658259391785	-0.004702623467892408	0.1070026084780693	0.1039339005947113	-0.47220346331596375	0.010282259434461594	-0.4980625510215759	-0.08068478852510452	0.15179872512817383	0.6913776397705078	0.5480188727378845	-0.022817134857177734	-0.4962112009525299	-0.5204888582229614	-0.10467608273029327	-0.233262836933136	0.12606264650821686	-0.2698739469051361	-0.7027739882469177	8.022785186767578e-05	0.05987314134836197	0.2611965239048004	1.2456111907958984	-0.05530065298080444	-0.26689568161964417	-0.527828574180603	1.366065502166748	1.8435033559799194	-0.932226300239563	0.017302393913269043	-0.003808362642303109	-0.17851747572422028	-0.030621303245425224
80	-0.24805015325546265	-0.49440038204193115	0.1847890466451645	0.5085815191268921	0.09421386569738388	-0.25190162658691406	0.4248030483722687	-0.10502907633781433	0.5830984115600586	0.5568426251411438	0.6852978467941284	0.6590101718902588	0.24734313786029816	-0.2431083470582962	-0.3233729302883148	-0.20618854463100433	0.05520948767662048	0.14267775416374207	-0.24827367067337036	-0.011366465128958225	0.10814062505960464	0.10377079248428345	-0.4456453025341034	0.01181228831410408	-0.7393240332603455	-0.1457957923412323	0.3369486331939697	0.8742088675498962	0.7301663160324097	0.291901171207428	-0.37854623794555664	-0.2587791383266449	-0.5555688738822937	-0.5203453302383423	0.4855765104293823	-0.3984295427799225	-0.34792593121528625	-0.1724475920200348	0.23552073538303375	0.15322285890579224	-0.02249559760093689	0.15879389643669128	0.33347174525260925	-0.13301324844360352	1.3617218732833862	1.7667802572250366	-1.0725233554840088	-0.4067235589027405	-0.017479287460446358	-0.13246716558933258	-0.007932396605610847
81	-0.2586504817008972	-0.4970557987689972	0.18086612224578857	0.5153524875640869	0.10072171688079834	-0.24873164296150208	0.4162946045398712	-0.10657473653554916	0.5769132971763611	0.5511152148246765	0.6925286054611206	0.6560311913490295	0.24831347167491913	-0.24152877926826477	-0.31659621000289917	-0.205547034740448	0.04041462764143944	0.14697812497615814	-0.24513988196849823	-0.014876858331263065	0.10722619295120239	0.1043260470032692	-0.40726950764656067	0.007569749839603901	-0.2302112877368927	0.19601333141326904	-0.38479524850845337	0.04599617421627045	0.1547558605670929	-0.5258902311325073	-0.5015424489974976	-0.03196308761835098	-0.21480849385261536	-1.0677005052566528	0.13581348955631256	-0.29425930976867676	-0.9616057276725769	-0.6808675527572632	0.4366706609725952	0.03548577055335045	0.7150607109069824	0.7190492153167725	0.10082173347473145	-0.09163326025009155	1.460852861404419	1.704318642616272	0.31198668479919434	0.2445455640554428	0.020781926810741425	-0.12591271102428436	0.04171224683523178
82	-0.26767751574516296	-0.49020159244537354	0.1751994490623474	0.52186119556427	0.10623960196971893	-0.2422080934047699	0.4048134684562683	-0.10468138009309769	0.5639006495475769	0.5507073402404785	0.7083843946456909	0.6480993032455444	0.24574753642082214	-0.24188022315502167	-0.30104753375053406	-0.2036849856376648	0.02802824229001999	0.13100415468215942	-0.24095675349235535	-0.01739492267370224	0.10662905871868134	0.10431116074323654	-0.37425729632377625	0.006188191473484039	-0.5686408281326294	0.6265999674797058	-0.1115308552980423	0.5583900809288025	0.44315823912620544	0.3496999144554138	-0.6786758899688721	0.18408459424972534	-0.9178022742271423	-0.500192403793335	1.1905344724655151	-0.7449806332588196	-0.735024094581604	-0.9084247350692749	1.076829433441162	0.24724934995174408	0.8530558943748474	0.0019809603691101074	0.26945117115974426	-0.04625432938337326	1.6394792795181274	1.6772277355194092	0.5064442157745361	0.4370878040790558	0.05305575206875801	-0.08828321099281311	0.08168736100196838
83	-0.27131006121635437	-0.47453993558883667	0.16634759306907654	0.5269019603729248	0.10977654904127121	-0.23049412667751312	0.3996102511882782	-0.10105078667402267	0.5449910163879395	0.5550445318222046	0.7206692695617676	0.6338574886322021	0.2456721067428589	-0.24453803896903992	-0.2776012718677521	-0.2000233381986618	0.03342432156205177	0.12981587648391724	-0.23604890704154968	-0.019043175503611565	0.10688824206590652	0.10367285460233688	-0.35723838210105896	0.00964277796447277	0.17476952075958252	1.0708028078079224	-0.7066523432731628	-0.07649306207895279	-0.0665147453546524	0.17029434442520142	-0.04203334450721741	0.0034218691289424896	-1.121380090713501	-0.26814451813697815	-0.12976659834384918	-0.9301743507385254	-0.04484415799379349	0.33949679136276245	1.2588238716125488	0.25112679600715637	1.1073111295700073	-0.12844783067703247	0.2038118541240692	-0.19918352365493774	1.499264121055603	2.025325298309326	0.4106425642967224	-0.1783502995967865	0.06477434933185577	-0.13233093917369843	0.1508670449256897
84	-0.2933555543422699	-0.4596215486526489	0.15648674964904785	0.5256061553955078	0.10473282635211945	-0.24296092987060547	0.3758282959461212	-0.11689845472574234	0.5173635482788086	0.5518885254859924	0.7259783148765564	0.6156454086303711	0.2451372742652893	-0.24520350992679596	-0.2521273195743561	-0.1957152783870697	0.03333832696080208	0.14417362213134766	-0.22966276109218597	-0.01975719816982746	0.1069549024105072	0.10343976318836212	-0.3424205183982849	0.010782572440803051	-1.6772241592407227	0.48879414796829224	-0.7784653902053833	-0.185102641582489	-0.42705613374710083	-0.7013858556747437	-1.1401525735855103	-0.9361364245414734	-1.9159730672836304	-0.5321224927902222	0.3867124021053314	-0.9938932061195374	0.03437957167625427	0.6652219295501709	1.5133399963378906	0.44375666975975037	0.3711736500263214	-0.13864141702651978	0.3027268052101135	-0.6145886778831482	1.5777013301849365	2.0443997383117676	0.15865246951580048	-0.24610453844070435	-0.05457993224263191	-0.08635536581277847	0.1322154849767685
85	-0.3283599019050598	-0.45903074741363525	0.14327996969223022	0.5234196186065674	0.09997144341468811	-0.24195079505443573	0.3625451922416687	-0.1265278458595276	0.4748254120349884	0.5579192638397217	0.7357717752456665	0.6016985177993774	0.24533292651176453	-0.24499009549617767	-0.2283450961112976	-0.19055120646953583	0.02056608907878399	0.14635585248470306	-0.23029230535030365	-0.02085251733660698	0.10770624876022339	0.10350733995437622	-0.3201395869255066	0.009166100062429905	-1.4816917181015015	0.028422586619853973	-0.8621007800102234	-0.3311024308204651	-0.2551303207874298	0.5055654644966125	-0.3669816255569458	-0.11713119596242905	-2.543090343475342	0.20903007686138153	0.3496526777744293	-0.7870232462882996	-0.11135457456111908	0.41254785656929016	1.173172116279602	0.46966785192489624	-0.04021427035331726	-0.7623907923698425	-0.1270390897989273	-0.23138034343719482	1.4230067729949951	1.9974799156188965	-0.04623657464981079	-0.010235041379928589	-0.054372917860746384	-0.028532514348626137	0.11103838682174683
86	-0.3482567071914673	-0.4593099057674408	0.1351241171360016	0.5273985862731934	0.09826255589723587	-0.23583614826202393	0.36700570583343506	-0.13232724368572235	0.43552881479263306	0.5773903727531433	0.7443504929542542	0.597845196723938	0.24535304307937622	-0.24549300968647003	-0.2108607441186905	-0.20243540406227112	0.006988558918237686	0.14260831475257874	-0.22669263184070587	-0.012483997270464897	0.10788203030824661	0.10273190587759018	-0.27740514278411865	0.010920723900198936	-0.5208958387374878	0.15087497234344482	-0.34983325004577637	0.1847611665725708	-0.1781398355960846	0.01918293535709381	0.2673051655292511	-0.5451434850692749	-2.0553057193756104	0.8091281652450562	0.24091950058937073	0.04408187046647072	-0.09481596946716309	0.6688932776451111	0.7998522520065308	-1.186122179031372	0.11523744463920593	-0.9686197638511658	0.07796145975589752	0.3825291395187378	1.5216012001037598	2.1805806159973145	0.698823094367981	-0.337944358587265	0.029136788100004196	-0.04542943090200424	0.08065883070230484
87	-0.3553512394428253	-0.4545076787471771	0.13196465373039246	0.5257142186164856	0.09352080523967743	-0.24057741463184357	0.3540635406970978	-0.14791037142276764	0.3993840217590332	0.6022801995277405	0.742712676525116	0.599990725517273	0.24506597220897675	-0.24518969655036926	-0.2043982446193695	-0.2236981987953186	-0.0032593486830592155	0.14241039752960205	-0.23128005862236023	-0.004114730749279261	0.10746099799871445	0.10267335921525955	-0.25589555501937866	0.008743506856262684	-0.10922792553901672	0.35256773233413696	-0.4281795024871826	-0.4175143539905548	-0.3857349157333374	-0.06764252483844757	-0.8518606424331665	-0.7072718739509583	-2.1594457626342773	0.9616533517837524	-0.3907424807548523	-0.0231400728225708	-0.10475356131792068	0.48104584217071533	0.32600006461143494	-0.8136192560195923	0.30133524537086487	-0.559535562992096	-0.3532640337944031	0.18199092149734497	1.4613646268844604	2.191298723220825	0.7010686993598938	-0.136007159948349	0.06210368126630783	-0.037426408380270004	0.06890688836574554
88	-0.35724446177482605	-0.4493681490421295	0.11892588436603546	0.5109800696372986	0.08014588803052902	-0.24255110323429108	0.3405962288379669	-0.16111445426940918	0.35628312826156616	0.6205282211303711	0.7333961725234985	0.5968958139419556	0.24533894658088684	-0.2452339380979538	-0.2015814632177353	-0.22184090316295624	-0.0106275025755167	0.14852984249591827	-0.22418370842933655	-0.00022090128913987428	0.10739175230264664	0.10301917791366577	-0.24979762732982635	0.011568636633455753	0.012577038258314133	0.31488627195358276	-0.9597125053405762	-1.0377403497695923	-0.9438436031341553	-0.12903127074241638	-0.3290005326271057	-0.610588788986206	-2.545295000076294	0.34993064403533936	-0.6421012878417969	-0.3616746962070465	-0.23808185756206512	0.39526432752609253	0.24420297145843506	0.6007982492446899	0.5135197043418884	-0.4259212613105774	0.6013217568397522	-0.03679552674293518	1.571079134941101	2.0717146396636963	0.33246752619743347	-0.201450377702713	0.046651847660541534	-0.00035757795558311045	0.07214900106191635
89	-0.3672856092453003	-0.4527358412742615	0.10441896319389343	0.4915405809879303	0.05779900774359703	-0.24755211174488068	0.33809974789619446	-0.17879189550876617	0.3057262897491455	0.6319436430931091	0.7248976230621338	0.5955818295478821	0.24522317945957184	-0.24525490403175354	-0.20223848521709442	-0.20612281560897827	-0.022911254316568375	0.14683261513710022	-0.21804846823215485	0.003713225480169058	0.10695721209049225	0.10287219285964966	-0.2506943345069885	0.009933087043464184	-0.6624476909637451	-0.3886217474937439	-0.6510356664657593	-1.0311299562454224	-1.262508511543274	-0.3043902516365051	0.10169929265975952	-1.0511258840560913	-2.969860076904297	0.1438753604888916	-0.511158287525177	0.08611943572759628	-0.368965744972229	0.3214120864868164	-0.12483198195695877	0.8310290575027466	0.3525545299053192	-0.8228691816329956	0.15828606486320496	0.15379610657691956	1.9590563774108887	2.0950233936309814	0.11279703676700592	-0.05378293991088867	-0.00871211662888527	0.07389719039201736	0.0013102287193760276
90	-0.3746753931045532	-0.462270051240921	0.10088237375020981	0.47775012254714966	0.04148591309785843	-0.2453802525997162	0.3505200445652008	-0.1973351091146469	0.25695013999938965	0.6472968459129333	0.7079592943191528	0.5970940589904785	0.24523839354515076	-0.2455100119113922	-0.21425630152225494	-0.19863459467887878	-0.02832474187016487	0.1360180526971817	-0.21664471924304962	-0.013491849415004253	0.10603947937488556	0.1026347354054451	-0.2313486635684967	0.008847883902490139	0.049490515142679214	-0.26213008165359497	0.00603601336479187	-0.6942752599716187	-0.624293327331543	0.38092711567878723	0.5476275682449341	-0.8169653415679932	-2.6662192344665527	0.44126808643341064	-1.3827608823776245	-0.07808902859687805	-0.2777526080608368	0.37325525283813477	-0.6593177318572998	-0.011110333725810051	0.6643235087394714	-1.1163904666900635	0.17657355964183807	0.2680465877056122	1.7266548871994019	2.153261423110962	0.5816584229469299	-0.313499391078949	0.02263527549803257	0.10156232118606567	0.024874012917280197
91	-0.3649647831916809	-0.4649050235748291	0.10448098927736282	0.46250081062316895	0.032970357686281204	-0.234856978058815	0.3527255356311798	-0.21051567792892456	0.21464048326015472	0.6605013608932495	0.6746355891227722	0.5959656238555908	0.24524879455566406	-0.24382123351097107	-0.23463498055934906	-0.19977405667304993	-0.026426834985613823	0.13816669583320618	-0.2054683268070221	-0.008829941973090172	0.10591384768486023	0.10255304723978043	-0.232225701212883	0.0098887849599123	0.889813244342804	0.14644266664981842	0.19281423091888428	-0.852105975151062	-0.3645602762699127	0.46746015548706055	0.05427875369787216	-0.5849032402038574	-2.19097638130188	0.13653013110160828	-1.9099072217941284	-0.1946161687374115	-0.21538889408111572	-0.040607988834381104	-1.090508222579956	0.023283742368221283	0.9377772808074951	0.18943238258361816	0.5836963653564453	-0.14086684584617615	1.7806285619735718	2.1467461585998535	-0.0494215190410614	-0.06513708829879761	0.08604711294174194	0.11099809408187866	0.02434438280761242
92	-0.35914716124534607	-0.4683435559272766	0.11045752465724945	0.4497600197792053	0.02376442775130272	-0.23264068365097046	0.3493432104587555	-0.22609029710292816	0.18269062042236328	0.6677252054214478	0.649257481098175	0.6000769138336182	0.24112795293331146	-0.24201111495494843	-0.2561408579349518	-0.20359978079795837	-0.008909591473639011	0.14140085875988007	-0.1923264116048813	-0.00527863809838891	0.10640270262956619	0.10271470993757248	-0.2370976060628891	0.010205857455730438	-0.025261852890253067	-0.312568336725235	0.05121105909347534	-0.6119392514228821	-0.605877161026001	-0.25290778279304504	-0.09635265916585922	-0.7901748418807983	-1.5707013607025146	-0.36583149433135986	-0.8496074676513672	0.30226823687553406	0.5786740779876709	-0.3916653096675873	-1.0885242223739624	-0.15803885459899902	0.7133910655975342	0.6050747036933899	0.34366339445114136	-0.2961406111717224	1.7058758735656738	2.057389497756958	0.49965032935142517	0.023742571473121643	0.03878534212708473	0.11299571394920349	-0.03213983774185181
93	-0.3669528365135193	-0.47963449358940125	0.10581109672784805	0.43910378217697144	0.010727099142968655	-0.22861285507678986	0.3467254042625427	-0.23100689053535461	0.1569066345691681	0.6664831042289734	0.6464790105819702	0.6098209023475647	0.24297964572906494	-0.24083320796489716	-0.2614673674106598	-0.2075670212507248	0.0001255925017176196	0.14247076213359833	-0.20581920444965363	-0.0019356735283508897	0.10669012367725372	0.10409729182720184	-0.2356223315000534	0.009008189663290977	-0.13967405259609222	-0.40215861797332764	-0.49134108424186707	-0.5837123394012451	-0.6194913387298584	0.11816814541816711	0.12352162599563599	0.08217080682516098	-1.2292977571487427	-0.7429882287979126	-0.14721864461898804	0.3329311013221741	0.5592095851898193	-0.776002049446106	0.05704382807016373	-0.07442723959684372	0.2613009810447693	0.734965980052948	-0.6296168565750122	-0.10204929858446121	1.6052970886230469	1.7394204139709473	0.1942943036556244	-0.11738210916519165	0.04499601200222969	0.11308448761701584	-0.006152022629976273
94	-0.3668190538883209	-0.4818149507045746	0.10349355638027191	0.43455469608306885	0.006673084571957588	-0.22240610420703888	0.3514464795589447	-0.22686432301998138	0.14030323922634125	0.6620656847953796	0.6463375687599182	0.6094790101051331	0.24420158565044403	-0.24320973455905914	-0.26402825117111206	-0.2074304223060608	0.011559054255485535	0.13912469148635864	-0.20472201704978943	0.001131841680034995	0.10623177140951157	0.10386990010738373	-0.2275087982416153	0.00953627098351717	0.34615838527679443	0.2681029438972473	0.07200908660888672	-0.07608845084905624	0.05200967937707901	0.23967140913009644	0.37618446350097656	0.2550503611564636	-0.9551175832748413	-0.6348546743392944	-0.21900063753128052	-0.4121079444885254	0.36074310541152954	-0.20566898584365845	-0.0738283172249794	0.14841251075267792	0.5517935752868652	-0.3508955240249634	0.10240674018859863	0.19035443663597107	1.736449122428894	1.9649426937103271	-0.891878068447113	-0.0023393630981445312	0.10481317341327667	0.09535402804613113	0.04924563691020012
95	-0.3552611470222473	-0.4697301685810089	0.10807254910469055	0.43494901061058044	0.010622103698551655	-0.22530442476272583	0.35759150981903076	-0.22406668961048126	0.1349411904811859	0.6603792905807495	0.6389523148536682	0.5965628623962402	0.24545149505138397	-0.24386535584926605	-0.26482388377189636	-0.20403164625167847	0.0407383106648922	0.1370653510093689	-0.20416370034217834	0.003572145476937294	0.10585933178663254	0.1032131016254425	-0.218856081366539	0.009764964692294598	0.9266929626464844	1.0084818601608276	0.20613043010234833	-0.06838875263929367	0.21220296621322632	-0.31893694400787354	0.27824896574020386	0.03917735069990158	-0.6358307600021362	-0.3007205128669739	-0.6931935548782349	-0.943015456199646	0.20774778723716736	-0.014754116535186768	0.07595504075288773	0.2379704862833023	1.357344627380371	-0.3033447265625	0.10437680035829544	0.16483581066131592	2.0401084423065186	2.0120246410369873	-0.33930936455726624	-0.03673633933067322	0.1657111793756485	0.05349225550889969	0.10903425514698029
96	-0.34104257822036743	-0.4520890414714813	0.1145186573266983	0.43597155809402466	0.01514202356338501	-0.2351059466600418	0.36205312609672546	-0.22485119104385376	0.13022981584072113	0.6670414209365845	0.6297954320907593	0.580714762210846	0.24611563980579376	-0.24341826140880585	-0.264719158411026	-0.20066970586776733	0.06471652537584305	0.14205245673656464	-0.203720822930336	0.005888949614018202	0.10588685423135757	0.10251160711050034	-0.22146473824977875	0.011700349859893322	0.6780695915222168	0.896220862865448	0.36397284269332886	0.07601168751716614	0.2031218409538269	-0.48027652502059937	0.32661405205726624	-0.06505490839481354	-0.7422164678573608	0.1482616662979126	-0.431709349155426	-0.8164881467819214	0.1687338948249817	0.017229676246643066	0.03682900592684746	0.18308421969413757	0.8139008283615112	-0.010673046112060547	0.052669815719127655	0.1973138004541397	2.056569814682007	2.119330883026123	0.06593535840511322	-0.32927587628364563	0.16020271182060242	0.06630474328994751	0.08300774544477463
