BUCAI-qaq/main/m/chapter3/record_data_x3_chars_288_1250/ref_state.txt
timestep	ref_qpos_left_hip_pitch_joint	ref_qpos_right_hip_pitch_joint	ref_qpos_waist_roll_joint	ref_qpos_left_hip_roll_joint	ref_qpos_right_hip_roll_joint	ref_qpos_waist_yaw_joint	ref_qpos_left_hip_yaw_joint	ref_qpos_right_hip_yaw_joint	ref_qpos_left_shoulder_pitch_joint	ref_qpos_right_shoulder_pitch_joint	ref_qpos_left_knee_joint	ref_qpos_right_knee_joint	ref_qpos_left_shoulder_roll_joint	ref_qpos_right_shoulder_roll_joint	ref_qpos_left_ankle_pitch_joint	ref_qpos_right_ankle_pitch_joint	ref_qpos_left_shoulder_yaw_joint	ref_qpos_right_shoulder_yaw_joint	ref_qpos_left_ankle_roll_joint	ref_qpos_right_ankle_roll_joint	ref_qpos_left_elbow_joint	ref_qpos_right_elbow_joint	ref_qpos_left_wrist_roll_joint	ref_qpos_right_wrist_roll_joint	ref_qvel_left_hip_pitch_joint	ref_qvel_right_hip_pitch_joint	ref_qvel_waist_roll_joint	ref_qvel_left_hip_roll_joint	ref_qvel_right_hip_roll_joint	ref_qvel_waist_yaw_joint	ref_qvel_left_hip_yaw_joint	ref_qvel_right_hip_yaw_joint	ref_qvel_left_shoulder_pitch_joint	ref_qvel_right_shoulder_pitch_joint	ref_qvel_left_knee_joint	ref_qvel_right_knee_joint	ref_qvel_left_shoulder_roll_joint	ref_qvel_right_shoulder_roll_joint	ref_qvel_left_ankle_pitch_joint	ref_qvel_right_ankle_pitch_joint	ref_qvel_left_shoulder_yaw_joint	ref_qvel_right_shoulder_yaw_joint	ref_qvel_left_ankle_roll_joint	ref_qvel_right_ankle_roll_joint	ref_qvel_left_elbow_joint	ref_qvel_right_elbow_joint	ref_qvel_left_wrist_roll_joint	ref_qvel_right_wrist_roll_joint	ref_root_vel_x	ref_root_vel_y	ref_root_vel_z
0	-0.5213549137115479	-0.35500940680503845	0.018514003604650497	0.4258524477481842	-0.012772179208695889	-0.04502919688820839	0.21857517957687378	-0.3911876082420349	0.2050916850566864	0.19889621436595917	0.8773949146270752	0.6513500213623047	0.11972614377737045	-0.052778154611587524	-0.17634272575378418	-0.4136962294578552	-0.0843307226896286	-0.20501093566417694	-0.14756496250629425	-0.04555641859769821	0.550442099571228	0.6716514825820923	0.7295618057250977	-0.8092509508132935	-1.0643587112426758	-0.13007968664169312	0.05276007577776909	0.41343867778778076	0.19525951147079468	0.007779989391565323	-0.3458287715911865	-0.06922930479049683	-0.9252362251281738	0.06835907697677612	1.4338388442993164	0.24400949478149414	-0.3564346432685852	0.3414561152458191	0.8635103702545166	-0.15617012977600098	-1.3032996654510498	0.79006028175354	0.46457910537719727	-0.17181961238384247	0.9172543883323669	0.6845176219940186	0.4092305898666382	-0.1319006085395813	-0.05491987243294716	-0.07806960493326187	-0.041741132736206055
1	-0.5437689423561096	-0.35769084095954895	0.019727420061826706	0.43459731340408325	-0.008865339681506157	-0.044865597039461136	0.21202951669692993	-0.39259660243988037	0.1876983493566513	0.19955220818519592	0.9071842432022095	0.6563044786453247	0.11585819721221924	-0.04830937087535858	-0.15681946277618408	-0.4168356657028198	-0.11265987157821655	-0.18745431303977966	-0.1381586492061615	-0.048974454402923584	0.566861629486084	0.6860076189041138	0.7393605709075928	-0.8133750557899475	-1.1488527059555054	-0.13606473803520203	0.06462489068508148	0.449138879776001	0.19537948071956635	0.008379947394132614	-0.3180045485496521	-0.07105991244316101	-0.841867208480835	0.015019625425338745	1.5172526836395264	0.24957507848739624	-0.1118786633014679	0.16442881524562836	1.032468318939209	-0.15736892819404602	-1.4730069637298584	0.921698272228241	0.4731740951538086	-0.17043957114219666	0.7728219032287598	0.7344380021095276	0.5302801728248596	-0.24335086345672607	-0.055534858256578445	-0.07857978343963623	-0.044411420822143555
2	-0.5673090219497681	-0.36045199632644653	0.021098999306559563	0.44381800293922424	-0.00495699979364872	-0.044693998992443085	0.20585499703884125	-0.39403000473976135	0.1714169979095459	0.19949699938297272	0.9380850195884705	0.6613330245018005	0.11525099724531174	-0.04620100185275078	-0.13504399359226227	-0.41999098658561707	-0.14325100183486938	-0.16814300417900085	-0.12863799929618835	-0.05237400159239769	0.5813549757003784	0.7010290026664734	0.750773012638092	-0.8189849853515625	-1.2510731220245361	-0.14960989356040955	0.07954496145248413	0.5398958921432495	0.19990453124046326	0.004949886351823807	-0.17422325909137726	-0.07609575986862183	-0.7860723733901978	-0.014820694923400879	1.6187236309051514	0.26274025440216064	0.13123638927936554	0.053114257752895355	1.193608283996582	-0.15905946493148804	-1.6221120357513428	0.9250022172927856	0.5789097547531128	-0.1697394996881485	0.5693957209587097	0.7120788097381592	0.5284637212753296	-0.21571367979049683	-0.05695485696196556	-0.07774475961923599	-0.04933178424835205
3	-0.5938118696212769	-0.36367523670196533	0.022909218445420265	0.45619314908981323	-0.0008691583061590791	-0.044667601585388184	0.20506058633327484	-0.39564043283462524	0.15625545382499695	0.1989593803882599	0.9719331860542297	0.6668140888214111	0.12110765278339386	-0.04618480056524277	-0.10907512903213501	-0.42319804430007935	-0.17754435539245605	-0.15045422315597534	-0.11500225961208344	-0.055764034390449524	0.5896374583244324	0.7144907712936401	0.760499119758606	-0.8220036029815674	-1.3310208320617676	-0.16063451766967773	0.09496971219778061	0.674817681312561	0.2090993970632553	0.0009249895811080933	0.05052350461483002	-0.07904991507530212	-0.7560633420944214	-0.025045126676559448	1.7041549682617188	0.264228880405426	0.327253520488739	-0.0025198794901371002	1.3014366626739502	-0.15473514795303345	-1.7204806804656982	0.8670281767845154	0.6607635021209717	-0.169324591755867	0.38273483514785767	0.6610378623008728	0.4682675004005432	-0.12706518173217773	-0.05786985903978348	-0.07618479430675507	-0.05451887845993042
4	-0.6205498576164246	-0.36687737703323364	0.02489778771996498	0.4708107113838196	0.0034069763496518135	-0.04465699940919876	0.20787593722343445	-0.39719200134277344	0.14117446541786194	0.19849519431591034	1.0062512159347534	0.6719021797180176	0.12834113836288452	-0.04630179703235626	-0.08298652619123459	-0.4261803925037384	-0.21207022666931152	-0.1334618777036667	-0.10220745950937271	-0.05914698541164398	0.5966643691062927	0.7274705171585083	0.7695037126541138	-0.8240675926208496	-1.3487070798873901	-0.15905946493148804	0.10834983736276627	0.8430294990539551	0.2232295721769333	-0.00025993213057518005	0.3212619423866272	-0.07463917136192322	-0.7500484585762024	-0.019539520144462585	1.7394647598266602	0.23476779460906982	0.43052995204925537	-0.012510083615779877	1.3104666471481323	-0.13788938522338867	-1.7379857301712036	0.814827561378479	0.5977180004119873	-0.16879960894584656	0.2885788679122925	0.6249174475669861	0.4141777753829956	-0.055471062660217285	-0.056969862431287766	-0.07451996207237244	-0.05797147750854492
5	-0.6477601528167725	-0.37003761529922485	0.02724321186542511	0.48991432785987854	0.008060024119913578	-0.04467799887061119	0.21791106462478638	-0.3986259996891022	0.12625351548194885	0.19817779958248138	1.0415117740631104	0.6762048006057739	0.13832885026931763	-0.04668520390987396	-0.05665646493434906	-0.4287136197090149	-0.2470637857913971	-0.11786112189292908	-0.09109354019165039	-0.06251601874828339	0.6011806130409241	0.7394874691963196	0.7770662307739258	-0.8242224454879761	-1.3084635734558105	-0.14448165893554688	0.131181538105011	1.0753915309906006	0.24783271551132202	0.01188032329082489	0.6881493926048279	-0.05894005298614502	-0.7239166498184204	-0.014469772577285767	1.7343193292617798	0.18662214279174805	0.534946084022522	-0.022090226411819458	1.2195309400558472	-0.11234059929847717	-1.716597318649292	0.7278768420219421	0.6498679518699646	-0.16248151659965515	0.13303905725479126	0.5601465702056885	0.3550335764884949	0.038661062717437744	-0.05414053052663803	-0.07019080221652985	-0.05888044834136963
6	-0.6728883981704712	-0.3726566433906555	0.03014504909515381	0.5138263702392578	0.013320284895598888	-0.044181786477565765	0.235401913523674	-0.39954960346221924	0.11221779882907867	0.1979164034128189	1.0756239891052246	0.6793670654296875	0.14973898231983185	-0.04718540608882904	-0.03420528769493103	-0.4306740164756775	-0.280734121799469	-0.10434680432081223	-0.07621274143457413	-0.06564624607563019	0.6019859313964844	0.7498763799667358	0.7837050557136536	-0.8225211501121521	-1.2303829193115234	-0.12418627738952637	0.15204735100269318	1.2557111978530884	0.27060315012931824	0.03127586096525192	0.967743992805481	-0.039799511432647705	-0.6907193064689636	-0.01236945390701294	1.6912490129470825	0.14385581016540527	0.588284432888031	-0.02647070214152336	1.0740623474121094	-0.09086057543754578	-1.6669676303863525	0.6496343612670898	0.7911263108253479	-0.15352609753608704	-0.006118416786193848	0.4990920424461365	0.3203928470611572	0.10826438665390015	-0.050795264542102814	-0.06536059081554413	-0.05679428577423096
7	-0.6969754695892334	-0.3750050663948059	0.03332510590553284	0.5401427745819092	0.018884150311350822	-0.043426964432001114	0.2566208243370056	-0.4002179801464081	0.09862474352121353	0.19768302142620087	1.1091617345809937	0.6819590330123901	0.16186022758483887	-0.0477440319955349	-0.013693972490727901	-0.4323480427265167	-0.3137424886226654	-0.09187574684619904	-0.0594484880566597	-0.06865706294775009	0.6009358763694763	0.759451150894165	0.7898819446563721	-0.8198918700218201	-1.0452508926391602	-0.11320561170578003	0.18010735511779785	1.429697871208191	0.2885582149028778	0.05640089511871338	1.33379065990448	-0.0014096498489379883	-0.586083710193634	0.004890188574790955	1.5289157629013062	0.126570463180542	0.5306888222694397	-0.04960615187883377	0.5402181148529053	-0.07431060075759888	-1.3012394905090332	0.5630589723587036	0.9196463823318481	-0.13573598861694336	-0.1323312520980835	0.3626406192779541	0.05956143140792847	0.15786141157150269	-0.041295215487480164	-0.05851536989212036	-0.028768181800842285
8	-0.7146984338760376	-0.3771848678588867	0.03734934329986572	0.5710142850875854	0.024862613528966904	-0.04192575067281723	0.28875353932380676	-0.39960598945617676	0.08877445012331009	0.19811201095581055	1.1367806196212769	0.6844298839569092	0.17096653580665588	-0.04916965216398239	-0.012596561573445797	-0.43364644050598145	-0.33278369903564453	-0.08182444423437119	-0.039426885545253754	-0.0710756853222847	0.596692681312561	0.764382004737854	0.7860875129699707	-0.816206693649292	-0.8310854434967041	-0.1116342842578888	0.20562466979026794	1.4352947473526	0.30118444561958313	0.08114520460367203	1.5706732273101807	0.05261152982711792	-0.45029595494270325	0.02451986074447632	1.3008952140808105	0.13198107481002808	0.4244022071361542	-0.07373011112213135	-0.19660049676895142	-0.06763935089111328	-0.8122540712356567	0.4871577024459839	1.025088906288147	-0.1158393919467926	-0.227239727973938	0.19060075283050537	-0.2450883388519287	0.19306987524032593	-0.030754785984754562	-0.05034450441598892	-0.007089972496032715
9	-0.7302188873291016	-0.37947043776512146	0.04155009239912033	0.5975545644760132	0.03093152865767479	-0.04018115624785423	0.31944775581359863	-0.39811351895332336	0.0806129053235054	0.19866381585597992	1.161197543144226	0.6872382760047913	0.17883631587028503	-0.05069323629140854	-0.021557992324233055	-0.43505361676216125	-0.34623265266418457	-0.07238943874835968	-0.018444932997226715	-0.0732906386256218	0.5918462872505188	0.7670751810073853	0.7800784111022949	-0.812169075012207	-0.6659328937530518	-0.11957064270973206	0.21886983513832092	1.1105269193649292	0.3079793453216553	0.09940043091773987	1.462852954864502	0.11864230036735535	-0.3236647844314575	0.033730268478393555	1.0608166456222534	0.157301127910614	0.3316856920719147	-0.08108001202344894	-0.9509730935096741	-0.07580071687698364	-0.392894446849823	0.4409572184085846	1.0971496105194092	-0.1005692407488823	-0.27248114347457886	0.02279430627822876	-0.4111841320991516	0.2195015549659729	-0.024289708584547043	-0.041539594531059265	-0.024043023586273193
10	-0.7413357496261597	-0.381967693567276	0.04610413685441017	0.6154353618621826	0.0371817871928215	-0.037949733436107635	0.34726765751838684	-0.39486029744148254	0.07582785934209824	0.1994612216949463	1.179213285446167	0.6907219290733337	0.18423396348953247	-0.05241285264492035	-0.05063548684120178	-0.4366784691810608	-0.34849947690963745	-0.06418615579605103	0.004459099378436804	-0.07509845495223999	0.5857934355735779	0.7652937769889832	0.7696401476860046	-0.8074266314506531	-0.5308479070663452	-0.09967908263206482	0.22000931203365326	0.537949800491333	0.3009588420391083	0.11160978674888611	1.080779790878296	0.2047501504421234	-0.1383170485496521	0.037049874663352966	0.7073342800140381	0.13394802808761597	0.2236679196357727	-0.1001100093126297	-1.5812890529632568	-0.060279667377471924	0.05867481231689453	0.38451850414276123	0.6105148196220398	-0.07782932370901108	-0.334949791431427	-0.1524507999420166	-0.613442063331604	0.24932026863098145	-0.014519807882606983	-0.03022998571395874	-0.031939148902893066
11	-0.7514528036117554	-0.38345760107040405	0.05035046488046646	0.6190725564956665	0.04296988248825073	-0.035716764628887177	0.3626789450645447	-0.3899235129356384	0.07508022338151932	0.20014581084251404	1.1894909143447876	0.6925961971282959	0.18778303265571594	-0.054697636514902115	-0.0848095566034317	-0.43746480345726013	-0.3438856601715088	-0.05700869858264923	0.005975659936666489	-0.07640381157398224	0.5784482955932617	0.7609771490097046	0.7555407285690308	-0.8021962642669678	-0.49336105585098267	-0.06190687417984009	0.20847377181053162	0.0038295984268188477	0.28363317251205444	0.11166884005069733	0.6154828071594238	0.2678871154785156	0.013082101941108704	0.03281943500041962	0.4171609878540039	0.07359832525253296	0.1543533056974411	-0.12130522727966309	-1.7724286317825317	-0.028837472200393677	0.31669363379478455	0.3460565507411957	-0.19149059057235718	-0.05898866802453995	-0.3834158182144165	-0.24752318859100342	-0.7507383823394775	0.26762038469314575	-0.006329501047730446	-0.022069551050662994	-0.026838481426239014
12	-0.761070191860199	-0.3844439685344696	0.05444308742880821	0.6155885457992554	0.04852711409330368	-0.033482979983091354	0.3718869686126709	-0.3841448128223419	0.07635114341974258	0.20077399909496307	1.1958997249603271	0.6936658620834351	0.19040809571743011	-0.057265061885118484	-0.1215326339006424	-0.43783196806907654	-0.33583173155784607	-0.050343893468379974	-0.0032005237881094217	-0.07745800167322159	0.5704568028450012	0.755392849445343	0.7396106123924255	-0.7967218160629272	-0.40421634912490845	-0.0005699694156646729	0.18748417496681213	-0.5532175302505493	0.2539191246032715	0.07597431540489197	0.18517076969146729	0.3097042441368103	0.1703709363937378	0.01820996403694153	-0.09861588478088379	-0.04366636276245117	0.15852004289627075	-0.12749963998794556	-1.544737458229065	0.03165006637573242	0.45872926712036133	0.2722185254096985	-0.7443767786026001	-0.029699690639972687	-0.37626028060913086	-0.3344699740409851	-0.8132368326187134	0.3167092800140381	0.005310075357556343	-0.010574795305728912	-0.011910498142242432
13	-0.7676214575767517	-0.38348039984703064	0.05784983187913895	0.5969438552856445	0.05312664806842804	-0.0326777920126915	0.37008577585220337	-0.377535343170166	0.08189506083726883	0.2008742094039917	1.1855462789535522	0.6908495426177979	0.19412383437156677	-0.05979762226343155	-0.14659905433654785	-0.43619880080223083	-0.32553648948669434	-0.04611995816230774	-0.023799410089850426	-0.07759179919958115	0.5633978843688965	0.7475983500480652	0.7230112552642822	-0.7895278930664062	-0.2460077404975891	0.06249472498893738	0.16791941225528717	-1.005527377128601	0.21901382505893707	0.024423934519290924	-0.08449926972389221	0.33483877778053284	0.3087213337421417	-0.007555633783340454	-0.7113516330718994	-0.17266571521759033	0.21128617227077484	-0.11564400047063828	-1.2134294509887695	0.09897574782371521	0.5054079294204712	0.18736310303211212	-1.0605692863464355	0.0015305355191230774	-0.32966285943984985	-0.38926005363464355	-0.8164629340171814	0.38474053144454956	0.017085134983062744	0.0012302771210670471	0.006251037120819092
14	-0.7709105014801025	-0.3819441795349121	0.06115986406803131	0.5753674507141113	0.05728766694664955	-0.03250602260231972	0.3685069978237152	-0.3707512617111206	0.08869999647140503	0.20047177374362946	1.1674456596374512	0.6867592334747314	0.1988595426082611	-0.061890821903944016	-0.17006981372833252	-0.43387293815612793	-0.3156154155731201	-0.04284936934709549	-0.0456232950091362	-0.07739678025245667	0.5572702884674072	0.7398224472999573	0.7069520950317383	-0.7813321948051453	-0.0013455748558044434	0.1054421067237854	0.160661518573761	-1.2253671884536743	0.18612128496170044	-0.023081060498952866	-0.06781965494155884	0.34792348742485046	0.40328577160835266	-0.04525110125541687	-1.2923449277877808	-0.2682030200958252	0.2877742052078247	-0.08269045501947403	-1.0937292575836182	0.15092268586158752	0.4773341119289398	0.1158599704504013	-1.1524133682250977	0.026190653443336487	-0.2598106861114502	-0.38785338401794434	-0.775928795337677	0.4598647356033325	0.025680404156446457	0.010320357978343964	0.021038949489593506
15	-0.7676752805709839	-0.3792627155780792	0.06427629292011261	0.5479291677474976	0.06057149916887283	-0.03360103443264961	0.367372989654541	-0.363618403673172	0.09802649170160294	0.19906416535377502	1.133852481842041	0.6801214218139648	0.20563480257987976	-0.06310524046421051	-0.19034822285175323	-0.43016189336776733	-0.30644312500953674	-0.041485559195280075	-0.06989594548940659	-0.07654417306184769	0.5530054569244385	0.7320842146873474	0.6919741034507751	-0.771133303642273	0.36888420581817627	0.16020089387893677	0.14398935437202454	-1.4689877033233643	0.12981882691383362	-0.07225023210048676	-0.01993998885154724	0.3891199827194214	0.5194498300552368	-0.12055076658725739	-2.0997226238250732	-0.40448904037475586	0.35089924931526184	-0.06689010560512543	-0.8095026016235352	0.22658109664916992	0.4401281476020813	0.07074978202581406	-1.2592577934265137	0.05653016269207001	-0.13857781887054443	-0.36244839429855347	-0.7422387599945068	0.4960581660270691	0.03595999628305435	0.02119988203048706	0.040978193283081055
16	-0.7561551332473755	-0.37553614377975464	0.06691943854093552	0.516607940196991	0.062480419874191284	-0.0353960320353508	0.3677093982696533	-0.35518646240234375	0.10947798937559128	0.19564974308013916	1.0834567546844482	0.6705796718597412	0.21289551258087158	-0.06456642597913742	-0.20244991779327393	-0.42480969429016113	-0.29801028966903687	-0.04001937806606293	-0.09599360823631287	-0.07513557374477386	0.5517271757125854	0.7253245115280151	0.677262544631958	-0.7614898681640625	0.6795749068260193	0.19939541816711426	0.12624375522136688	-1.6146256923675537	0.07826276123523712	-0.09850049018859863	0.035200268030166626	0.43784230947494507	0.5991475582122803	-0.19580945372581482	-2.729862928390503	-0.5133926868438721	0.3691103458404541	-0.07614586502313614	-0.5028873682022095	0.2881258726119995	0.4124075174331665	0.07459204643964767	-1.3277145624160767	0.07738061249256134	-0.02658367156982422	-0.32575875520706177	-0.7322594523429871	0.47523677349090576	0.04278521612286568	0.028430111706256866	0.05610138177871704
17	-0.7404922842979431	-0.37128689885139465	0.06932604312896729	0.4833441376686096	0.06370200961828232	-0.03754105418920517	0.3687810003757477	-0.3461047112941742	0.12199239432811737	0.19123178720474243	1.024657964706421	0.65958571434021	0.22039921581745148	-0.06615107506513596	-0.2104637175798416	-0.41863685846328735	-0.2899468243122101	-0.03850187733769417	-0.12300452589988708	-0.07344894856214523	0.5519421100616455	0.7190538644790649	0.6626837253570557	-0.7521238327026367	1.063305139541626	0.19923001527786255	0.10244939476251602	-1.703007459640503	0.03673471510410309	-0.10846471786499023	0.04287064075469971	0.5285844206809998	0.7026592493057251	-0.3131557106971741	-3.492283821105957	-0.5529597401618958	0.39085447788238525	-0.10669510811567307	0.07310062646865845	0.3183439373970032	0.404474139213562	0.15874570608139038	-1.192314863204956	0.09833984076976776	0.10146200656890869	-0.27562379837036133	-0.6631463766098022	0.37637799978256226	0.049964942038059235	0.036720000207424164	0.06475597620010376
18	-0.7136229276657104	-0.36756694316864014	0.07101741433143616	0.44848763942718506	0.06394980847835541	-0.0397346206009388	0.3694242238998413	-0.33404308557510376	0.1375843584537506	0.18312351405620575	0.94376540184021	0.6484612822532654	0.228529691696167	-0.06883423030376434	-0.1995258927345276	-0.412075936794281	-0.2818313241004944	-0.033669549971818924	-0.1436862051486969	-0.07120198011398315	0.5557856559753418	0.7142995595932007	0.6507366895675659	-0.74643474817276	1.406378984451294	0.18060877919197083	0.08428972214460373	-1.710114598274231	-0.001455843448638916	-0.1007341742515564	0.12865588068962097	0.6323807239532471	0.8337963223457336	-0.4553169012069702	-4.0601654052734375	-0.5800008773803711	0.37687236070632935	-0.16559156775474548	0.7194340229034424	0.342385470867157	0.4516519606113434	0.23379391431808472	-0.4104342460632324	0.11295489966869354	0.17794817686080933	-0.1951560378074646	-0.6170108914375305	0.2358466386795044	0.05487985908985138	0.04221498966217041	0.0641554594039917
19	-0.6842371225357056	-0.3640625476837158	0.07269763201475143	0.4149395525455475	0.06364377588033676	-0.04157042130827904	0.3739272356033325	-0.3208094835281372	0.15534424781799316	0.17301911115646362	0.862251341342926	0.6363856792449951	0.2354741096496582	-0.072774738073349	-0.18168635666370392	-0.4049414396286011	-0.27188074588775635	-0.02915012091398239	-0.13942189514636993	-0.06893075257539749	0.5590600371360779	0.7112476229667664	0.6380032896995544	-0.7426899671554565	1.595047116279602	0.16443878412246704	0.08344985544681549	-1.6119248867034912	-0.04299040883779526	-0.0738995149731636	0.4181206226348877	0.7202491164207458	0.9963486194610596	-0.6049994230270386	-4.106619834899902	-0.6513088941574097	0.28790831565856934	-0.2598801553249359	1.2370012998580933	0.3853894770145416	0.5892597436904907	0.21031928062438965	1.4604121446609497	0.11476986110210419	0.13525933027267456	-0.06747841835021973	-0.6759583950042725	0.09001791477203369	0.05490987002849579	0.041059963405132294	0.05151033401489258
20	-0.6498210430145264	-0.36098939180374146	0.07435540854930878	0.3840106427669525	0.0622301921248436	-0.04269060119986534	0.3861490488052368	-0.3052331209182739	0.17743830382823944	0.15892353653907776	0.7795006036758423	0.622408926486969	0.24004602432250977	-0.079229436814785	-0.15004584193229675	-0.39666035771369934	-0.25826093554496765	-0.025256779044866562	-0.08526971936225891	-0.06661118566989899	0.5611960291862488	0.7116004228591919	0.623698353767395	-0.7428340315818787	1.710045337677002	0.09490847587585449	0.08380990475416183	-1.191497564315796	-0.07031001150608063	-0.04918966442346573	0.9420163631439209	0.8300989866256714	1.0762267112731934	-0.7289886474609375	-3.6127076148986816	-0.5620643496513367	0.13463646173477173	-0.36788004636764526	1.0941349267959595	0.3672376275062561	0.6754987239837646	0.2836615741252899	2.241572380065918	0.11473949998617172	0.2229630947113037	-0.029821693897247314	-0.7772698998451233	-0.09301304817199707	0.05243980512022972	0.04345998167991638	0.061349570751190186
21	-0.6158353090286255	-0.36026620864868164	0.07605002820491791	0.36727964878082275	0.060831375420093536	-0.04353800788521767	0.41160789132118225	-0.28760552406311035	0.198393315076828	0.14385956525802612	0.7177430391311646	0.6139031052589417	0.24085956811904907	-0.08748994022607803	-0.13792096078395844	-0.39025193452835083	-0.24486079812049866	-0.017803657799959183	-0.049758996814489365	-0.06434117257595062	0.56797856092453	0.7100547552108765	0.6069124937057495	-0.7464104890823364	1.6938894987106323	0.006783008575439453	0.08519068360328674	-0.6590671539306641	-0.06975466012954712	-0.03895936533808708	1.4383904933929443	0.9070165157318115	1.0335038900375366	-0.765296459197998	-2.825429916381836	-0.35689622163772583	-0.006302818655967712	-0.4355955719947815	0.36229825019836426	0.2970099449157715	0.667252779006958	0.41715097427368164	1.542496919631958	0.11288020759820938	0.3972098231315613	-0.10101348161697388	-0.8702963590621948	-0.22172927856445312	0.048705436289310455	0.048215314745903015	0.08875429630279541
22	-0.5820654630661011	-0.3607180714607239	0.07776303589344025	0.35764795541763306	0.0594400055706501	-0.044248975813388824	0.4436846673488617	-0.26895245909690857	0.21877846121788025	0.12831167876720428	0.6664834022521973	0.60813307762146	0.23979391157627106	-0.09665326029062271	-0.13555391132831573	-0.3847799599170685	-0.23157082498073578	-0.00857073999941349	-0.02356984280049801	-0.06209597736597061	0.5770844221115112	0.7075598835945129	0.5888864994049072	-0.7517032027244568	1.3851523399353027	-0.06655603647232056	0.07639452815055847	-0.27401670813560486	-0.034544430673122406	0.0067205168306827545	1.4545291662216187	0.9794983863830566	0.963341474533081	-0.7124524712562561	-1.8583834171295166	-0.09166151285171509	-0.10232999920845032	-0.4843941032886505	0.13958998024463654	0.17305389046669006	0.5075216293334961	0.486314058303833	0.8091514706611633	0.08017458021640778	0.6699308753013611	-0.1972496509552002	-0.9194225072860718	-0.2855837345123291	0.04598987102508545	0.03908965736627579	0.07549524307250977
23	-0.5604292154312134	-0.36292845010757446	0.07910580933094025	0.35631898045539856	0.05944959819316864	-0.043269187211990356	0.469789057970047	-0.24842558801174164	0.23692697286605835	0.11536146700382233	0.6434077024459839	0.610236644744873	0.23676636815071106	-0.10686570405960083	-0.13233736157417297	-0.3833297789096832	-0.2245599329471588	0.0016489040572196245	-0.01739293709397316	-0.06113418936729431	0.5947757959365845	0.7021647691726685	0.5701355934143066	-0.7578338384628296	0.9651497006416321	-0.11633932590484619	0.058019161224365234	0.005774199962615967	0.02000601962208748	0.04626475274562836	1.2252264022827148	1.0012454986572266	0.833138108253479	-0.5872247815132141	-0.9246826171875	0.15812218189239502	-0.12621283531188965	-0.4813319146633148	0.13364776968955994	0.03500208258628845	0.20424015820026398	0.44871488213539124	0.2709919214248657	0.03606919199228287	0.9950459003448486	-0.2600044012069702	-0.8976802229881287	-0.27335435152053833	0.043839845806360245	0.02429969608783722	0.043779611587524414
24	-0.5434594750404358	-0.3653716444969177	0.08008380234241486	0.3578789234161377	0.0602402463555336	-0.04239838570356369	0.4926937222480774	-0.2289026379585266	0.2521039843559265	0.10482268780469894	0.6294960975646973	0.6144579648971558	0.23474539816379547	-0.11590653657913208	-0.13020800054073334	-0.38337987661361694	-0.22340121865272522	0.009377855807542801	-0.01273016631603241	-0.0606532096862793	0.6168862581253052	0.6971597075462341	0.5529792904853821	-0.7626373767852783	0.6151467561721802	-0.1337990164756775	0.030659884214401245	0.22243186831474304	0.078580342233181	0.03808978945016861	0.9852148294448853	0.9259171485900879	0.6102569103240967	-0.40635746717453003	-0.237390398979187	0.3169402480125427	-0.050719454884529114	-0.39344820380210876	0.05210898816585541	-0.07751062512397766	-0.2346530556678772	0.26190775632858276	0.15742862224578857	9.592622518539429e-06	1.3264179229736328	-0.23073852062225342	-0.7780551910400391	-0.17381906509399414	0.0417998768389225	0.012060068547725677	0.015819072723388672
25	-0.5358233451843262	-0.36828041076660156	0.0803322046995163	0.3652162551879883	0.06259281188249588	-0.04174559563398361	0.5091976523399353	-0.21138890087604523	0.2613372504711151	0.09910716861486435	0.6339120864868164	0.6229142546653748	0.2347375899553299	-0.1226036325097084	-0.13025300204753876	-0.38643020391464233	-0.2339460551738739	0.012125213630497456	-0.011095792055130005	-0.06113380566239357	0.6478325128555298	0.6929352283477783	0.5390133857727051	-0.7647866010665894	0.13022422790527344	-0.13050958514213562	0.0030998140573501587	0.5201533436775208	0.17023104429244995	0.02434970811009407	0.5988925695419312	0.7846254706382751	0.387447327375412	-0.2146875560283661	0.6672292947769165	0.4539698362350464	0.21652504801750183	-0.21598637104034424	-0.05638115108013153	-0.19686073064804077	-0.771254301071167	0.05489776283502579	-0.01963253691792488	-0.03979029133915901	1.5200436115264893	-0.2178087830543518	-0.4457220435142517	-0.03972947597503662	0.038459837436676025	-0.002460181713104248	-0.020429491996765137
26	-0.5382505059242249	-0.37059202790260315	0.08020779490470886	0.3786850571632385	0.06704948842525482	-0.04142439737915993	0.5166494250297546	-0.19751761853694916	0.267601877450943	0.09623518586158752	0.6561852693557739	0.6326167583465576	0.24340640008449554	-0.12454599142074585	-0.1324632465839386	-0.3912543058395386	-0.2542513906955719	0.011573766358196735	-0.013515467755496502	-0.06224482133984566	0.6776880025863647	0.6884473562240601	0.535150408744812	-0.7642265558242798	-0.24714171886444092	-0.10811462998390198	-0.010880082845687866	0.7500685453414917	0.24912971258163452	0.011914875358343124	0.25943368673324585	0.6480224132537842	0.27611851692199707	-0.1080542802810669	1.3368473052978516	0.5006939172744751	0.5418855547904968	-0.03768410533666611	-0.1375749707221985	-0.2633698284626007	-1.1372483968734741	-0.06880534440279007	-0.17165517807006836	-0.06342986226081848	1.479111671447754	-0.22768080234527588	-0.06686002016067505	0.061865150928497314	0.03548989072442055	-0.01200009137392044	-0.04684478044509888
27	-0.5457090139389038	-0.37260499596595764	0.07989700138568878	0.39521899819374084	0.07255800068378448	-0.04126900061964989	0.5195749998092651	-0.18546800315380096	0.272381991147995	0.09478499740362167	0.6873859763145447	0.6429420113563538	0.2564130127429962	-0.12411099672317505	-0.1357560008764267	-0.39696499705314636	-0.27943599224090576	0.009372999891638756	-0.017961999401450157	-0.06367100030183792	0.7069969773292542	0.6838279962539673	0.5363389849662781	-0.7623119950294495	-0.6681621074676514	-0.12421533465385437	-0.010934844613075256	0.9338840842247009	0.3070194125175476	-0.004965160042047501	-0.1418277621269226	0.4548419117927551	0.13054311275482178	0.07873643189668655	1.9188151359558105	0.5574584007263184	0.7189940810203552	0.1489061862230301	-0.07418878376483917	-0.3196790814399719	-1.3016670942306519	-0.17965543270111084	-0.34789571166038513	-0.08373008668422699	1.1265844106674194	-0.3370359539985657	0.1619100570678711	0.18592476844787598	0.028199853375554085	-0.02052001655101776	-0.073966383934021
28	-0.5649769902229309	-0.3755606412887573	0.07977040112018585	0.41604042053222656	0.07933026552200317	-0.04162300378084183	0.5109763145446777	-0.1793239414691925	0.27282360196113586	0.09938464313745499	0.7329378724098206	0.6549150943756104	0.2721661627292633	-0.11858974397182465	-0.13543079793453217	-0.40404146909713745	-0.306318074464798	0.004387549124658108	-0.027431296184659004	-0.06559402495622635	0.7227513790130615	0.6749659180641174	0.5416268110275269	-0.7567895650863647	-1.0140314102172852	-0.16031935811042786	-0.0020850449800491333	1.0369874238967896	0.33160412311553955	-0.018499884754419327	-0.47192275524139404	0.2736300230026245	0.0091552734375	0.25040414929389954	2.29530930519104	0.6026580929756165	0.793797492980957	0.2746242880821228	0.10066889226436615	-0.3542795777320862	-1.241302490234375	-0.2798689007759094	-0.4728338122367859	-0.09577982127666473	0.6762847304344177	-0.4477083683013916	0.24598538875579834	0.2933785319328308	0.020139973610639572	-0.026394985616207123	-0.09309500455856323
29	-0.586270272731781	-0.37901777029037476	0.07981359958648682	0.4366984963417053	0.08582216501235962	-0.04200899600982666	0.5006980895996094	-0.17452280223369598	0.272748202085495	0.10480116307735443	0.7791983485221863	0.6670483350753784	0.2881649136543274	-0.11312602460384369	-0.13172924518585205	-0.4111361801624298	-0.32908809185028076	-0.0018217558972537518	-0.03687535226345062	-0.06750219315290451	0.7340483665466309	0.6659196615219116	0.54617840051651	-0.7505768537521362	-1.1659681797027588	-0.19793957471847534	0.010650046169757843	1.0247774124145508	0.3105891942977905	-0.020899996161460876	-0.5979090929031372	0.17291903495788574	-0.02962052822113037	0.31167978048324585	2.348543643951416	0.614689290523529	0.8122481107711792	0.2703191637992859	0.3539012670516968	-0.3556586802005768	-0.9329445362091064	-0.37166982889175415	-0.47095879912376404	-0.09466949850320816	0.34200698137283325	-0.4615381360054016	0.19077062606811523	0.3451600670814514	0.014859918504953384	-0.02800002694129944	-0.09554028511047363
30	-0.6116157174110413	-0.38347822427749634	0.08019640296697617	0.4570315182209015	0.09175383299589157	-0.04245900362730026	0.48705995082855225	-0.17240718007087708	0.27163878083229065	0.11185183376073837	0.826879620552063	0.6795026659965515	0.30465608835220337	-0.10777697712182999	-0.12127474695444107	-0.4182678163051605	-0.3436358571052551	-0.010479243472218513	-0.046269647777080536	-0.06938080489635468	0.7364316582679749	0.6565043926239014	0.5492576360702515	-0.7429831624031067	-1.3033642768859863	-0.23629292845726013	0.022210367023944855	0.9656891226768494	0.25294217467308044	-0.0168701633810997	-0.6962977647781372	0.051459670066833496	-0.1215122640132904	0.4013046622276306	2.315263509750366	0.6321266293525696	0.6962157487869263	0.2455722540616989	0.6738584637641907	-0.3594830632209778	-0.40676072239875793	-0.4550248980522156	-0.4267938435077667	-0.08291061967611313	-0.04000067710876465	-0.43390393257141113	-0.07532387971878052	0.3808736801147461	0.013530164025723934	-0.0271601602435112	-0.07716119289398193
31	-0.6384048461914062	-0.38846948742866516	0.08070201426744461	0.4753260612487793	0.09593985229730606	-0.04268380254507065	0.4728461802005768	-0.17246441543102264	0.2678877115249634	0.12085334956645966	0.8718088865280151	0.6923334002494812	0.31601354479789734	-0.10330313444137573	-0.10477490723133087	-0.4255155026912689	-0.3453585207462311	-0.02002275176346302	-0.05394710600376129	-0.07081861793994904	0.7324483394622803	0.6485635042190552	0.5431654453277588	-0.7353419065475464	-1.3574824333190918	-0.25619417428970337	0.026815012097358704	0.8892372250556946	0.1874791383743286	-0.008424930274486542	-0.7178738713264465	-0.03002062439918518	-0.22056922316551208	0.47445428371429443	2.212034225463867	0.6462335586547852	0.5036979913711548	0.21274946630001068	0.9005436897277832	-0.36382973194122314	0.0741712749004364	-0.4882439076900482	-0.3624088168144226	-0.06637983024120331	-0.27874112129211426	-0.37861019372940063	-0.41924118995666504	0.3826543688774109	0.01681497134268284	-0.02429485321044922	-0.047144293785095215
32	-0.6659150123596191	-0.3937259912490845	0.08126900345087051	0.4926010072231293	0.09925299882888794	-0.042796000838279724	0.4583449959754944	-0.17360800504684448	0.26281601190567017	0.13083000481128693	0.9153609871864319	0.7053520083427429	0.32480400800704956	-0.09926699846982956	-0.08525300025939941	-0.43282100558280945	-0.34066900610923767	-0.03000899963080883	-0.06076600030064583	-0.07203599810600281	0.7252820134162903	0.6413599848747253	0.5324879884719849	-0.7276769876480103	-1.2875661849975586	-0.22659078240394592	0.020219944417476654	0.7274448871612549	0.12088511139154434	0.013020634651184082	-0.6624802947044373	-0.16222931444644928	-0.3999069333076477	0.5327913761138916	1.8898755311965942	0.5526930093765259	0.3893725574016571	0.16123540699481964	0.9730148911476135	-0.32590776681900024	0.3555811941623688	-0.5868082642555237	-0.2104187309741974	-0.04780516028404236	-0.5470752716064453	-0.22566020488739014	-0.5661815404891968	0.4038959741592407	0.018690211698412895	-0.02230517566204071	-0.044114887714385986
33	-0.6899074912071228	-0.397533118724823	0.08151081204414368	0.5044238567352295	0.10077525675296783	-0.042162977159023285	0.4463469684123993	-0.17895358800888062	0.25189143419265747	0.14216500520706177	0.9474039077758789	0.7144411206245422	0.3315884470939636	-0.09685371816158295	-0.06585431098937988	-0.43855181336402893	-0.33113527297973633	-0.04349508136510849	-0.06236385554075241	-0.07273082435131073	0.7105653285980225	0.6395370960235596	0.5205181837081909	-0.7191860675811768	-1.1400550603866577	-0.16225501894950867	0.010644830763339996	0.5514435768127441	0.06757043302059174	0.03256043419241905	-0.5567535758018494	-0.28571897745132446	-0.5693323612213135	0.5820814371109009	1.496250867843628	0.4044771194458008	0.31606703996658325	0.11069551110267639	0.9275572299957275	-0.2664916217327118	0.5001716613769531	-0.6421098709106445	-0.050764065235853195	-0.029589980840682983	-0.8083418011665344	-0.08570998907089233	-0.516200065612793	0.3931567072868347	0.02099529281258583	-0.02056509256362915	-0.04775971174240112
34	-0.7115172147750854	-0.4002161920070648	0.08169479668140411	0.5146587491035461	0.10195581614971161	-0.04149358347058296	0.4360748529434204	-0.185036763548851	0.24004271626472473	0.1541132628917694	0.9752110242843628	0.721531093120575	0.3374466896057129	-0.0948391780257225	-0.04815071076154709	-0.4434806704521179	-0.32066214084625244	-0.05569339543581009	-0.06279656291007996	-0.07321959733963013	0.6929483413696289	0.6379315853118896	0.5118399858474731	-0.7119507193565369	-0.9614303708076477	-0.07796734571456909	0.006309710443019867	0.43239444494247437	0.04194900393486023	0.0352899543941021	-0.4273541271686554	-0.3410510718822479	-0.6386712193489075	0.6281100511550903	1.178675889968872	0.2545759081840515	0.24662688374519348	0.08079893887042999	0.8004937171936035	-0.20636692643165588	0.5706511735916138	-0.5455752611160278	0.03661280497908592	-0.014139339327812195	-1.0258972644805908	-0.06941854953765869	-0.26938170194625854	0.2990260720252991	0.025570090860128403	-0.018449872732162476	-0.037769973278045654
35	-0.7283647060394287	-0.40065181255340576	0.08176320046186447	0.5217196345329285	0.10245321691036224	-0.0407513789832592	0.4292528033256531	-0.19259563088417053	0.22634458541870117	0.16728940606117249	0.9945509433746338	0.7246241569519043	0.34145352244377136	-0.09362176060676575	-0.033834561705589294	-0.44680649042129517	-0.3083092272281647	-0.06531809270381927	-0.060899343341588974	-0.07329639792442322	0.6695294380187988	0.6367603540420532	0.5097429156303406	-0.7072250247001648	-0.6607621908187866	0.04431083798408508	0.0004500150680541992	0.248795747756958	0.0021792948246002197	0.028619635850191116	-0.2278655767440796	-0.398349404335022	-0.7378891110420227	0.7099095582962036	0.7022202014923096	0.04117637872695923	-0.013715773820877075	0.029159151017665863	0.5793451070785522	-0.11756792664527893	0.5940176248550415	-0.3930566906929016	0.16039125621318817	0.007540173828601837	-1.2330591678619385	-0.020739436149597168	-0.0362887978553772	0.18193870782852173	0.03280002251267433	-0.015019997954368591	-0.018741190433502197
36	-0.7379477024078369	-0.3984437584877014	0.08171279728412628	0.5246105790138245	0.10204298794269562	-0.04034879803657532	0.4269602298736572	-0.20097073912620544	0.21052715182304382	0.182509645819664	1.0032998323440552	0.7231781482696533	0.3368980586528778	-0.09367281198501587	-0.024976907297968864	-0.4481833875179291	-0.2969014346599579	-0.07141566276550293	-0.05638091266155243	-0.07291799038648605	0.6436259746551514	0.6371020078659058	0.5103884339332581	-0.704673171043396	-0.3883540630340576	0.14344900846481323	-0.004005245864391327	0.09242892265319824	-0.03185700625181198	0.015884358435869217	-0.05801543593406677	-0.42896533012390137	-0.817377507686615	0.7865726947784424	0.3050684928894043	-0.129033625125885	-0.33479854464530945	-0.018405728042125702	0.37466031312942505	-0.044486671686172485	0.5585864186286926	-0.26079827547073364	0.2586889863014221	0.024610944092273712	-1.3262524604797363	0.035990774631500244	0.06655305624008179	0.10042637586593628	0.03907028213143349	-0.01198984682559967	-0.00018328428268432617
37	-0.743898868560791	-0.39491385221481323	0.08160299062728882	0.5254167914390564	0.10117893666028976	-0.04011600464582443	0.4269321858882904	-0.20975424349308014	0.19364948570728302	0.19875231385231018	1.00675368309021	0.7194628119468689	0.328061580657959	-0.09435798972845078	-0.018848149105906487	-0.44858595728874207	-0.28596577048301697	-0.07575002312660217	-0.05055178329348564	-0.07231196016073227	0.6164793372154236	0.6381999850273132	0.5124050378799438	-0.7032079696655273	0.021639466285705566	0.25218427181243896	-0.012990273535251617	-0.14574676752090454	-0.09238719940185547	0.00485982745885849	0.1736760139465332	-0.46306997537612915	-0.9316921234130859	0.7227349877357483	-0.2547726035118103	-0.296512246131897	-0.6193459033966064	-0.006479397416114807	0.007252488285303116	0.024255365133285522	0.5226351022720337	-0.13076923787593842	0.3595855236053467	0.05358103662729263	-1.2877166271209717	0.028289854526519775	0.12180060148239136	0.07222592830657959	0.04893069341778755	-0.0060301274061203	0.02364218235015869
38	-0.7370821237564087	-0.38835638761520386	0.08119318634271622	0.5187807083129883	0.0983474999666214	-0.04015440493822098	0.43390727043151855	-0.2194935381412506	0.17325946688652039	0.21141904592514038	0.9931089282035828	0.7113176584243774	0.31212422251701355	-0.09393198788166046	-0.02468680776655674	-0.44721317291259766	-0.27599602937698364	-0.07664643228054047	-0.04199749231338501	-0.07077474892139435	0.5921173095703125	0.6382336020469666	0.5152604579925537	-0.7017841339111328	0.44382214546203613	0.3431856632232666	-0.02690032124519348	-0.40406882762908936	-0.16352608799934387	-0.008015334606170654	0.3928817808628082	-0.48668384552001953	-1.0372486114501953	0.6847068667411804	-0.828416645526886	-0.42870640754699707	-0.8213937282562256	0.017909705638885498	-0.37375926971435547	0.07815510034561157	0.46438276767730713	-0.09321272373199463	0.44092974066734314	0.08218996226787567	-1.1776983737945557	0.05782395601272583	0.16193687915802002	0.07653087377548218	0.058474961668252945	0.00012014061212539673	0.0456199049949646
39	-0.7261459827423096	-0.38118642568588257	0.08052697777748108	0.5092540383338928	0.09463789314031601	-0.04043661803007126	0.44264745712280273	-0.22922159731388092	0.15215954184532166	0.2261405885219574	0.9736170172691345	0.702314555644989	0.29520583152770996	-0.09364160150289536	-0.033798519521951675	-0.4454597532749176	-0.2673904597759247	-0.07947853207588196	-0.03291459381580353	-0.06902436167001724	0.5693714022636414	0.6405129432678223	0.5188825130462646	-0.7001467347145081	0.7527768611907959	0.3891311585903168	-0.046130456030368805	-0.6208643317222595	-0.22939163446426392	-0.02630045637488365	0.5252726078033447	-0.48585906624794006	-1.0905288457870483	0.8388329148292542	-1.266960859298706	-0.49306899309158325	-0.8950002193450928	0.007739663124084473	-0.6192368268966675	0.10670125484466553	0.3620952367782593	-0.23838430643081665	0.4805900752544403	0.09818039834499359	-1.056542992591858	0.22624582052230835	0.21943151950836182	0.09254962205886841	0.06380002200603485	0.0037204474210739136	0.05864053964614868
40	-0.7069710493087769	-0.3727911412715912	0.07934796810150146	0.4939461350440979	0.08917183429002762	-0.041206423193216324	0.45491817593574524	-0.2389279007911682	0.12963831424713135	0.244972363114357	0.9424304962158203	0.6915948987007141	0.27632421255111694	-0.09362240135669708	-0.04945627972483635	-0.44294512271881104	-0.26151221990585327	-0.08618180453777313	-0.02277388982474804	-0.0668475329875946	0.5498555898666382	0.6472834348678589	0.5240377187728882	-0.6980821490287781	1.1304914951324463	0.41845887899398804	-0.07176026701927185	-0.9100303053855896	-0.3034901022911072	-0.0375598669052124	0.6034083366394043	-0.4646584391593933	-1.073085904121399	0.8671157360076904	-1.8195436000823975	-0.5124464631080627	-0.9768091440200806	0.039131008088588715	-1.0068329572677612	0.11909976601600647	0.2544879913330078	-0.4158811569213867	0.5004385709762573	0.11665001511573792	-0.9811878204345703	0.3904104232788086	0.32173991203308105	0.13525933027267456	0.07042989879846573	0.009040161967277527	0.067099928855896
41	-0.6809263229370117	-0.36444807052612305	0.0776565670967102	0.47285282611846924	0.08249828964471817	-0.041939012706279755	0.4667837917804718	-0.24780793488025665	0.10923610627651215	0.2608252167701721	0.9008352756500244	0.6818166971206665	0.25613346695899963	-0.0920763611793518	-0.07407183945178986	-0.44069576263427734	-0.25721094012260437	-0.09611377865076065	-0.012897050939500332	-0.06435836106538773	0.5301238894462585	0.6561293601989746	0.5317521095275879	-0.6947363615036011	1.3881251811981201	0.4165083169937134	-0.09097587317228317	-1.126997947692871	-0.3487769365310669	-0.03616521134972572	0.5882278084754944	-0.4336819052696228	-0.9936442375183105	0.7554236650466919	-2.2099032402038574	-0.47715306282043457	-1.0259191989898682	0.09638722985982895	-1.3427599668502808	0.10915547609329224	0.19535720348358154	-0.5369646549224854	0.4905521869659424	0.12836512923240662	-0.9893015027046204	0.46824514865875244	0.41771382093429565	0.18330812454223633	0.0750500038266182	0.0134199857711792	0.06676912307739258
42	-0.6514460444450378	-0.35613080859184265	0.07570893317461014	0.44886621832847595	0.0752207562327385	-0.04265303164720535	0.478447288274765	-0.2562751770019531	0.08989254385232925	0.2751893103122711	0.8540343642234802	0.6725087761878967	0.23528744280338287	-0.08976691216230392	-0.10316667705774307	-0.43857890367507935	-0.25369793176651	-0.10766039043664932	-0.0031518028117716312	-0.061712928116321564	0.5102835297584534	0.666013240814209	0.54074627161026	-0.6907498240470886	1.6492635011672974	0.4045337438583374	-0.11711977422237396	-1.3668582439422607	-0.4232846200466156	-0.048479996621608734	0.5950636863708496	-0.3887530565261841	-0.929097056388855	0.6428226828575134	-2.7077674865722656	-0.455474853515625	-1.064832091331482	0.14677494764328003	-1.389205813407898	0.1196540892124176	0.1413293182849884	-0.6652044057846069	0.43750324845314026	0.13334974646568298	-0.9601309895515442	0.4648923873901367	0.5113199353218079	0.2843111753463745	0.07813481986522675	0.014954991638660431	0.0650554895401001
43	-0.6149557828903198	-0.34826672077178955	0.07297177612781525	0.4181784987449646	0.06556690484285355	-0.043878212571144104	0.4905863404273987	-0.26335805654525757	0.07207222282886505	0.28653812408447266	0.7925245761871338	0.6635977029800415	0.213540181517601	-0.0862053632736206	-0.12964007258415222	-0.43590959906578064	-0.25155776739120483	-0.12272195518016815	0.004603079054504633	-0.059024371206760406	0.4917186498641968	0.6747250556945801	0.5522049069404602	-0.6833639144897461	1.7972931861877441	0.3939598798751831	-0.14826041460037231	-1.5352762937545776	-0.5051601529121399	-0.06602015346288681	0.5931042432785034	-0.34264326095581055	-0.8761917948722839	0.557147741317749	-3.0685648918151855	-0.43562203645706177	-1.0957975387573242	0.15646350383758545	-1.1094683408737183	0.13991892337799072	0.09455345571041107	-0.7432421445846558	0.34114617109298706	0.1314394176006317	-0.8998051285743713	0.40970146656036377	0.5732700228691101	0.3517240285873413	0.07948975265026093	0.013139843940734863	0.07061660289764404
44	-0.5795543193817139	-0.3403724133968353	0.06977851688861847	0.38745516538619995	0.05501434952020645	-0.045293837785720825	0.5021714568138123	-0.26998090744018555	0.054844871163368225	0.2974752187728882	0.7312917709350586	0.6550838947296143	0.19145554304122925	-0.08350837230682373	-0.14754541218280792	-0.4329821467399597	-0.24991579353809357	-0.13739007711410522	0.010494044050574303	-0.056455351412296295	0.4742913246154785	0.6824012994766235	0.5636770725250244	-0.676680862903595	1.7155736684799194	0.3962092101573944	-0.18245987594127655	-1.5378862619400024	-0.572539210319519	-0.08029983937740326	0.5515381693840027	-0.3081291913986206	-0.8316876292228699	0.5262479186058044	-3.0476717948913574	-0.40581822395324707	-1.1210575103759766	0.09161923080682755	-0.46686306595802307	0.15927031636238098	0.057189539074897766	-0.7137078642845154	0.20134830474853516	0.12246957421302795	-0.8144580125808716	0.33201873302459717	0.5742579698562622	0.29899924993515015	0.07891978323459625	0.007469765841960907	0.09210854768753052
45	-0.546332836151123	-0.3324183523654938	0.06567338109016418	0.3566630482673645	0.04266533628106117	-0.047090206295251846	0.5126478672027588	-0.2756832242012024	0.03880471736192703	0.30758804082870483	0.6706176996231079	0.6473649740219116	0.16869787871837616	-0.0825405940413475	-0.14831459522247314	-0.4295387864112854	-0.24927018582820892	-0.15127027034759521	0.012657010927796364	-0.0541255883872509	0.4591403305530548	0.688005805015564	0.5751752257347107	-0.6714039444923401	1.4418303966522217	0.37061795592308044	-0.23459018766880035	-1.4180824756622314	-0.6274387240409851	-0.11597033590078354	0.42749494314193726	-0.2880595624446869	-0.774077296257019	0.5028284788131714	-2.6446030139923096	-0.2962574362754822	-1.1204369068145752	0.027079135179519653	0.2020556479692459	0.13169795274734497	0.029709935188293457	-0.6652280688285828	0.04735831171274185	0.09947922080755234	-0.6287053227424622	0.2128690481185913	0.4952356219291687	0.22114664316177368	0.07266967743635178	-0.006240233778953552	0.09491890668869019
46	-0.521881103515625	-0.3255476951599121	0.06039490923285484	0.3307318687438965	0.029916800558567047	-0.04993265122175217	0.5192712545394897	-0.281503289937973	0.023881779983639717	0.31758835911750793	0.625507652759552	0.643233597278595	0.14663806557655334	-0.08242520689964294	-0.13946318626403809	-0.4277142286300659	-0.24872739613056183	-0.16399919986724854	0.012388376519083977	-0.0524761825799942	0.44914311170578003	0.6909160614013672	0.5834864974021912	-0.667834997177124	1.1129484176635742	0.32998695969581604	-0.2785889506340027	-1.2357845306396484	-0.6424142718315125	-0.15519848465919495	0.2829998731613159	-0.29247477650642395	-0.7321776151657104	0.49860402941703796	-2.060924530029297	-0.161723792552948	-1.0942559242248535	-0.004883110523223877	0.5628194808959961	0.0709928572177887	0.0258520245552063	-0.6220508217811584	-0.043826691806316376	0.07396461069583893	-0.4354305565357208	0.11183023452758789	0.37572234869003296	0.15709996223449707	0.06386537849903107	-0.021135807037353516	0.07763952016830444
47	-0.5018149018287659	-0.31921887397766113	0.0545298233628273	0.3072316646575928	0.01696876622736454	-0.05329814553260803	0.5239678621292114	-0.28738221526145935	0.009517611935734749	0.32753220200538635	0.5881807208061218	0.6408960223197937	0.12492763996124268	-0.08273591846227646	-0.12580181658267975	-0.42669907212257385	-0.24823610484600067	-0.176152303814888	0.010903943330049515	-0.05116700381040573	0.441723108291626	0.6924790143966675	0.590204119682312	-0.6651199460029602	0.6321236491203308	0.288313627243042	-0.319319486618042	-0.9109750390052795	-0.5536473393440247	-0.2242351919412613	0.008097290992736816	-0.34351497888565063	-0.7411183714866638	0.4574231803417206	-1.1806085109710693	-0.05006939172744751	-0.8910702466964722	0.07366593927145004	0.5086464881896973	-0.009495019912719727	-0.08811093866825104	-0.5979430079460144	-0.09298496693372726	0.02917451784014702	-0.0797070562839508	0.008744001388549805	0.28559714555740356	0.13401061296463013	0.05248472839593887	-0.041205063462257385	0.04339367151260376
48	-0.49659615755081177	-0.31401515007019043	0.04762212932109833	0.2942928671836853	0.007770906668156385	-0.058902058750391006	0.5195951461791992	-0.29524388909339905	-0.005762955639511347	0.33588528633117676	0.5782833099365234	0.6412308216094971	0.11099525541067123	-0.07947856932878494	-0.11911732703447342	-0.4280940294265747	-0.25225183367729187	-0.18791691958904266	0.00866897776722908	-0.05130920186638832	0.445954829454422	0.6912658214569092	0.5949103832244873	-0.6624745726585388	0.12242645025253296	0.2568736672401428	-0.33727866411209106	-0.545792281627655	-0.4141160249710083	-0.29684528708457947	-0.29320716857910156	-0.41676461696624756	-0.7870094776153564	0.39945319294929504	-0.24061203002929688	0.020384788513183594	-0.610002875328064	0.19486156105995178	0.2563791275024414	-0.07974505424499512	-0.2557527422904968	-0.5863629579544067	-0.09715382754802704	-0.01779552549123764	0.2894490957260132	-0.08123815059661865	0.23519843816757202	0.13115555047988892	0.041169673204422	-0.06018504500389099	0.005614757537841797
49	-0.49691784381866455	-0.3089439272880554	0.04103867709636688	0.2853999733924866	0.00040412473026663065	-0.06517195701599121	0.5122395753860474	-0.30405279994010925	-0.021962767466902733	0.34351032972335815	0.57855623960495	0.641711413860321	0.10052752494812012	-0.07494145631790161	-0.11554665118455887	-0.42988887429237366	-0.2584662139415741	-0.19960682094097137	0.007017790339887142	-0.05187882483005524	0.4533010721206665	0.6892294883728027	0.5996120572090149	-0.6598737239837646	-0.29308199882507324	0.2469293773174286	-0.31294897198677063	-0.24234652519226074	-0.27677813172340393	-0.34677934646606445	-0.5169004201889038	-0.48778876662254333	-0.8559183478355408	0.3448382019996643	0.5221247673034668	0.031319260597229004	-0.35014674067497253	0.2908300757408142	0.022847764194011688	-0.10972917079925537	-0.42063072323799133	-0.5807384848594666	-0.05336951091885567	-0.049850158393383026	0.5230106115341187	-0.14296174049377441	0.23484081029891968	0.12781023979187012	0.03255987539887428	-0.07180999964475632	-0.022269785404205322
50	-0.5083194375038147	-0.3041379749774933	0.0351041704416275	0.2845990061759949	-0.0033002186100929976	-0.07277323305606842	0.49891912937164307	-0.3147554397583008	-0.039999689906835556	0.34967881441116333	0.5991683006286621	0.6424835920333862	0.09698938578367233	-0.06784536689519882	-0.11820341646671295	-0.4324831962585449	-0.2690770626068115	-0.21114645898342133	0.0065341973677277565	-0.05330320820212364	0.46687525510787964	0.6855473518371582	0.6043040156364441	-0.657362163066864	-0.8124232292175293	0.2187594771385193	-0.2579182982444763	0.13494491577148438	-0.09301741421222687	-0.40154939889907837	-0.7661119103431702	-0.5563594102859497	-0.9278982877731323	0.2578273415565491	1.4383361339569092	0.04975050687789917	-0.01843571662902832	0.36126935482025146	-0.15645045042037964	-0.15906915068626404	-0.6307505369186401	-0.54701828956604	-0.026239991188049316	-0.08965031802654266	0.7806912064552307	-0.21807998418807983	0.20138919353485107	0.049977004528045654	0.021239835768938065	-0.08336994796991348	-0.05612969398498535
51	-0.5294147729873657	-0.30019354820251465	0.03072194568812847	0.29079777002334595	-0.0033165719360113144	-0.0812339335680008	0.48159509897232056	-0.32630717754364014	-0.05907869711518288	0.3538234233856201	0.6360896825790405	0.643701434135437	0.09979009628295898	-0.060490682721138	-0.12180466949939728	-0.4362516403198242	-0.2836962342262268	-0.22148755192756653	0.0059681907296180725	-0.055464837700128555	0.48452872037887573	0.6805062890052795	0.6076676249504089	-0.6578746438026428	-1.1759147644042969	0.18644928932189941	-0.19970424473285675	0.3974251449108124	0.04528046399354935	-0.43376925587654114	-0.9162284135818481	-0.5881890654563904	-0.966957688331604	0.18192976713180542	2.0498931407928467	0.06646066904067993	0.21926537156105042	0.37095919251441956	-0.1918647438287735	-0.20309537649154663	-0.781048059463501	-0.5020636916160583	-0.02932993322610855	-0.11729477345943451	0.93364417552948	-0.2690345048904419	0.15157461166381836	-0.06342083215713501	0.012869946658611298	-0.08908472955226898	-0.07903426885604858
52	-0.5553560256958008	-0.2966800034046173	0.027116000652313232	0.30049601197242737	-0.0014890000456944108	-0.09012400358915329	0.46226999163627625	-0.3382830023765564	-0.07867799699306488	0.35695600509643555	0.681164026260376	0.6451420187950134	0.10576000064611435	-0.05300699919462204	-0.1258780062198639	-0.4406070113182068	-0.30031898617744446	-0.2312290072441101	0.0053610000759363174	-0.05799499899148941	0.5042210221290588	0.6747859716415405	0.6103670001029968	-0.6598989963531494	-1.4629185199737549	0.11033937335014343	-0.10924381017684937	0.6515398621559143	0.19407081604003906	-0.4501940608024597	-0.9566373825073242	-0.5529433488845825	-0.9554221034049988	0.038279592990875244	2.4830222129821777	0.10636448860168457	0.49731117486953735	0.39241406321525574	-0.07369313389062881	-0.2683207392692566	-0.8676283359527588	-0.4958838224411011	-0.07015533000230789	-0.14083488285541534	1.0343074798583984	-0.35303980112075806	0.14639943838119507	-0.0693291425704956	0.0038398895412683487	-0.0878695398569107	-0.09964555501937866
53	-0.5879315137863159	-0.2957799732685089	0.02635219320654869	0.3168593645095825	0.004446260631084442	-0.0992416962981224	0.4433296024799347	-0.34842491149902344	-0.09729558229446411	0.3553546071052551	0.7354105710983276	0.6479560136795044	0.11968254297971725	-0.04479411989450455	-0.12475239485502243	-0.4469844698905945	-0.31840136647224426	-0.24132290482521057	0.0031619775108993053	-0.06109823286533356	0.5259010195732117	0.6663846969604492	0.6135236024856567	-0.6606478095054626	-1.6444668769836426	0.00446811318397522	-0.018144166097044945	0.851304829120636	0.31112390756607056	-0.4448589086532593	-0.9231023788452148	-0.46607255935668945	-0.8773511052131653	-0.12890920042991638	2.71337628364563	0.1715242862701416	0.7192487120628357	0.38328245282173157	0.14461614191532135	-0.315123051404953	-0.8669570088386536	-0.469902902841568	-0.14562830328941345	-0.15623661875724792	1.0859102010726929	-0.41089802980422974	0.08537769317626953	-0.05127638578414917	-0.0041101593524217606	-0.08189063519239426	-0.11184215545654297
54	-0.6211346983909607	-0.2965012788772583	0.026390234008431435	0.3345482051372528	0.01095595583319664	-0.10791835933923721	0.42534589767456055	-0.356925904750824	-0.11377204209566116	0.3517996370792389	0.7896990776062012	0.6520029902458191	0.1345299482345581	-0.03767570108175278	-0.12009336054325104	-0.4532119333744049	-0.3349972665309906	-0.2500251233577728	-0.0004641319392248988	-0.06424446403980255	0.5476574301719666	0.6583500504493713	0.6137821078300476	-0.6619500517845154	-1.6915172338485718	-0.1171216368675232	0.04199039936065674	0.9506985545158386	0.35419946908950806	-0.41177868843078613	-0.8513465523719788	-0.34300684928894043	-0.7167670726776123	-0.2754107117652893	2.716492176055908	0.26398003101348877	0.7885987162590027	0.30119866132736206	0.40960144996643066	-0.30386894941329956	-0.7554680109024048	-0.3655277192592621	-0.25265026092529297	-0.15945956110954285	1.091627836227417	-0.38339942693710327	-0.13197064399719238	-0.09278059005737305	-0.009240023791790009	-0.07330961525440216	-0.10949820280075073
55	-0.6555922031402588	-0.30046483874320984	0.028031809255480766	0.35488730669021606	0.018614239990711212	-0.11571284383535385	0.40927574038505554	-0.36214518547058105	-0.12596626579761505	0.34433817863464355	0.8440702557563782	0.658515214920044	0.1512264907360077	-0.032746173441410065	-0.10836833715438843	-0.45913922786712646	-0.34862008690834045	-0.25594401359558105	-0.006944033317267895	-0.06747661530971527	0.5695661306381226	0.6510487198829651	0.608244776725769	-0.6643590331077576	-1.6899750232696533	-0.23677051067352295	0.10696039348840714	1.0344579219818115	0.39461931586265564	-0.34347790479660034	-0.774557888507843	-0.16933679580688477	-0.475995808839798	-0.4644908010959625	2.6009023189544678	0.32543689012527466	0.8796688318252563	0.19177812337875366	0.7468521595001221	-0.25695785880088806	-0.6389975547790527	-0.21372660994529724	-0.36457011103630066	-0.15452951192855835	1.0910481214523315	-0.2943381667137146	-0.3298908472061157	-0.1658409833908081	-0.012159952893853188	-0.05736947059631348	-0.07772743701934814
56	-0.688733696937561	-0.3059720993041992	0.030668649822473526	0.37592652440071106	0.026740727946162224	-0.12165747582912445	0.3943635821342468	-0.36369937658309937	-0.13281187415122986	0.3332200050354004	0.8937351703643799	0.6650204658508301	0.1697167009115219	-0.030004575848579407	-0.09021927416324615	-0.46349024772644043	-0.3605571687221527	-0.2585741877555847	-0.015046936459839344	-0.07042564451694489	0.5912993550300598	0.6465765237808228	0.600586473941803	-0.6685836911201477	-1.6405954360961914	-0.29465407133102417	0.14427979290485382	1.0606921911239624	0.4121690094470978	-0.2741040587425232	-0.7311187982559204	-0.031895190477371216	-0.2754185199737549	-0.6016045808792114	2.424368381500244	0.3251701593399048	0.9469128847122192	0.1097293570637703	0.9877333641052246	-0.19784420728683472	-0.5757726430892944	-0.09039938449859619	-0.42542415857315063	-0.14390963315963745	1.084446907043457	-0.18824338912963867	-0.40941983461380005	-0.23392438888549805	-0.011409912258386612	-0.0420399010181427	-0.03241598606109619
57	-0.7212160229682922	-0.3122510015964508	0.033803001046180725	0.39731499552726746	0.03510100021958351	-0.126677006483078	0.3800309896469116	-0.3634209930896759	-0.1369830071926117	0.3202739953994751	0.9410449862480164	0.6715220212936401	0.18910300731658936	-0.028356999158859253	-0.06885900348424911	-0.46705299615859985	-0.3716509938240051	-0.2595599889755249	-0.02396100014448166	-0.07323300093412399	0.6129440069198608	0.6435189843177795	0.591867983341217	-0.6737160086631775	-1.400528907775879	-0.3310836851596832	0.16668197512626648	1.0051138401031494	0.4122040569782257	-0.16865991055965424	-0.6086438894271851	0.14026910066604614	0.03707185387611389	-0.7442653179168701	1.9997954368591309	0.2925783395767212	0.9753551483154297	0.0039130449295043945	1.1095322370529175	-0.12484490871429443	-0.4747532308101654	0.12246519327163696	-0.4380192756652832	-0.1114504411816597	1.101656198501587	-0.009416043758392334	-0.4963725805282593	-0.35193562507629395	-0.008805003017187119	-0.020280107855796814	-0.023956596851348877
58	-0.7447548508644104	-0.31921544671058655	0.03733592852950096	0.41613107919692993	0.043228890746831894	-0.12840387225151062	0.3700178265571594	-0.3580886125564575	-0.1313289999961853	0.3034493923187256	0.9737269878387451	0.6767235994338989	0.20873090624809265	-0.02984805405139923	-0.04583798348903656	-0.4684840440750122	-0.3795472979545593	-0.25367558002471924	-0.03256770595908165	-0.07488366216421127	0.6353656053543091	0.6461998820304871	0.5807315707206726	-0.6826611161231995	-1.0560050010681152	-0.3265567123889923	0.17470671236515045	0.9003825187683105	0.4013438820838928	-0.06291419267654419	-0.43895095586776733	0.30417516827583313	0.3564475178718567	-0.851768970489502	1.4720335006713867	0.2114132046699524	0.960898756980896	-0.09092175960540771	1.0790222883224487	-0.04051923751831055	-0.3578469157218933	0.33381545543670654	-0.42544910311698914	-0.07185526192188263	1.15375816822052	0.14477819204330444	-0.5905523896217346	-0.44501423835754395	-0.004579965025186539	0.0019300729036331177	-0.025084614753723145
59	-0.7634562253952026	-0.3253132700920105	0.04079126939177513	0.4333302974700928	0.05115475505590439	-0.12919357419013977	0.3624729514122009	-0.3512539863586426	-0.12272510677576065	0.2862032353878021	0.9999263286590576	0.6799785494804382	0.22753895819187164	-0.03199386969208717	-0.025698108598589897	-0.4686737656593323	-0.38596487045288086	-0.2462073713541031	-0.040978964418172836	-0.0761072114109993	0.6590943336486816	0.6493101119995117	0.5682458877563477	-0.6915165781974792	-0.6932854652404785	-0.26158690452575684	0.168899267911911	0.7791839838027954	0.38621845841407776	0.007362663745880127	-0.2538733184337616	0.41685253381729126	0.5776962041854858	-0.8834384679794312	0.9859591722488403	0.06544440984725952	0.8994754552841187	-0.14003124833106995	0.8630205988883972	0.052572786808013916	-0.24697482585906982	0.4526126980781555	-0.410818487405777	-0.03982875496149063	1.2518599033355713	0.17697960138320923	-0.6917804479598999	-0.4383191466331482	0.0010301824659109116	0.018610432744026184	-0.008539855480194092
60	-0.7724862694740295	-0.3296789228916168	0.04409189894795418	0.44729843735694885	0.05867762863636017	-0.12810936570167542	0.35986289381980896	-0.34141451120376587	-0.1082211509346962	0.26811185479164124	1.0131653547286987	0.6793413758277893	0.24470992386341095	-0.035449303686618805	-0.011317160911858082	-0.46638113260269165	-0.3894262909889221	-0.23557107150554657	-0.04900044575333595	-0.0764768123626709	0.6854400038719177	0.6532790660858154	0.5530603528022766	-0.7001938819885254	-0.17444193363189697	-0.18346905708312988	0.15397919714450836	0.6094053387641907	0.33611804246902466	0.09426064789295197	0.0802852213382721	0.5697697401046753	0.846890926361084	-0.9194977283477783	0.3376305103302002	-0.12034028768539429	0.778525710105896	-0.2148904800415039	0.5045132637023926	0.17221122980117798	-0.09620785713195801	0.5954798460006714	-0.3230772018432617	0.006400793790817261	1.3446271419525146	0.18311738967895508	-0.7673174142837524	-0.427989661693573	0.010250089690089226	0.04029013216495514	0.017349421977996826
61	-0.7704339027404785	-0.3326520323753357	0.046950437128543854	0.4577065110206604	0.06459947675466537	-0.1254231482744217	0.3656843602657318	-0.32846319675445557	-0.08884947001934052	0.2494233250617981	1.0134315490722656	0.6751649379730225	0.25867998600006104	-0.04058948904275894	-0.0055175768211483955	-0.46178531646728516	-0.3898131847381592	-0.22238817811012268	-0.05390205234289169	-0.07585117965936661	0.7128794193267822	0.6566348075866699	0.5375531911849976	-0.7086361646652222	0.241146981716156	-0.13125240802764893	0.13740389049053192	0.4759162664413452	0.27608630061149597	0.15433785319328308	0.39646774530410767	0.6864749193191528	1.0294487476348877	-0.9419113397598267	-0.14884769916534424	-0.253063440322876	0.6585057973861694	-0.27807149291038513	0.18271638453006744	0.25858283042907715	0.019089877605438232	0.6909895539283752	-0.2060883641242981	0.043721869587898254	1.385664939880371	0.16012191772460938	-0.7793977856636047	-0.41918158531188965	0.018470408394932747	0.05613081157207489	0.03964155912399292
62	-0.7628403902053833	-0.3349290192127228	0.04958805441856384	0.46633508801460266	0.06972108036279678	-0.12193585187196732	0.37572160363197327	-0.31395551562309265	-0.06704320013523102	0.23043540120124817	1.007211446762085	0.6692188382148743	0.2710501551628113	-0.046572163701057434	-0.004008505493402481	-0.45603781938552856	-0.3886626958847046	-0.2079314887523651	-0.05724398046731949	-0.07472793757915497	0.7408666014671326	0.6596839427947998	0.5218844413757324	-0.716961145401001	0.7954537868499756	-0.08175000548362732	0.12063104659318924	0.2970747649669647	0.21004602313041687	0.22959373891353607	0.832966685295105	0.8284464478492737	1.32772958278656	-1.0598387718200684	-0.7560491561889648	-0.3716617822647095	0.45591071248054504	-0.31281355023384094	-0.45928823947906494	0.33540427684783936	0.3170497715473175	0.8601874113082886	-0.06181299686431885	0.08404646068811417	1.3069599866867065	0.05071461200714111	-0.8909985423088074	-0.36954134702682495	0.03061555325984955	0.07434114813804626	0.06063133478164673
63	-0.7386157512664795	-0.3359220325946808	0.05177567899227142	0.469589501619339	0.07300131767988205	-0.11623939871788025	0.3990030288696289	-0.2953253388404846	-0.035740286111831665	0.2070297747850418	0.983189582824707	0.6602984666824341	0.27691641449928284	-0.0531020313501358	-0.02388910762965679	-0.4483691453933716	-0.3771311938762665	-0.18798068165779114	-0.05637457221746445	-0.07248932123184204	0.7651578187942505	0.6586633920669556	0.5019132494926453	-0.7234178185462952	1.3271286487579346	-0.035784393548965454	0.10564951598644257	0.10899603366851807	0.14798864722251892	0.2888243794441223	1.2716882228851318	0.9533084630966187	1.5975428819656372	-1.0750662088394165	-1.3491168022155762	-0.4688262939453125	0.24141594767570496	-0.37034693360328674	-1.0855931043624878	0.3949299454689026	0.6184406280517578	0.9721912145614624	0.0828273594379425	0.12267027050256729	1.2035459280014038	-0.0036656856536865234	-1.0357134342193604	-0.32539963722229004	0.04266006872057915	0.08981991559267044	0.07724463939666748
64	-0.7097552418708801	-0.3363603949546814	0.053814034909009933	0.4706949293613434	0.07564062625169754	-0.11038287729024887	0.42658913135528564	-0.275823175907135	-0.003141484223306179	0.18743275105953217	0.9532467722892761	0.6504657864570618	0.2807067930698395	-0.06138604134321213	-0.04743222892284393	-0.44024062156677246	-0.3639250695705414	-0.16904383897781372	-0.05393088608980179	-0.06982112675905228	0.7890084385871887	0.6595373153686523	0.4804559051990509	-0.7299771308898926	1.6748473644256592	0.005811452865600586	0.09445939213037491	-0.05216524004936218	0.099928118288517	0.30083972215652466	1.5945665836334229	1.0187394618988037	1.694789171218872	-0.7894787788391113	-1.7932116985321045	-0.5372703075408936	0.08574426174163818	-0.5019131898880005	-1.360305905342102	0.42943060398101807	0.7440522313117981	0.8961849212646484	0.2008935511112213	0.15489068627357483	1.1705472469329834	0.1384139060974121	-1.147209882736206	-0.3331094980239868	0.05058017373085022	0.09747017174959183	0.08641034364700317
65	-0.6716218590736389	-0.33568957448005676	0.05555405467748642	0.4675028920173645	0.07699844241142273	-0.10420580953359604	0.4627856910228729	-0.2545757591724396	0.03205127641558647	0.1754506230354309	0.9114611148834229	0.6388076543807983	0.28034618496894836	-0.07317855954170227	-0.07830134779214859	-0.43119192123413086	-0.34736910462379456	-0.1521332859992981	-0.04833883047103882	-0.06629369407892227	0.8119797110557556	0.664199948310852	0.4560248553752899	-0.7367421984672546	2.0196290016174316	0.005570054054260254	0.08960990607738495	-0.2650417387485504	0.055329687893390656	0.3342699408531189	1.9375085830688477	1.0981485843658447	1.8629379272460938	-0.7438820004463196	-2.310950994491577	-0.5484685301780701	-0.12337192893028259	-0.5754280686378479	-1.6094576120376587	0.4417687654495239	0.8209079504013062	0.9040590524673462	0.3636311888694763	0.17866957187652588	1.0801448822021484	0.22346973419189453	-1.2339376211166382	-0.41836053133010864	0.05974997580051422	0.10517984628677368	0.09115040302276611
66	-0.6289700865745544	-0.336137592792511	0.05739843100309372	0.46009325981140137	0.07785381376743317	-0.09701208025217056	0.5040894746780396	-0.231897234916687	0.07137603312730789	0.15767747163772583	0.8608087301254272	0.628527045249939	0.2757719159126282	-0.08440316468477249	-0.11181053519248962	-0.4225698709487915	-0.33108875155448914	-0.13288147747516632	-0.03938563913106918	-0.06267434358596802	0.8322142362594604	0.6684761047363281	0.43109840154647827	-0.7467115521430969	2.189101219177246	-0.03638714551925659	0.09352490305900574	-0.4232078790664673	0.03648828715085983	0.3724008798599243	2.1290621757507324	1.1518352031707764	2.0179200172424316	-0.961051881313324	-2.643491268157959	-0.4968196153640747	-0.2813860774040222	-0.5541432499885559	-1.708479404449463	0.4257775843143463	0.8105851411819458	0.9918708205223083	0.48967573046684265	0.18211929500102997	0.9775400161743164	0.20897537469863892	-1.2525334358215332	-0.5385249853134155	0.0655849426984787	0.10909456759691238	0.08909553289413452
67	-0.5840578079223633	-0.337145060300827	0.05929505079984665	0.4505745768547058	0.07845797389745712	-0.08930977433919907	0.5479481816291809	-0.20850235223770142	0.11276808381080627	0.13700854778289795	0.8057214617729187	0.6189348697662354	0.2690907418727875	-0.09534429013729095	-0.14664052426815033	-0.414160817861557	-0.31494569778442383	-0.11245845258235931	-0.028751801699399948	-0.059008922427892685	0.8510813117027283	0.6725589632987976	0.4059235155582428	-0.7582831978797913	2.248373508453369	-0.0846758484840393	0.09850478172302246	-0.629010796546936	-0.012480653822422028	0.4079541265964508	2.2242398262023926	1.2144572734832764	2.096560001373291	-0.9629214406013489	-2.9139533042907715	-0.40226876735687256	-0.4313856363296509	-0.5606837272644043	-1.3833969831466675	0.40063410997390747	0.7038272619247437	1.0479273796081543	0.459462970495224	0.1674894243478775	0.7868528366088867	0.016391277313232422	-1.10604989528656	-0.48419833183288574	0.06749974191188812	0.1067696139216423	0.0858306884765625
68	-0.5390351414680481	-0.33952462673187256	0.061338622123003006	0.4349328279495239	0.07735458761453629	-0.08069391548633575	0.5930590629577637	-0.18331894278526306	0.15523843467235565	0.11916061490774155	0.7442505955696106	0.6124362945556641	0.25851649045944214	-0.10683051496744156	-0.16714641451835632	-0.4065445065498352	-0.3029356598854065	-0.09096438437700272	-0.021007120609283447	-0.05597476661205292	0.8636883497238159	0.6691317558288574	0.38685640692710876	-0.7660794854164124	2.1428868770599365	-0.14007091522216797	0.08908901363611221	-0.7639713287353516	-0.07517114281654358	0.43440890312194824	2.1905646324157715	1.2574166059494019	2.093987464904785	-0.8378943204879761	-2.917598247528076	-0.2540856599807739	-0.5832977294921875	-0.5845941305160522	-0.8199844360351562	0.3480978310108185	0.5409799814224243	1.0768873691558838	0.3470965325832367	0.14261910319328308	0.594872236251831	-0.2363845705986023	-0.8637272119522095	-0.3268614411354065	0.06565474718809128	0.09880959987640381	0.08426010608673096
69	-0.4983423352241516	-0.34274789690971375	0.06285861134529114	0.42001572251319885	0.07545112818479538	-0.07193341851234436	0.635570764541626	-0.15820568799972534	0.19652758538722992	0.10349277406930923	0.6890175342559814	0.6087714433670044	0.24575883150100708	-0.11872805655002594	-0.17943990230560303	-0.40023690462112427	-0.29330649971961975	-0.06938295811414719	-0.014867940917611122	-0.05330415815114975	0.8748762011528015	0.6631035804748535	0.3713744282722473	-0.7713576555252075	1.8181025981903076	-0.2033427357673645	0.0498197041451931	-0.7096059322357178	-0.13517233729362488	0.44524484872817993	1.9955768585205078	1.2521226406097412	2.0053491592407227	-0.6743740439414978	-2.4497077465057373	-0.04156529903411865	-0.7470302581787109	-0.6154267191886902	-0.20406171679496765	0.2499409019947052	0.36240965127944946	1.0834112167358398	0.2266802340745926	0.1153506338596344	0.48842430114746094	-0.43144822120666504	-0.5948312282562256	-0.13799816370010376	0.060210563242435455	0.08582063019275665	0.08729100227355957
70	-0.4663110375404358	-0.34765833616256714	0.06333141028881073	0.4065485894680023	0.07194769382476807	-0.062884122133255	0.6728821396827698	-0.13323403894901276	0.23545239865779877	0.09218565374612808	0.6462622880935669	0.6107736825942993	0.2286352813243866	-0.13144758343696594	-0.17530888319015503	-0.396546870470047	-0.2884392738342285	-0.04762793704867363	-0.011939911171793938	-0.05136074125766754	0.8832253217697144	0.6518738269805908	0.36306315660476685	-0.7715994119644165	1.388031244277954	-0.2415589988231659	-0.010920874774456024	-0.5600653886795044	-0.1678394079208374	0.44035863876342773	1.6709595918655396	1.1636346578598022	1.9101645946502686	-0.4549561142921448	-1.7421364784240723	0.20489245653152466	-0.8202366828918457	-0.5828071236610413	0.27214065194129944	0.11070743203163147	0.14046654105186462	0.9819548726081848	0.05912766605615616	0.07587923109531403	0.3814280033111572	-0.5711793899536133	-0.2681359648704529	0.10642409324645996	0.05115973949432373	0.06477944552898407	0.0742882490158081
71	-0.44282108545303345	-0.3524102568626404	0.0624217763543129	0.3976131081581116	0.06873755156993866	-0.054319072514772415	0.7024091482162476	-0.11166030168533325	0.2729341685771942	0.08529452979564667	0.6193320751190186	0.6169671416282654	0.21294936537742615	-0.14204034209251404	-0.16855427622795105	-0.395808607339859	-0.28768783807754517	-0.03010476380586624	-0.01250283420085907	-0.0502689890563488	0.8901333212852478	0.640256404876709	0.3606489896774292	-0.7671006917953491	1.0677553415298462	-0.23561790585517883	-0.06276220083236694	-0.3901384770870209	-0.15684328973293304	0.4222077429294586	1.379080057144165	1.0362341403961182	1.8560837507247925	-0.28936508297920227	-1.1487290859222412	0.3620639443397522	-0.766339898109436	-0.5030632019042969	0.3705233335494995	1.9371509552001953e-05	-0.013867765665054321	0.8232792615890503	-0.07178068906068802	0.043943244963884354	0.32739490270614624	-0.5857273936271667	-0.04700496792793274	0.2841934561729431	0.043029382824897766	0.04620887339115143	0.05175769329071045
72	-0.42360082268714905	-0.3570830523967743	0.06082092225551605	0.3909430503845215	0.06567396223545074	-0.045995812863111496	0.7280453443527222	-0.09178467094898224	0.3096957504749298	0.08061105012893677	0.600313127040863	0.6252562403678894	0.19798168540000916	-0.15157011151313782	-0.16048794984817505	-0.3965460956096649	-0.2889939844608307	-0.014696767553687096	-0.01481113862246275	-0.04960301145911217	0.8963211178779602	0.6284447312355042	0.36118295788764954	-0.7602316737174988	0.6635189056396484	-0.16696453094482422	-0.11580009013414383	-0.11444687843322754	-0.11312905699014664	0.39158862829208374	0.9548038244247437	0.8168809413909912	1.676198124885559	-0.06961282342672348	-0.3430396318435669	0.4428282380104065	-0.6763771176338196	-0.34226739406585693	0.2503924071788788	-0.09411051869392395	-0.006313621997833252	0.6142614483833313	-0.19485056400299072	0.005294568836688995	0.2386912703514099	-0.5650922656059265	-0.009495019912719727	0.443325936794281	0.030419789254665375	0.021794624626636505	0.018675625324249268
73	-0.4162803292274475	-0.35908883810043335	0.057789772748947144	0.39303523302078247	0.0642123892903328	-0.03865552693605423	0.7406013011932373	-0.0789850652217865	0.3399820923805237	0.08251001685857773	0.6056104898452759	0.6346802711486816	0.18589428067207336	-0.15573103725910187	-0.1585385799407959	-0.39957302808761597	-0.2879403829574585	-0.005534307099878788	-0.0202968567609787	-0.05005720630288124	0.8996809720993042	0.6176527142524719	0.3602691888809204	-0.7493676543235779	0.248757004737854	-0.08115321397781372	-0.15139459073543549	0.18192976713180542	-0.05197860300540924	0.3534281551837921	0.5034759640693665	0.5639837980270386	1.429105520248413	0.14739781618118286	0.45278221368789673	0.4686489701271057	-0.5520648956298828	-0.16875192523002625	0.05182698369026184	-0.1686103641986847	0.07654651999473572	0.407920777797699	-0.2510829269886017	-0.033705681562423706	0.13699084520339966	-0.5300521850585938	-0.05481541156768799	0.5250066518783569	0.01618475653231144	-0.001695193350315094	-0.015257298946380615
74	-0.4136505424976349	-0.36032918095588684	0.054765138775110245	0.3982202410697937	0.06359481811523438	-0.03185868635773659	0.7481843829154968	-0.06922531872987747	0.36685997247695923	0.08650696277618408	0.6184244155883789	0.6440021991729736	0.17589908838272095	-0.15832018852233887	-0.15841487050056458	-0.4032905101776123	-0.28593212366104126	0.0016200639074668288	-0.024854455143213272	-0.050951238721609116	0.9018007516860962	0.6072426438331604	0.358990341424942	-0.7392314076423645	-0.10303258895874023	-0.023748725652694702	-0.15089967846870422	0.41387081146240234	0.011320412158966064	0.3126589059829712	0.13050734996795654	0.3359870910644531	1.1734352111816406	0.3047304153442383	1.0164707899093628	0.46096891164779663	-0.39513781666755676	-0.05086921155452728	-0.08509121835231781	-0.22038966417312622	0.14813989400863647	0.25730809569358826	-0.18146894872188568	-0.06669014692306519	0.04397928714752197	-0.5013898015022278	-0.08219033479690552	0.4704087972640991	0.003179861232638359	-0.017490051686763763	-0.04032105207443237
75	-0.4204016327857971	-0.36003878712654114	0.05175378546118736	0.40959006547927856	0.06466520577669144	-0.026149170473217964	0.7458215951919556	-0.06554558128118515	0.3869194984436035	0.09469923377037048	0.6462693214416504	0.6531190276145935	0.1700887680053711	-0.15776580572128296	-0.1619422286748886	-0.408388614654541	-0.28201478719711304	0.004758015740662813	-0.027555614709854126	-0.05272481217980385	0.9014401435852051	0.5975971221923828	0.3569815754890442	-0.7305513024330139	-0.4962824285030365	0.036100298166275024	-0.13281917572021484	0.632140040397644	0.07249042391777039	0.24606846272945404	-0.2914145588874817	0.04360619932413101	0.7947832345962524	0.4580300450325012	1.550459861755371	0.44884681701660156	-0.16103647649288177	0.08751116693019867	-0.1640893518924713	-0.27610957622528076	0.18192902207374573	0.0678875595331192	-0.08272845298051834	-0.09479978680610657	-0.08645951747894287	-0.4619896411895752	-0.025587528944015503	0.4266783595085144	-0.012170197442173958	-0.034700147807598114	-0.06768852472305298
76	-0.43350183963775635	-0.35888516902923584	0.04945237189531326	0.42350584268569946	0.06649443507194519	-0.022015947848558426	0.7365278005599976	-0.06748107075691223	0.3986513018608093	0.10482816398143768	0.6804428100585938	0.6619560718536377	0.16945762932300568	-0.15481974184513092	-0.16497844457626343	-0.41433489322662354	-0.27865496277809143	0.00433556642383337	-0.028163593262434006	-0.05474323034286499	0.8983423709869385	0.5887630581855774	0.3579668402671814	-0.7221642732620239	-0.734373927116394	0.06847009062767029	-0.10619517415761948	0.7276080846786499	0.10094642639160156	0.18695542216300964	-0.5513280630111694	-0.166967511177063	0.48248395323753357	0.5306525230407715	1.7877668142318726	0.4383549094200134	0.03318414092063904	0.1771986484527588	-0.14566853642463684	-0.3079146146774292	0.16102418303489685	-0.06562861055135727	-0.004233652725815773	-0.10398104786872864	-0.18910765647888184	-0.4315569996833801	0.08668377995491028	0.4156872630119324	-0.022190483286976814	-0.044720619916915894	-0.08368194103240967
77	-0.4497765898704529	-0.3572999835014343	0.047505978494882584	0.43869438767433167	0.0687030628323555	-0.018670953810214996	0.7237684726715088	-0.07222428172826767	0.40621885657310486	0.11592533439397812	0.7177799940109253	0.670653223991394	0.17141613364219666	-0.1506778597831726	-0.16776897013187408	-0.4207051992416382	-0.27557381987571716	0.002132871188223362	-0.027724960818886757	-0.056884054094552994	0.8938758373260498	0.5803348422050476	0.3604489266872406	-0.7139238119125366	-0.9752541780471802	0.0733494758605957	-0.0705895945429802	0.7712230086326599	0.11480972170829773	0.1289541870355606	-0.8513703942298889	-0.4007561206817627	0.039896368980407715	0.6073642373085022	1.9524544477462769	0.46263039112091064	0.18085576593875885	0.2343151718378067	-0.040333718061447144	-0.34570395946502686	0.26754140853881836	-0.18163543939590454	0.04986021667718887	-0.10811984539031982	-0.2843409776687622	-0.35467296838760376	0.015388429164886475	0.35276859998703003	-0.03309003263711929	-0.054899975657463074	-0.09919553995132446
78	-0.47251200675964355	-0.355951189994812	0.046628788113594055	0.45435476303100586	0.0710868239402771	-0.016857780516147614	0.702472984790802	-0.08351131528615952	0.40024715662002563	0.12912273406982422	0.7585409879684448	0.6804612874984741	0.17669185996055603	-0.14544713497161865	-0.1665917932987213	-0.4281630516052246	-0.2679533064365387	-0.0029298514127731323	-0.02616918459534645	-0.05906802415847778	0.886968731880188	0.5745761394500732	0.35858237743377686	-0.7080535292625427	-1.1746392250061035	0.05775466561317444	-0.03756945952773094	0.7674172520637512	0.11500958353281021	0.08545443415641785	-1.122941017150879	-0.5976857542991638	-0.4080764949321747	0.6624935269355774	2.0406410694122314	0.5080848932266235	0.27841031551361084	0.2699848413467407	0.10731816291809082	-0.3839947283267975	0.39421021938323975	-0.27474066615104675	0.0720844566822052	-0.10726460814476013	-0.3480300307273865	-0.2509370446205139	-0.08867830038070679	0.28765201568603516	-0.04183999449014664	-0.06299987435340881	-0.11035501956939697
79	-0.49676215648651123	-0.35498979687690735	0.046003200113773346	0.4693910777568817	0.07330344617366791	-0.015252776443958282	0.6788508296012878	-0.09613171219825745	0.38989579677581787	0.142425075173378	0.7994056344032288	0.690976619720459	0.1825525462627411	-0.13987846672534943	-0.16347624361515045	-0.4360649883747101	-0.2598054111003876	-0.008856755681335926	-0.024841582402586937	-0.06117463856935501	0.8799546360969543	0.570297360420227	0.35690179467201233	-0.7024177312850952	-1.2881889343261719	0.028699636459350586	-0.01869974657893181	0.7205880880355835	0.10246969759464264	0.06983967125415802	-1.297389030456543	-0.6976591348648071	-0.7365122437477112	0.6703383922576904	2.0483360290527344	0.561109185218811	0.3222692608833313	0.29531940817832947	0.25268083810806274	-0.4172801971435547	0.4337489604949951	-0.33953967690467834	0.05496973171830177	-0.10145977139472961	-0.3560394048690796	-0.13993829488754272	-0.07473006844520569	0.27005821466445923	-0.04540984332561493	-0.0667797401547432	-0.11328011751174927
80	-0.5240395665168762	-0.354803204536438	0.04588079825043678	0.4831782877445221	0.0751856118440628	-0.014064193703234196	0.6505774259567261	-0.11141768097877502	0.3707866668701172	0.15593627095222473	0.8404744267463684	0.7029056549072266	0.18958263099193573	-0.13363435864448547	-0.15648455917835236	-0.4448542594909668	-0.2506033480167389	-0.01651143841445446	-0.02397039532661438	-0.06312641501426697	0.8727271556854248	0.5689786076545715	0.35559317469596863	-0.6972512006759644	-1.4171674251556396	0.002199411392211914	0.006010197103023529	0.6442971229553223	0.07606912404298782	0.05312971770763397	-1.4707491397857666	-0.8036788702011108	-1.0897800922393799	0.6385874152183533	2.029834747314453	0.6016090512275696	0.32938867807388306	0.2856683135032654	0.4529610276222229	-0.4450589418411255	0.5699113011360168	-0.42812004685401917	0.013669207692146301	-0.09443964809179306	-0.41572004556655884	0.07375478744506836	-0.15083253383636475	0.18237829208374023	-0.046529851853847504	-0.07027983665466309	-0.09910762310028076
81	-0.5534488558769226	-0.35490182042121887	0.04624360799789429	0.4951629638671875	0.07634621113538742	-0.013127587735652924	0.620020866394043	-0.12827886641025543	0.34630459547042847	0.16796857118606567	0.8805990219116211	0.7150409817695618	0.1957280933856964	-0.12845173478126526	-0.14535780251026154	-0.4538673460483551	-0.2370089590549469	-0.025981558486819267	-0.024294814094901085	-0.06495222449302673	0.863325834274292	0.5732475519180298	0.35086849331855774	-0.6951225996017456	-1.4970853328704834	-0.008495151996612549	0.024205073714256287	0.5766921043395996	0.04900973290205002	0.043679844588041306	-1.55633544921875	-0.8627328872680664	-1.2912415266036987	0.583118200302124	1.994389295578003	0.6093338131904602	0.2962093949317932	0.24585890769958496	0.608013927936554	-0.45344382524490356	0.7346086502075195	-0.49618905782699585	-0.031165126711130142	-0.08971467614173889	-0.4972293972969055	0.2832844853401184	-0.27892962098121643	0.06845444440841675	-0.04463992267847061	-0.07174983620643616	-0.07492899894714355
82	-0.5839229822158813	-0.3551430106163025	0.046849001199007034	0.5062459707260132	0.0771460011601448	-0.012316999956965446	0.5883240103721619	-0.14592699706554413	0.31913700699806213	0.1792609989643097	0.9202499985694885	0.727279007434845	0.201431006193161	-0.12380000203847885	-0.13216400146484375	-0.46299201250076294	-0.221219003200531	-0.03635900095105171	-0.025217000395059586	-0.06671500205993652	0.8528379797935486	0.5803099870681763	0.34443598985671997	-0.6945130228996277	-1.5221357345581055	0.026550889015197754	0.03904514014720917	0.44503211975097656	0.03050975501537323	0.021164700388908386	-1.618465781211853	-0.9329683780670166	-1.5716240406036377	0.552193820476532	1.8246382474899292	0.5131617188453674	0.180073082447052	0.2377644181251526	0.770849347114563	-0.4175230860710144	0.7320724725723267	-0.4903784394264221	-0.06523509323596954	-0.0776996836066246	-0.6019353866577148	0.48323869705200195	-0.35660937428474426	-0.054511427879333496	-0.042404793202877045	-0.07058978080749512	-0.07336586713790894
83	-0.6143342852592468	-0.35383978486061096	0.047805413603782654	0.5129642486572266	0.07756660133600235	-0.012280999682843685	0.5552822351455688	-0.165597602725029	0.28343963623046875	0.19005632400512695	0.9535845518112183	0.7355674505233765	0.2029310166835785	-0.11894115805625916	-0.11452382802963257	-0.4705682694911957	-0.20772606134414673	-0.04559669643640518	-0.026904217898845673	-0.06806021183729172	0.8392484188079834	0.5925770998001099	0.33660411834716797	-0.697303056716919	-1.496008038520813	0.083962082862854	0.05060555413365364	0.2845853567123413	0.014359690248966217	-0.0040403567254543304	-1.6464024782180786	-0.9907703995704651	-1.8254660367965698	0.5304247140884399	1.5842676162719727	0.3613308072090149	0.08157119154930115	0.23767220973968506	0.9085456132888794	-0.35248175263404846	0.6057627201080322	-0.4401533901691437	-0.0941014364361763	-0.06227530539035797	-0.7543012499809265	0.6425380706787109	-0.3444008529186249	-0.1329958438873291	-0.03993036225438118	-0.0672508031129837	-0.07562041282653809
84	-0.6437633037567139	-0.35178452730178833	0.04887322336435318	0.5176293849945068	0.07772038877010345	-0.01247861422598362	0.5224679112434387	-0.18555781245231628	0.24611836671829224	0.2004779875278473	0.9836207032203674	0.7417322397232056	0.20469385385513306	-0.11429311335086823	-0.09582217782735825	-0.4770912826061249	-0.19698849320411682	-0.05396513640880585	-0.028981057927012444	-0.06920601427555084	0.8226659297943115	0.6060115098953247	0.330659955739975	-0.6998328566551208	-1.4223442077636719	0.1403622329235077	0.05896063521504402	0.1306086778640747	-0.005650334060192108	-0.021560512483119965	-1.6293458938598633	-1.0124907493591309	-1.9472516775131226	0.5024045705795288	1.3368993997573853	0.20205974578857422	0.10128132998943329	0.2218620777130127	0.988151490688324	-0.2734921872615814	0.3991205096244812	-0.37496256828308105	-0.12332172691822052	-0.04732031375169754	-0.9787619113922119	0.7300794124603271	-0.20282939076423645	-0.11348128318786621	-0.03732037544250488	-0.06218068301677704	-0.06290078163146973
85	-0.6712280511856079	-0.34822529554367065	0.050163839012384415	0.5181885957717896	0.07734058797359467	-0.013143420219421387	0.4901084005832672	-0.20609723031520844	0.20554956793785095	0.2101525068283081	1.0070605278015137	0.7436498403549194	0.20698226988315582	-0.11006667464971542	-0.07499776780605316	-0.48150795698165894	-0.19176124036312103	-0.06059519946575165	-0.031837087124586105	-0.06995302438735962	0.8000979423522949	0.621780276298523	0.3284909427165985	-0.7018423080444336	-1.2506574392318726	0.20729303359985352	0.06779088079929352	-0.1025080680847168	-0.04751179367303848	-0.03631049767136574	-1.5666924715042114	-1.0171399116516113	-2.015279531478882	0.44234246015548706	0.9568884968757629	0.0047147274017333984	0.07842853665351868	0.21446235477924347	0.994877815246582	-0.16709938645362854	0.10456293821334839	-0.3455841839313507	-0.18075373768806458	-0.021279416978359222	-1.209895372390747	0.856451690196991	0.027406960725784302	-0.08952021598815918	-0.03379024565219879	-0.05239993333816528	-0.04194080829620361
86	-0.6937896013259888	-0.3434928059577942	0.05158485844731331	0.5135290622711182	0.07581991702318192	-0.01393103413283825	0.45980021357536316	-0.22624340653419495	0.16550718247890472	0.21817168593406677	1.021896243095398	0.7419208288192749	0.2078309953212738	-0.10571461915969849	-0.056027065962553024	-0.48377525806427	-0.19280597567558289	-0.0677885040640831	-0.03621120750904083	-0.07005719095468521	0.7742701172828674	0.6402695775032043	0.33175623416900635	-0.7034136652946472	-1.0667800903320312	0.25128647685050964	0.07267975807189941	-0.2982005476951599	-0.09029209613800049	-0.040915027260780334	-1.4897488355636597	-1.0023809671401978	-1.9955151081085205	0.3802657127380371	0.634235143661499	-0.13202577829360962	0.024442002177238464	0.21917057037353516	0.9253497123718262	-0.08650049567222595	-0.13062581419944763	-0.3666996955871582	-0.23767603933811188	0.0028265640139579773	-1.3321175575256348	0.9584531188011169	0.23118332028388977	-0.07309019565582275	-0.03110473044216633	-0.04279930144548416	-0.023218989372253418
87	-0.7138992547988892	-0.33817383646965027	0.053071029484272	0.5062605738639832	0.07372890412807465	-0.014780021272599697	0.4305184483528137	-0.24619247019290924	0.12572896480560303	0.2253631353378296	1.0324299335479736	0.738368809223175	0.20795994997024536	-0.10129985213279724	-0.03798377886414528	-0.484967976808548	-0.19698627293109894	-0.07526318728923798	-0.04134412854909897	-0.0698399618268013	0.7468132376670837	0.6601184010505676	0.3377382755279541	-0.7047659158706665	-0.7406294345855713	0.28579533100128174	0.06469450891017914	-0.5472049117088318	-0.14983639121055603	-0.04226989299058914	-1.3047053813934326	-0.9649611711502075	-1.9992403984069824	0.31987279653549194	0.1522660255432129	-0.29182732105255127	-0.043876469135284424	0.26103073358535767	0.6674293279647827	0.011073052883148193	-0.3659151494503021	-0.3655336797237396	-0.2534393072128296	0.039000995457172394	-1.4348998069763184	0.8868381381034851	0.4204384982585907	0.03792494535446167	-0.026324763894081116	-0.02794470638036728	0.0031381845474243164
88	-0.7234147787094116	-0.3320609927177429	0.054172638803720474	0.4916408658027649	0.06982646137475967	-0.015621829777956009	0.40761199593544006	-0.26484185457229614	0.08553756773471832	0.23096659779548645	1.0279868841171265	0.7302477359771729	0.20607593655586243	-0.09527339041233063	-0.029329892247915268	-0.4833323359489441	-0.20744258165359497	-0.08240985125303268	-0.046348780393600464	-0.06849715113639832	0.7168741226196289	0.6757431030273438	0.34857377409935	-0.7018966674804688	-0.37916749715805054	0.31573474407196045	0.04827948287129402	-0.7810547947883606	-0.20953547954559326	-0.043079931288957596	-1.0720179080963135	-0.9258124828338623	-1.9794827699661255	0.31065642833709717	-0.3555119037628174	-0.4520222544670105	-0.10387003421783447	0.2987092435359955	0.357174277305603	0.1092374324798584	-0.5300991535186768	-0.37233978509902954	-0.21284706890583038	0.07324498146772385	-1.5258982181549072	0.7730379700660706	0.5967572331428528	0.1590147614479065	-0.02185995690524578	-0.012949667870998383	0.03010183572769165
89	-0.7290659546852112	-0.32554444670677185	0.055002208799123764	0.47501838207244873	0.06534748524427414	-0.016503218561410904	0.387637734413147	-0.2832249701023102	0.04654965549707413	0.23778939247131348	1.018209457397461	0.7202879190444946	0.20380514860153198	-0.08935148268938065	-0.023696808144450188	-0.48059847950935364	-0.2181902378797531	-0.09015677869319916	-0.049858011305332184	-0.06691016256809235	0.6857773065567017	0.6910399198532104	0.3616085648536682	-0.6984053254127502	-0.08938014507293701	0.3460206091403961	0.02787923440337181	-0.9312823414802551	-0.25278088450431824	-0.04604998975992203	-0.8521609306335449	-0.9058773517608643	-1.8893020153045654	0.40211230516433716	-0.7555842399597168	-0.5899339914321899	-0.13288073241710663	0.2908792495727539	0.13064202666282654	0.19160211086273193	-0.5519691705703735	-0.4173705279827118	-0.10070586204528809	0.09156037122011185	-1.6127779483795166	0.7484689354896545	0.7617138624191284	0.2056807279586792	-0.02011992037296295	-0.002929195761680603	0.050649046897888184
90	-0.7269899845123291	-0.3182201683521271	0.05528780817985535	0.4543895721435547	0.05971522629261017	-0.01746382936835289	0.37352555990219116	-0.3010769486427307	0.009965484030544758	0.24705109000205994	0.9977635145187378	0.7066503763198853	0.20076070725917816	-0.08363822102546692	-0.02410421147942543	-0.4756682515144348	-0.22952134907245636	-0.09910467267036438	-0.0503770150244236	-0.06483473628759384	0.6523630023002625	0.7056818604469299	0.3790423274040222	-0.6936694383621216	0.310264527797699	0.36867931485176086	-0.00247051939368248	-1.0889694690704346	-0.3047097325325012	-0.04817992448806763	-0.4967838525772095	-0.8690975904464722	-1.722842812538147	0.4888594150543213	-1.3061851263046265	-0.7470995187759399	-0.21421127021312714	0.26999878883361816	-0.1940639168024063	0.2906195819377899	-0.4421055316925049	-0.42588841915130615	0.110703244805336	0.11059995740652084	-1.741076946258545	0.6804361939430237	0.9358793497085571	0.24741142988204956	-0.018839910626411438	0.010050088167190552	0.07366836071014404
91	-0.7166553735733032	-0.3107972741127014	0.054903388023376465	0.43145960569381714	0.05315909534692764	-0.01843041554093361	0.3677663803100586	-0.31798887252807617	-0.022364061325788498	0.25734376907348633	0.9659620523452759	0.690403938293457	0.1952366977930069	-0.0785515308380127	-0.03145936504006386	-0.46897369623184204	-0.2358744591474533	-0.10719231516122818	-0.045429881662130356	-0.06248616427183151	0.6161342263221741	0.7182573676109314	0.3990437388420105	-0.6885088682174683	0.6199643015861511	0.372382253408432	-0.027596205472946167	-1.1752806901931763	-0.33936071395874023	-0.04840507358312607	-0.1835562288761139	-0.8338600397109985	-1.563327431678772	0.5275294184684753	-1.7320468425750732	-0.8449465036392212	-0.30719900131225586	0.24650618433952332	-0.4546061158180237	0.35678669810295105	-0.2554386854171753	-0.39363428950309753	0.3156862258911133	0.12084534764289856	-1.8466517925262451	0.6029576063156128	1.032183289527893	0.26333779096603394	-0.018659932538866997	0.019500218331813812	0.0876501202583313
92	-0.7021914124488831	-0.3033248782157898	0.0541839599609375	0.40737834572792053	0.046140797436237335	-0.019400032237172127	0.3661833107471466	-0.33443135023117065	-0.052567608654499054	0.26815226674079895	0.9284816384315491	0.6728525161743164	0.18847274780273438	-0.07377797365188599	-0.04228845611214638	-0.4613967835903168	-0.23973889648914337	-0.11485004425048828	-0.03774956613779068	-0.06000092253088951	0.5784969329833984	0.7298001646995544	0.42032966017723083	-0.6831359267234802	0.9538054466247559	0.30887871980667114	-0.05886014550924301	-1.243796944618225	-0.37238943576812744	-0.0562349334359169	0.24171322584152222	-0.7618919014930725	-1.351719617843628	0.5275331735610962	-2.2680745124816895	-0.9063571691513062	-0.41392481327056885	0.15134848654270172	-0.7177053689956665	0.4155300557613373	0.010187551379203796	-0.23293253779411316	0.6151064038276672	0.1369648575782776	-1.992940902709961	0.4464283585548401	1.159033179283142	0.16682744026184082	-0.019289972260594368	0.02976004034280777	0.09475499391555786
93	-0.678503155708313	-0.29844212532043457	0.052548982203006744	0.38170772790908813	0.03826351836323738	-0.020679812878370285	0.3774349093437195	-0.3484645485877991	-0.07643284648656845	0.2784450948238373	0.8752390742301941	0.6541496515274048	0.1786797046661377	-0.07249759137630463	-0.0601675808429718	-0.45235249400138855	-0.23546695709228516	-0.11650961637496948	-0.020825626328587532	-0.0570075698196888	0.5364165902137756	0.736114501953125	0.4454050660133362	-0.6818357706069946	1.2401208877563477	0.21919310092926025	-0.08808030188083649	-1.2924067974090576	-0.3975692093372345	-0.06825011223554611	0.626102089881897	-0.6740272045135498	-1.1240527629852295	0.5158334970474243	-2.763824224472046	-0.9178012609481812	-0.5205157995223999	0.031182914972305298	-0.8982929587364197	0.44800862669944763	0.296599805355072	-0.026716291904449463	0.8461377620697021	0.1501196026802063	-2.112150192260742	0.2680465579032898	1.210358738899231	0.02984553575515747	-0.020089978352189064	0.0374646857380867	0.09238272905349731
94	-0.6525865793228149	-0.2945571541786194	0.05066074803471565	0.3556820750236511	0.03023802861571312	-0.02213003672659397	0.3912273943424225	-0.36139243841171265	-0.09752971678972244	0.2887856066226959	0.817928671836853	0.6361404657363892	0.16765211522579193	-0.07253065705299377	-0.0782201737165451	-0.44347643852233887	-0.22787490487098694	-0.11591869592666626	-0.0039040555711835623	-0.05399613827466965	0.49401092529296875	0.740522027015686	0.4687440097332001	-0.6819421052932739	1.4072060585021973	0.14435946941375732	-0.10707136243581772	-1.3190031051635742	-0.40867429971694946	-0.08103102445602417	0.8166409730911255	-0.5911141633987427	-0.9164057970046997	0.5193955898284912	-3.0688271522521973	-0.8657485246658325	-0.6130881309509277	-0.06732214242219925	-0.9112793803215027	0.4353836178779602	0.5455896258354187	0.14206431806087494	0.8459385633468628	0.15147151052951813	-2.1364927291870117	0.12503862380981445	1.080098032951355	-0.07563233375549316	-0.020420225337147713	0.03925040364265442	0.07794052362442017
95	-0.6222149133682251	-0.2926677465438843	0.048266127705574036	0.32894760370254517	0.021916545927524567	-0.023921053856611252	0.4101005494594574	-0.3721091151237488	-0.11308907717466354	0.2992209196090698	0.752485990524292	0.6195197105407715	0.1541561782360077	-0.0751904770731926	-0.09661875665187836	-0.43493714928627014	-0.2136433720588684	-0.11082704365253448	0.013011916540563107	-0.05094870924949646	0.45095688104629517	0.7411160469055176	0.4886089861392975	-0.6848610639572144	1.4608547687530518	0.03802850842475891	-0.13315993547439575	-1.284045696258545	-0.40215858817100525	-0.09819995611906052	0.9319067001342773	-0.44583678245544434	-0.6628955006599426	0.4900984466075897	-3.2447993755340576	-0.7800668478012085	-0.6770882606506348	-0.19744113087654114	-0.7234232425689697	0.40536895394325256	0.844100832939148	0.35249143838882446	0.6723238825798035	0.1348491758108139	-2.1360740661621094	-0.06371289491653442	0.9231053590774536	-0.18769800662994385	-0.017009861767292023	0.03883000463247299	0.0776529312133789
